; generated by PrusaSlicer 2.4.0+win64 on 2022-03-05 at 17:28:22 UTC

; 

; external perimeters extrusion width = 0.45mm
; perimeters extrusion width = 0.45mm
; infill extrusion width = 0.45mm
; solid infill extrusion width = 0.45mm
; top infill extrusion width = 0.45mm
; first layer extrusion width = 0.42mm

M201 X500 Y500 Z100 E5000 ; sets maximum accelerations, mm/sec^2
M203 X500 Y500 Z10 E60 ; sets maximum feedrates, mm/sec
M204 P500 R1000 T500 ; sets acceleration (P, T) and retract acceleration (R), mm/sec^2
M205 X8.00 Y8.00 Z0.40 E5.00 ; sets the jerk limits, mm/sec
M205 S0 T0 ; sets the minimum extruding and travel feed rate, mm/sec
M107
;TYPE:Custom
G90 ; use absolute coordinates
M83 ; extruder relative mode
M140 S80 ; set final bed temp
M104 S150 ; set temporary nozzle temp to prevent oozing during homing
G4 S10 ; allow partial nozzle warmup
G28 ; home all axis
G1 Z50 F240
G1 X2 Y10 F3000
M104 S235 ; set final nozzle temp
M190 S80 ; wait for bed temp to stabilize
M109 S235 ; wait for nozzle temp to stabilize
G1 Z0.28 F240
G92 E0
G1 Y140 E10 F1500 ; prime the nozzle
G1 X2.3 F5000
G92 E0
G1 Y10 E10 F1200 ; prime the nozzle
G92 E0
G21 ; set units to millimeters
G90 ; use absolute coordinates
M83 ; use relative distances for extrusion
; Filament gcode
M107
;LAYER_CHANGE
;Z:0.2
;HEIGHT:0.2
;BEFORE_LAYER_CHANGE
G92 E0
;0.2


G1 E-5 F3600
G1 Z.1 F9000
;AFTER_LAYER_CHANGE
;0.2
G1 X66.04 Y66.307
G1 E5 F2400
M204 S500
;TYPE:Skirt/Brim
;WIDTH:0.42
G1 F1200
G1 X74.722 Y59.161 E.33495
G1 X75.397 Y58.69 E.0245
G1 X85.307 Y53.375 E.33495
G1 X86.06 Y53.045 E.0245
G1 X96.816 Y49.766 E.33495
G1 X97.62 Y49.589 E.0245
G1 X108.809 Y48.471 E.33495
G1 X109.962 Y48.471 E.03435
G1 X120.824 Y49.541 E.32509
G1 X121.634 Y49.685 E.0245
G1 X132.399 Y52.934 E.33495
G1 X133.465 Y53.375 E.03435
G1 X143.374 Y58.69 E.33495
G1 X144.049 Y59.161 E.0245
G1 X152.563 Y66.15 E.32811
G1 X182.595 Y92.352 E1.18717
G1 X185.524 Y95.281 E.12338
G1 X186.365 Y96.679 E.0486
G1 X186.513 Y97.669 E.02981
G1 X186.513 Y122.331 E.7346
G1 X186.119 Y123.914 E.0486
G1 X185.524 Y124.719 E.02981
G1 X182.427 Y127.805 E.13024
G1 X152.563 Y153.85 E1.18031
G1 X144.049 Y160.839 E.32811
G1 X143.374 Y161.31 E.0245
G1 X133.165 Y166.767 E.34481
G1 X132.399 Y167.066 E.0245
G1 X121.955 Y170.234 E.32509
G1 X120.824 Y170.459 E.03435
G1 X109.962 Y171.529 E.32509
G1 X109.14 Y171.545 E.0245
G1 X97.948 Y170.459 E.33495
G1 X97.138 Y170.315 E.0245
G1 X86.372 Y167.066 E.33495
G1 X85.607 Y166.767 E.0245
G1 X75.682 Y161.48 E.33495
G1 X74.989 Y161.037 E.0245
G1 X66.286 Y153.916 E.33495
G1 X65.693 Y153.346 E.0245
G1 X58.547 Y144.663 E.33495
G1 X58.076 Y143.989 E.0245
G1 X52.761 Y134.079 E.33495
G1 X52.431 Y133.326 E.0245
G1 X49.151 Y122.569 E.33495
G1 X48.975 Y121.766 E.0245
G1 X47.857 Y110.577 E.33495
G1 X47.84 Y109.754 E.0245
G1 X48.926 Y98.562 E.33495
G1 X49.071 Y97.752 E.0245
G1 X52.32 Y86.987 E.33495
G1 X52.619 Y86.221 E.0245
G1 X57.906 Y76.296 E.33495
G1 X58.349 Y75.603 E.0245
G1 X65.47 Y66.9 E.33495
G1 X65.999 Y66.35 E.02271
G1 E-3.5 F3600
;WIPE_START
G1 F7200
G1 X68.314 Y64.442 E-1.425
;WIPE_END
G1 E-.075 F3600
G1 X68.635 Y68.896 F9000
G1 E5 F2400
G1 F1200
G1 X77.437 Y61.735 E.33798
G1 X87.467 Y56.43 E.33798
G1 X98.332 Y53.184 E.33777
G1 X109.117 Y52.122 E.3228
G1 X110.238 Y52.18 E.03343
G1 X120.916 Y53.279 E.31975
G1 X131.313 Y56.433 E.32364
G1 X141.746 Y62.01 E.35236
G1 X150.327 Y69.085 E.33127
G1 X157.375 Y77.638 E.33014
G1 X162.765 Y87.619 E.33787
G1 X165.055 Y95.026 E.23094
G1 X178.591 Y95.026 E.40319
G1 X179.924 Y95.342 E.04081
G1 X180.932 Y95.912 E.0345
G1 X181.773 Y96.709 E.03452
G1 X182.446 Y97.749 E.0369
G1 X182.815 Y98.975 E.03811
G1 X182.85 Y105.304 E.18853
G1 X182.676 Y106.279 E.0295
G1 X182.069 Y107.527 E.04134
G1 X181.101 Y108.575 E.04251
G1 X179.948 Y109.266 E.04004
G1 X178.593 Y109.591 E.0415
G1 X151.061 Y109.591 E.82007
G1 X149.831 Y109.325 E.0375
G1 X148.838 Y108.807 E.03337
G1 X147.988 Y108.075 E.03341
G1 X147.117 Y106.737 E.04755
G1 X146.862 Y105.902 E.02602
G1 X146.526 Y102.618 E.09832
G1 X144.37 Y95.509 E.22127
G1 X140.871 Y88.963 E.22111
G1 X136.161 Y83.224 E.22111
G1 X130.423 Y78.515 E.22111
G1 X123.877 Y75.016 E.22111
G1 X116.773 Y72.861 E.22111
G1 X109.386 Y72.134 E.22111
G1 X101.998 Y72.861 E.22111
G1 X94.895 Y75.016 E.22111
G1 X88.348 Y78.515 E.22111
G1 X82.61 Y83.224 E.22111
G1 X77.901 Y88.963 E.22111
G1 X74.402 Y95.509 E.22111
G1 X72.247 Y102.613 E.22111
G1 X71.519 Y110 E.22111
G1 X72.247 Y117.387 E.22111
G1 X74.402 Y124.491 E.22111
G1 X77.901 Y131.037 E.22111
G1 X82.61 Y136.776 E.22111
G1 X88.348 Y141.485 E.22111
G1 X94.895 Y144.984 E.22111
G1 X101.999 Y147.139 E.22111
G1 X109.386 Y147.866 E.22111
G1 X116.773 Y147.139 E.22111
G1 X123.877 Y144.984 E.22111
G1 X130.423 Y141.485 E.22111
G1 X136.161 Y136.776 E.22111
G1 X140.871 Y131.037 E.22111
G1 X144.37 Y124.491 E.22111
G1 X146.528 Y117.377 E.22144
G1 X146.95 Y113.723 E.10955
G1 X147.278 Y112.936 E.02541
G1 X147.907 Y112.018 E.03314
G1 X148.721 Y111.285 E.03262
G1 X149.612 Y110.764 E.03075
G1 X150.991 Y110.409 E.0424
G1 X178.535 Y110.409 E.82044
G1 X179.414 Y110.546 E.0265
G1 X180.663 Y111.108 E.0408
G1 X181.732 Y112.047 E.04238
G1 X182.359 Y112.951 E.03276
G1 X182.755 Y114.012 E.03372
G1 X182.851 Y120.755 E.20087
G1 X182.518 Y122.085 E.04085
G1 X181.792 Y123.271 E.04141
G1 X181.188 Y123.875 E.02544
G1 X180.6 Y124.328 E.02213
G1 X179.001 Y124.92 E.05077
G1 X165.055 Y124.972 E.4154
G1 X162.765 Y132.381 E.23099
G1 X157.374 Y142.364 E.33794
G1 X150.166 Y151.076 E.33681
G1 X141.399 Y158.222 E.33689
G1 X131.305 Y163.57 E.34025
G1 X120.433 Y166.817 E.338
G1 X109.136 Y167.88 E.33798
G1 X97.849 Y166.72 E.33798
G1 X87.005 Y163.379 E.33798
G1 X77.021 Y157.987 E.33798
G1 X68.281 Y150.751 E.33798
G1 X61.121 Y141.949 E.33798
G1 X55.816 Y131.919 E.33798
G1 X52.569 Y121.047 E.33798
G1 X51.505 Y109.75 E.33798
G1 X52.666 Y98.463 E.33798
G1 X56.007 Y87.619 E.33798
G1 X61.399 Y77.636 E.33798
G1 X68.597 Y68.942 E.33619
G1 X68.884 Y69.18 F9000
G1 F1200
G1 X77.63 Y62.06 E.33591
G1 X87.593 Y56.786 E.33577
G1 X98.387 Y53.557 E.3356
G1 X109.14 Y52.498 E.32183
G1 X110.213 Y52.556 E.03201
G1 X120.824 Y53.645 E.31773
G1 X131.186 Y56.788 E.32254
G1 X141.52 Y62.312 E.34904
G1 X150.047 Y69.338 E.3291
G1 X157.072 Y77.864 E.32905
G1 X162.424 Y87.782 E.33569
G1 X164.776 Y95.404 E.23759
G1 X178.569 Y95.404 E.41084
G1 X179.762 Y95.683 E.03649
G1 X180.726 Y96.228 E.03298
G1 X181.496 Y96.966 E.03178
G1 X182.094 Y97.886 E.03267
G1 X182.438 Y99.005 E.03487
G1 X182.473 Y105.288 E.18715
G1 X182.31 Y106.184 E.02714
G1 X181.743 Y107.335 E.03821
G1 X180.882 Y108.267 E.03779
G1 X179.829 Y108.907 E.0367
G1 X178.57 Y109.214 E.03861
G1 X151.081 Y109.214 E.81879
G1 X149.983 Y108.978 E.03347
G1 X149.032 Y108.483 E.03193
G1 X148.256 Y107.808 E.03065
G1 X147.469 Y106.6 E.04293
G1 X147.235 Y105.844 E.02357
G1 X146.898 Y102.543 E.09884
G1 X144.72 Y95.364 E.22346
G1 X141.186 Y88.752 E.22332
G1 X136.429 Y82.956 E.22332
G1 X130.634 Y78.2 E.22332
G1 X124.022 Y74.666 E.22332
G1 X116.847 Y72.49 E.22332
G1 X109.386 Y71.755 E.22332
G1 X101.925 Y72.49 E.22332
G1 X94.75 Y74.666 E.22332
G1 X88.138 Y78.2 E.22332
G1 X82.342 Y82.957 E.22332
G1 X77.586 Y88.752 E.22332
G1 X74.052 Y95.364 E.22332
G1 X71.875 Y102.539 E.22332
G1 X71.141 Y110 E.22332
G1 X71.875 Y117.461 E.22332
G1 X74.052 Y124.636 E.22332
G1 X77.586 Y131.248 E.22332
G1 X82.342 Y137.044 E.22332
G1 X88.138 Y141.8 E.22332
G1 X94.75 Y145.334 E.22332
G1 X101.925 Y147.51 E.22332
G1 X109.386 Y148.245 E.22332
G1 X116.847 Y147.51 E.22332
G1 X124.022 Y145.334 E.22332
G1 X130.634 Y141.8 E.22332
G1 X136.429 Y137.044 E.22332
G1 X141.186 Y131.248 E.22332
G1 X144.72 Y124.636 E.22332
G1 X146.899 Y117.453 E.22358
G1 X147.309 Y113.842 E.10826
G1 X147.602 Y113.131 E.0229
G1 X148.177 Y112.283 E.03053
G1 X148.96 Y111.578 E.03138
G1 X149.734 Y111.122 E.02676
G1 X151.015 Y110.786 E.03947
G1 X178.521 Y110.786 E.8193
G1 X179.283 Y110.901 E.02295
G1 X180.481 Y111.44 E.03915
G1 X181.463 Y112.313 E.03914
G1 X182.034 Y113.144 E.03003
G1 X182.39 Y114.111 E.03069
G1 X182.474 Y120.734 E.19729
G1 X182.16 Y121.964 E.0378
G1 X181.51 Y123.019 E.03693
G1 X180.93 Y123.599 E.02442
G1 X180.393 Y124.012 E.02016
G1 X178.903 Y124.554 E.04724
G1 X164.776 Y124.596 E.42079
G1 X162.424 Y132.218 E.23762
G1 X157.071 Y142.138 E.33574
G1 X149.913 Y150.795 E.33461
G1 X141.206 Y157.897 E.33469
G1 X131.18 Y163.214 E.33804
G1 X120.379 Y166.443 E.33579
G1 X109.156 Y167.503 E.33578
G1 X97.942 Y166.354 E.33577
G1 X87.168 Y163.038 E.33578
G1 X77.247 Y157.685 E.33578
G1 X68.562 Y150.499 E.33578
G1 X61.446 Y141.756 E.33578
G1 X56.172 Y131.793 E.33578
G1 X52.942 Y120.993 E.33578
G1 X51.882 Y109.77 E.33578
G1 X53.032 Y98.556 E.33578
G1 X56.347 Y87.782 E.33578
G1 X61.701 Y77.862 E.33578
G1 X68.846 Y69.226 E.33385
G1 X69.134 Y69.464 F9000
G1 F1200
G1 X77.823 Y62.384 E.33385
G1 X87.718 Y57.142 E.33357
G1 X98.442 Y53.931 E.33343
G1 X109.162 Y52.875 E.32085
G1 X110.187 Y52.933 E.03059
G1 X120.732 Y54.011 E.31574
G1 X131.059 Y57.144 E.32145
G1 X141.295 Y62.615 E.34572
G1 X149.793 Y69.618 E.328
G1 X156.769 Y78.089 E.32688
G1 X162.083 Y87.944 E.3335
G1 X164.498 Y95.781 E.24424
G1 X178.548 Y95.781 E.4185
G1 X179.602 Y96.026 E.03224
G1 X180.483 Y96.517 E.03005
G1 X181.22 Y97.224 E.03041
G1 X181.742 Y98.025 E.02848
G1 X182.061 Y99.036 E.03159
G1 X182.096 Y105.272 E.18575
G1 X181.944 Y106.089 E.02475
G1 X181.418 Y107.142 E.03505
G1 X180.626 Y107.99 E.03458
G1 X179.66 Y108.568 E.03352
G1 X178.548 Y108.837 E.0341
G1 X151.102 Y108.837 E.81752
G1 X150.089 Y108.616 E.03088
G1 X149.229 Y108.161 E.029
G1 X148.524 Y107.542 E.02793
G1 X147.821 Y106.462 E.03838
G1 X147.608 Y105.786 E.0211
G1 X147.269 Y102.468 E.09934
G1 X145.07 Y95.219 E.22565
G1 X141.501 Y88.542 E.22553
G1 X136.697 Y82.689 E.22553
G1 X130.844 Y77.885 E.22553
G1 X124.167 Y74.316 E.22553
G1 X116.921 Y72.118 E.22553
G1 X109.386 Y71.376 E.22553
G1 X101.851 Y72.118 E.22553
G1 X94.605 Y74.316 E.22553
G1 X87.927 Y77.885 E.22553
G1 X82.074 Y82.689 E.22554
G1 X77.271 Y88.542 E.22553
G1 X73.702 Y95.219 E.22553
G1 X71.504 Y102.465 E.22553
G1 X70.762 Y110 E.22553
G1 X71.504 Y117.535 E.22553
G1 X73.702 Y124.781 E.22553
G1 X77.271 Y131.458 E.22553
G1 X82.074 Y137.311 E.22554
G1 X87.927 Y142.115 E.22553
G1 X94.605 Y145.684 E.22553
G1 X101.851 Y147.882 E.22553
G1 X109.386 Y148.624 E.22553
G1 X116.921 Y147.882 E.22553
G1 X124.167 Y145.684 E.22553
G1 X130.844 Y142.115 E.22553
G1 X136.697 Y137.311 E.22553
G1 X141.501 Y131.458 E.22553
G1 X145.07 Y124.781 E.22553
G1 X147.27 Y117.529 E.22572
G1 X147.668 Y113.959 E.107
G1 X147.926 Y113.324 E.02042
G1 X148.447 Y112.547 E.02787
G1 X149.199 Y111.87 E.03012
G1 X149.857 Y111.479 E.02281
G1 X151.041 Y111.163 E.03649
G1 X178.508 Y111.163 E.81817
G1 X179.153 Y111.256 E.0194
G1 X180.299 Y111.772 E.03745
G1 X181.193 Y112.577 E.03585
G1 X181.708 Y113.336 E.02731
G1 X182.024 Y114.209 E.02766
G1 X182.096 Y120.714 E.19377
G1 X181.824 Y121.792 E.03312
G1 X181.227 Y122.769 E.03409
G1 X180.672 Y123.324 E.02337
G1 X180.188 Y123.694 E.01816
G1 X178.807 Y124.188 E.04369
G1 X164.498 Y124.219 E.42622
G1 X162.083 Y132.056 E.24425
G1 X156.769 Y141.912 E.33354
G1 X149.66 Y150.515 E.33242
G1 X141.013 Y157.573 E.33249
G1 X131.054 Y162.858 E.33583
G1 X120.325 Y166.07 E.33359
G1 X109.176 Y167.126 E.33357
G1 X98.035 Y165.988 E.33357
G1 X87.33 Y162.698 E.33357
G1 X77.473 Y157.382 E.33357
G1 X68.843 Y150.246 E.33357
G1 X61.77 Y141.563 E.33357
G1 X56.527 Y131.667 E.33357
G1 X53.316 Y120.939 E.33358
G1 X52.259 Y109.79 E.33357
G1 X53.398 Y98.649 E.33357
G1 X56.688 Y87.945 E.33357
G1 X62.004 Y78.088 E.33357
G1 X69.096 Y69.51 E.33151
G1 X69.384 Y69.748 F9000
G1 F1200
G1 X78.016 Y62.709 E.33178
G1 X87.845 Y57.498 E.33137
G1 X98.497 Y54.304 E.33126
G1 X109.184 Y53.252 E.31986
G1 X110.161 Y53.309 E.02915
G1 X120.64 Y54.377 E.31376
G1 X130.932 Y57.499 E.32036
G1 X141.07 Y62.918 E.34241
G1 X149.514 Y69.872 E.32582
G1 X156.467 Y78.315 E.32579
G1 X161.743 Y88.107 E.33132
G1 X164.219 Y96.158 E.25089
G1 X178.527 Y96.158 E.42617
G1 X179.442 Y96.368 E.02797
G1 X180.277 Y96.834 E.02849
G1 X180.942 Y97.48 E.02761
G1 X181.392 Y98.166 E.02443
G1 X181.684 Y99.068 E.02825
G1 X181.719 Y105.257 E.18435
G1 X181.594 Y105.947 E.02089
G1 X181.123 Y106.905 E.03179
G1 X180.369 Y107.712 E.03291
G1 X179.494 Y108.229 E.03027
G1 X178.526 Y108.46 E.02964
G1 X151.122 Y108.46 E.81628
G1 X150.241 Y108.27 E.02685
G1 X149.46 Y107.862 E.02623
G1 X148.792 Y107.276 E.02648
G1 X148.172 Y106.322 E.03387
G1 X147.981 Y105.728 E.0186
G1 X147.64 Y102.394 E.09983
G1 X145.42 Y95.074 E.22784
G1 X141.816 Y88.331 E.22775
G1 X136.965 Y82.421 E.22775
G1 X131.055 Y77.57 E.22775
G1 X124.312 Y73.966 E.22775
G1 X116.995 Y71.746 E.22775
G1 X109.386 Y70.997 E.22775
G1 X101.777 Y71.746 E.22775
G1 X94.46 Y73.966 E.22775
G1 X87.717 Y77.57 E.22775
G1 X81.806 Y82.421 E.22775
G1 X76.956 Y88.331 E.22775
G1 X73.352 Y95.074 E.22775
G1 X71.132 Y102.391 E.22775
G1 X70.383 Y110 E.22775
G1 X71.132 Y117.609 E.22775
G1 X73.352 Y124.926 E.22775
G1 X76.956 Y131.669 E.22775
G1 X81.807 Y137.579 E.22775
G1 X87.717 Y142.43 E.22775
G1 X94.46 Y146.034 E.22775
G1 X101.777 Y148.254 E.22775
G1 X109.386 Y149.003 E.22774
G1 X116.995 Y148.254 E.22775
G1 X124.312 Y146.034 E.22775
G1 X131.055 Y142.43 E.22775
G1 X136.965 Y137.579 E.22775
G1 X141.816 Y131.669 E.22775
G1 X145.42 Y124.926 E.22775
G1 X147.641 Y117.605 E.22788
G1 X148.028 Y114.075 E.10578
G1 X148.251 Y113.515 E.01795
G1 X148.718 Y112.811 E.02516
G1 X149.438 Y112.162 E.02887
G1 X149.982 Y111.836 E.01891
G1 X151.066 Y111.54 E.03348
G1 X178.496 Y111.54 E.81705
G1 X179.026 Y111.612 E.01593
G1 X180.07 Y112.072 E.03397
G1 X180.923 Y112.841 E.03422
G1 X181.382 Y113.525 E.02452
G1 X181.659 Y114.305 E.02465
G1 X181.719 Y120.692 E.19026
G1 X181.466 Y121.67 E.03008
G1 X180.945 Y122.518 E.02964
G1 X180.415 Y123.048 E.02233
G1 X179.984 Y123.375 E.01612
G1 X178.713 Y123.822 E.04014
G1 X164.219 Y123.842 E.43171
G1 X161.743 Y131.893 E.25089
G1 X156.466 Y141.686 E.33134
G1 X149.407 Y150.235 E.33022
G1 X140.82 Y157.249 E.33028
G1 X130.927 Y162.502 E.33363
G1 X120.27 Y165.696 E.33139
G1 X109.195 Y166.749 E.33137
G1 X98.128 Y165.622 E.33137
G1 X87.493 Y162.357 E.33137
G1 X77.699 Y157.08 E.33137
G1 X69.123 Y149.993 E.33137
G1 X62.095 Y141.37 E.33137
G1 X56.883 Y131.541 E.33137
G1 X53.69 Y120.885 E.33137
G1 X52.636 Y109.81 E.33137
G1 X53.764 Y98.742 E.33137
G1 X57.029 Y88.107 E.33137
G1 X62.306 Y78.313 E.33137
G1 X69.345 Y69.795 E.32917
G1 X69.633 Y70.032 F9000
G1 F1200
G1 X78.209 Y63.033 E.32972
G1 X87.971 Y57.853 E.32917
G1 X98.552 Y54.678 E.32908
G1 X109.206 Y53.629 E.31886
G1 X110.134 Y53.685 E.0277
G1 X120.548 Y54.743 E.3118
G1 X130.805 Y57.855 E.31926
G1 X140.845 Y63.221 E.3391
G1 X149.234 Y70.125 E.32364
G1 X156.164 Y78.54 E.3247
G1 X161.402 Y88.269 E.32912
G1 X163.94 Y96.535 E.25755
G1 X178.504 Y96.535 E.43381
G1 X179.328 Y96.728 E.0252
G1 X180.068 Y97.149 E.02536
G1 X180.662 Y97.733 E.02482
G1 X181.062 Y98.35 E.02189
G1 X181.307 Y99.1 E.02349
G1 X181.342 Y105.241 E.18293
G1 X181.228 Y105.851 E.01849
G1 X180.799 Y106.71 E.02861
G1 X180.115 Y107.432 E.02963
G1 X179.329 Y107.889 E.02706
G1 X178.504 Y108.083 E.02525
G1 X151.141 Y108.083 E.81505
G1 X150.39 Y107.923 E.02288
G1 X149.691 Y107.563 E.02342
G1 X149.061 Y107.009 E.025
G1 X148.522 Y106.181 E.02941
G1 X148.354 Y105.669 E.01607
G1 X148.012 Y102.319 E.10029
G1 X145.77 Y94.929 E.23003
G1 X142.131 Y88.121 E.22996
G1 X137.233 Y82.153 E.22996
G1 X131.265 Y77.255 E.22996
G1 X124.457 Y73.616 E.22996
G1 X117.069 Y71.375 E.22996
G1 X109.386 Y70.618 E.22996
G1 X101.703 Y71.375 E.22996
G1 X94.315 Y73.616 E.22996
G1 X87.506 Y77.255 E.22996
G1 X81.538 Y82.153 E.22996
G1 X76.641 Y88.121 E.22996
G1 X73.002 Y94.929 E.22996
G1 X70.761 Y102.317 E.22996
G1 X70.004 Y110 E.22996
G1 X70.761 Y117.683 E.22996
G1 X73.002 Y125.071 E.22996
G1 X76.641 Y131.879 E.22996
G1 X81.539 Y137.847 E.22996
G1 X87.506 Y142.745 E.22996
G1 X94.315 Y146.384 E.22996
G1 X101.703 Y148.625 E.22996
G1 X109.386 Y149.382 E.22996
G1 X117.069 Y148.625 E.22996
G1 X124.457 Y146.384 E.22996
G1 X131.265 Y142.745 E.22996
G1 X137.233 Y137.847 E.22996
