; generated by PrusaSlicer 2.4.0+win64 on 2022-03-04 at 16:40:18 UTC

; 

; external perimeters extrusion width = 0.45mm
; perimeters extrusion width = 0.45mm
; infill extrusion width = 0.45mm
; solid infill extrusion width = 0.45mm
; top infill extrusion width = 0.45mm
; first layer extrusion width = 0.42mm

M201 X500 Y500 Z100 E5000 ; sets maximum accelerations, mm/sec^2
M203 X500 Y500 Z10 E60 ; sets maximum feedrates, mm/sec
M204 P500 R1000 T500 ; sets acceleration (P, T) and retract acceleration (R), mm/sec^2
M205 X8.00 Y8.00 Z0.40 E5.00 ; sets the jerk limits, mm/sec
M205 S0 T0 ; sets the minimum extruding and travel feed rate, mm/sec
M107
;TYPE:Custom
G90 ; use absolute coordinates
M83 ; extruder relative mode
M140 S80 ; set final bed temp
M104 S150 ; set temporary nozzle temp to prevent oozing during homing
G4 S10 ; allow partial nozzle warmup
G28 ; home all axis
G1 Z50 F240
G1 X2 Y10 F3000
M104 S235 ; set final nozzle temp
M190 S80 ; wait for bed temp to stabilize
M109 S235 ; wait for nozzle temp to stabilize
G1 Z0.28 F240
G92 E0
G1 Y140 E10 F1500 ; prime the nozzle
G1 X2.3 F5000
G92 E0
G1 Y10 E10 F1200 ; prime the nozzle
G92 E0
G21 ; set units to millimeters
G90 ; use absolute coordinates
M83 ; use relative distances for extrusion
; Filament gcode
M107
;LAYER_CHANGE
;Z:0.2
;HEIGHT:0.2
;BEFORE_LAYER_CHANGE
G92 E0
;0.2


G1 E-5 F3600
G1 Z.1 F9000
;AFTER_LAYER_CHANGE
;0.2
G1 X81.899 Y93.373
G1 E5 F2400
M204 S500
;TYPE:Skirt/Brim
;WIDTH:0.42
G1 F1200
G1 X83.297 Y92.532 E.0486
G1 X84.287 Y92.384 E.02981
G1 X135.713 Y92.384 E1.53179
G1 X137.296 Y92.778 E.0486
G1 X138.101 Y93.373 E.02981
G1 X141.03 Y96.302 E.12338
G1 X141.87 Y97.7 E.0486
G1 X142.019 Y98.69 E.02981
G1 X142.019 Y121.31 E.67377
G1 X141.625 Y122.893 E.0486
G1 X141.03 Y123.698 E.02981
G1 X138.101 Y126.627 E.12338
G1 X136.703 Y127.468 E.0486
G1 X135.713 Y127.616 E.02981
G1 X84.287 Y127.616 E1.53179
G1 X82.704 Y127.222 E.0486
G1 X81.899 Y126.627 E.02981
G1 X78.97 Y123.698 E.12338
G1 X78.13 Y122.3 E.0486
G1 X77.981 Y121.31 E.02981
G1 X77.981 Y98.69 E.67377
G1 X78.375 Y97.107 E.0486
G1 X78.97 Y96.302 E.02981
G1 X81.857 Y93.416 E.12159
G1 E-3.5 F3600
;WIPE_START
G1 F7200
G1 X83.297 Y92.532 E-.80263
G1 X84.287 Y92.384 E-.47543
G1 X84.597 Y92.384 E-.14695
;WIPE_END
G1 E-.075 F3600
G1 X83.879 Y96.767 F9000
G1 E5 F2400
G1 F1200
G1 X84.497 Y96.394 E.02149
G1 X85.903 Y96.048 E.04312
G1 X134.128 Y96.051 E1.43647
G1 X135.076 Y96.235 E.02877
G1 X135.985 Y96.626 E.02946
G1 X137.204 Y97.65 E.04741
G1 X137.994 Y98.867 E.04324
G1 X138.355 Y100.25 E.04257
G1 X138.35 Y119.794 E.58217
G1 X138.047 Y121.006 E.03721
G1 X137.449 Y122.056 E.036
G1 X136.591 Y122.95 E.0369
G1 X135.503 Y123.606 E.03783
G1 X134.098 Y123.952 E.04312
G1 X85.848 Y123.952 E1.43718
G1 X84.59 Y123.644 E.03858
G1 X83.577 Y123.072 E.03466
G1 X82.647 Y122.187 E.03823
G1 X81.991 Y121.1 E.03782
G1 X81.645 Y119.695 E.04312
G1 X81.645 Y100.251 E.57916
G1 X81.953 Y98.993 E.03858
G1 X82.525 Y97.979 E.03466
G1 X83.41 Y97.05 E.03823
G1 X83.828 Y96.798 E.01454
G1 X84.022 Y97.121 F9000
G1 F1200
G1 X84.667 Y96.732 E.02242
G1 X85.925 Y96.425 E.03857
G1 X134.109 Y96.428 E1.43525
G1 X134.983 Y96.601 E.02652
G1 X135.808 Y96.96 E.02682
G1 X136.939 Y97.919 E.04415
G1 X137.638 Y98.993 E.03817
G1 X137.978 Y100.275 E.0395
G1 X137.978 Y119.725 E.57937
G1 X137.688 Y120.89 E.03574
G1 X137.16 Y121.813 E.0317
G1 X136.374 Y122.64 E.03398
G1 X135.333 Y123.268 E.0362
G1 X134.075 Y123.575 E.03857
G1 X85.872 Y123.575 E1.43582
G1 X84.708 Y123.285 E.03574
G1 X83.784 Y122.757 E.0317
G1 X82.957 Y121.971 E.03398
G1 X82.329 Y120.93 E.0362
G1 X82.022 Y119.672 E.03857
G1 X82.022 Y100.275 E.5778
G1 X82.312 Y99.11 E.03574
G1 X82.84 Y98.187 E.0317
G1 X83.626 Y97.36 E.03398
G1 X83.971 Y97.152 E.01199
G1 X84.162 Y97.472 F9000
G1 F1200
G1 X84.835 Y97.07 E.02334
G1 X85.947 Y96.802 E.03408
G1 X134.09 Y96.805 E1.43402
G1 X134.887 Y96.966 E.02422
G1 X135.63 Y97.294 E.02417
G1 X136.672 Y98.187 E.04087
G1 X137.304 Y99.171 E.03486
G1 X137.601 Y100.299 E.03473
G1 X137.601 Y119.701 E.57794
G1 X137.329 Y120.77 E.03285
G1 X136.845 Y121.604 E.02871
G1 X136.12 Y122.361 E.03123
G1 X135.165 Y122.93 E.03311
G1 X134.053 Y123.198 E.03407
G1 X85.896 Y123.198 E1.43444
G1 X84.827 Y122.926 E.03285
G1 X83.993 Y122.443 E.02871
G1 X83.237 Y121.717 E.03123
G1 X82.668 Y120.762 E.03311
G1 X82.399 Y119.65 E.03407
G1 X82.399 Y100.299 E.57642
G1 X82.671 Y99.23 E.03285
G1 X83.155 Y98.396 E.02871
G1 X83.88 Y97.639 E.03123
G1 X84.11 Y97.502 E.00798
G1 X84.299 Y97.823 F9000
G1 F1200
G1 X85.001 Y97.41 E.02427
G1 X85.969 Y97.179 E.02964
G1 X134.07 Y97.182 E1.43278
G1 X134.79 Y97.331 E.02189
G1 X135.45 Y97.626 E.02152
G1 X136.404 Y98.454 E.03762
G1 X136.948 Y99.298 E.02992
G1 X137.224 Y100.324 E.03165
G1 X137.224 Y119.677 E.57646
G1 X136.971 Y120.649 E.02991
G1 X136.533 Y121.392 E.02571
G1 X135.867 Y122.079 E.02849
G1 X134.999 Y122.59 E.03001
G1 X134.031 Y122.821 E.02963
G1 X85.92 Y122.821 E1.43306
G1 X84.948 Y122.568 E.02991
G1 X84.205 Y122.13 E.02571
G1 X83.518 Y121.465 E.02849
G1 X83.007 Y120.596 E.03001
G1 X82.776 Y119.628 E.02963
G1 X82.776 Y100.323 E.57504
G1 X83.029 Y99.351 E.02991
G1 X83.467 Y98.608 E.02571
G1 X84.133 Y97.921 E.02849
G1 X84.247 Y97.853 E.00396
G1 X84.433 Y98.174 F9000
G1 F1200
G1 X85.165 Y97.75 E.0252
G1 X85.99 Y97.556 E.02525
G1 X134.051 Y97.56 E1.43157
G1 X134.655 Y97.684 E.01836
G1 X135.269 Y97.958 E.02005
G1 X136.134 Y98.718 E.03428
G1 X136.614 Y99.475 E.02669
G1 X136.847 Y100.348 E.02693
G1 X136.847 Y119.652 E.57498
G1 X136.614 Y120.525 E.02692
G1 X136.222 Y121.178 E.0227
G1 X135.617 Y121.797 E.02577
G1 X134.835 Y122.25 E.02691
G1 X134.01 Y122.444 E.02525
G1 X85.946 Y122.444 E1.43167
G1 X85.072 Y122.211 E.02692
G1 X84.419 Y121.819 E.0227
G1 X83.8 Y121.214 E.02577
G1 X83.347 Y120.432 E.02691
G1 X83.153 Y119.607 E.02525
G1 X83.153 Y100.348 E.57365
G1 X83.386 Y99.475 E.02692
G1 X83.778 Y98.822 E.0227
G1 X84.382 Y98.205 E.0257
G1 X84.633 Y98.488 F9000
G1 F1200
G1 X85.327 Y98.092 E.02381
G1 X86.012 Y97.933 E.02093
G1 X134.031 Y97.937 E1.43033
G1 X134.556 Y98.048 E.01597
G1 X135.087 Y98.289 E.01737
G1 X135.863 Y98.982 E.031
G1 X136.258 Y99.602 E.02191
G1 X136.47 Y100.374 E.02384
G1 X136.47 Y119.626 E.57344
G1 X136.258 Y120.398 E.02385
G1 X135.912 Y120.961 E.01969
G1 X135.367 Y121.512 E.02309
G1 X134.673 Y121.908 E.02381
G1 X133.989 Y122.067 E.02092
G1 X85.971 Y122.067 E1.43026
G1 X85.199 Y121.855 E.02385
G1 X84.636 Y121.51 E.01969
G1 X84.085 Y120.965 E.02309
G1 X83.689 Y120.27 E.02381
G1 X83.53 Y119.586 E.02092
G1 X83.53 Y100.374 E.57224
G1 X83.742 Y99.602 E.02385
G1 X84.088 Y99.039 E.01969
G1 X84.59 Y98.53 E.0213
G1 X84.857 Y98.796 F9000
G1 F1200
G1 X85.486 Y98.435 E.02164
G1 X86.032 Y98.31 E.01668
G1 X134.01 Y98.314 E1.42908
G1 X134.453 Y98.411 E.01352
G1 X134.901 Y98.619 E.0147
G1 X135.591 Y99.244 E.02774
G1 X135.903 Y99.732 E.01727
G1 X136.093 Y100.401 E.0207
G1 X136.093 Y119.599 E.57183
G1 X135.903 Y120.268 E.0207
G1 X135.605 Y120.742 E.01668
G1 X135.12 Y121.227 E.02043
G1 X134.514 Y121.565 E.0207
G1 X133.968 Y121.69 E.01668
G1 X85.998 Y121.69 E1.42885
G1 X85.33 Y121.501 E.0207
G1 X84.856 Y121.203 E.01668
G1 X84.371 Y120.718 E.02043
G1 X84.032 Y120.111 E.0207
G1 X83.907 Y119.565 E.01668
G1 X83.907 Y100.401 E.57082
G1 X84.097 Y99.732 E.0207
G1 X84.395 Y99.258 E.01668
G1 X84.814 Y98.839 E.01767
G1 X85.081 Y99.106 F9000
G1 F1200
G1 X85.126 Y99.06 E.00192
G1 X85.642 Y98.779 E.0175
G1 X86.053 Y98.687 E.01252
G1 X133.987 Y98.691 E1.42782
G1 X134.347 Y98.774 E.01099
G1 X134.713 Y98.947 E.01205
G1 X135.318 Y99.504 E.02451
G1 X135.55 Y99.866 E.0128
G1 X135.716 Y100.429 E.01749
G1 X135.716 Y119.571 E.57016
G1 X135.55 Y120.134 E.0175
G1 X135.324 Y120.489 E.01252
G1 X134.874 Y120.94 E.01899
G1 X134.358 Y121.221 E.0175
G1 X133.947 Y121.313 E.01252
G1 X86.026 Y121.313 E1.42741
G1 X85.463 Y121.147 E.0175
G1 X85.108 Y120.922 E.01252
G1 X84.657 Y120.471 E.01899
G1 X84.376 Y119.955 E.0175
G1 X84.284 Y119.545 E.01252
G1 X84.284 Y100.429 E.56939
G1 X84.45 Y99.866 E.0175
G1 X84.676 Y99.511 E.01252
G1 X85.038 Y99.148 E.01528
G1 X85.305 Y99.415 F9000
G1 F1200
G1 X85.372 Y99.347 E.00283
G1 X85.794 Y99.125 E.01421
G1 X86.072 Y99.064 E.00848
G1 X133.966 Y99.068 E1.42658
G1 X134.204 Y99.123 E.00729
G1 X134.524 Y99.274 E.01054
G1 X135.042 Y99.762 E.02121
G1 X135.198 Y100.003 E.00853
G1 X135.339 Y100.459 E.0142
G1 X135.339 Y119.541 E.5684
G1 X135.198 Y119.997 E.01421
G1 X135.044 Y120.236 E.00848
G1 X134.628 Y120.653 E.01753
G1 X134.206 Y120.875 E.01421
G1 X133.928 Y120.936 E.00848
G1 X86.056 Y120.936 E1.42594
G1 X85.6 Y120.795 E.01421
G1 X85.361 Y120.641 E.00848
G1 X84.945 Y120.225 E.01753
G1 X84.722 Y119.803 E.01421
G1 X84.661 Y119.525 E.00848
G1 X84.661 Y100.459 E.56792
G1 X84.802 Y100.003 E.01421
G1 X84.956 Y99.764 E.00848
G1 X85.263 Y99.457 E.01291
G1 X85.529 Y99.724 F9000
G1 F1200
G1 X85.616 Y99.636 E.00367
G1 X85.94 Y99.473 E.01079
G1 X86.091 Y99.441 E.0046
G1 X133.944 Y99.445 E1.42537
G1 X134.061 Y99.472 E.00358
G1 X134.334 Y99.602 E.009
G1 X134.765 Y100.018 E.01786
G1 X134.848 Y100.146 E.00455
G1 X134.962 Y100.49 E.01079
G1 X134.962 Y119.51 E.56652
G1 X134.848 Y119.854 E.01079
G1 X134.764 Y119.983 E.0046
G1 X134.384 Y120.364 E.01603
G1 X134.06 Y120.527 E.01079
G1 X133.909 Y120.559 E.0046
G1 X86.088 Y120.559 E1.42444
G1 X85.743 Y120.446 E.01079
G1 X85.614 Y120.361 E.0046
G1 X85.234 Y119.981 E.01603
G1 X85.07 Y119.657 E.01079
G1 X85.038 Y119.506 E.0046
G1 X85.038 Y100.49 E.56642
G1 X85.152 Y100.146 E.01079
G1 X85.236 Y100.017 E.0046
G1 X85.487 Y99.766 E.01056
G1 X85.753 Y100.033 F9000
G1 F1200
G1 X85.858 Y99.928 E.00442
G1 X86.109 Y99.818 E.00814
G1 X133.923 Y99.825 E1.42424
G1 X134.142 Y99.928 E.00719
G1 X134.485 Y100.271 E.01446
G1 X134.584 Y100.526 E.00814
G1 X134.584 Y119.474 E.56443
G1 X134.503 Y119.702 E.00719
G1 X134.142 Y120.072 E.01541
G1 X133.891 Y120.182 E.00814
G1 X86.123 Y120.182 E1.42287
G1 X85.895 Y120.1 E.00719
G1 X85.525 Y119.739 E.01541
G1 X85.416 Y119.489 E.00814
G1 X85.416 Y100.525 E.56485
G1 X85.497 Y100.298 E.00719
G1 X85.711 Y100.075 E.00921
G1 X85.978 Y100.342 F9000
G1 F1200
G1 X86.095 Y100.224 E.00495
G1 X86.165 Y100.195 E.00223
G1 X133.835 Y100.195 E1.41995
G1 X133.905 Y100.224 E.00223
G1 X134.179 Y100.498 E.01154
G1 X134.207 Y100.567 E.00223
G1 X134.207 Y119.433 E.56193
G1 X134.179 Y119.502 E.00223
G1 X133.905 Y119.776 E.01154
G1 X133.835 Y119.805 E.00223
G1 X86.165 Y119.805 E1.41995
G1 X86.095 Y119.776 E.00223
G1 X85.821 Y119.502 E.01154
G1 X85.793 Y119.433 E.00223
G1 X85.793 Y100.567 E.56193
G1 X85.821 Y100.498 E.00223
G1 X85.935 Y100.384 E.0048
G1 X86.202 Y100.651 F9000
G1 F1200
G1 X86.28 Y100.573 E.0033
G1 X133.72 Y100.573 E1.41307
G1 X133.83 Y100.683 E.00465
G1 X133.83 Y119.317 E.55504
G1 X133.72 Y119.427 E.00465
G1 X86.28 Y119.427 E1.41307
G1 X86.17 Y119.317 E.00465
G1 X86.17 Y100.698 E.55461
G1 X86.568 Y100.971 F9000
;TYPE:External perimeter
G1 F1200
G1 X133.432 Y100.971 E1.3959
G1 X133.432 Y119.029 E.53788
G1 X86.568 Y119.029 E1.3959
G1 X86.568 Y101.031 E.53609
G1 X86.965 Y101.02 F9000
G1 E-3.5 F3600
;WIPE_START
G1 F7200
G1 X89.568 Y101.027 E-1.425
;WIPE_END
G1 E-.075 F3600
G1 X133.055 Y118.652 F9000
G1 E5 F2400
;TYPE:Perimeter
G1 F1200
G1 X86.945 Y118.652 E1.37344
G1 X86.945 Y101.348 E.51542
G1 X133.055 Y101.348 E1.37344
G1 X133.055 Y118.592 E.51363
G1 X132.678 Y118.275 F9000
G1 F1200
G1 X87.322 Y118.275 E1.35097
G1 X87.322 Y101.725 E.49295
G1 X132.678 Y101.725 E1.35097
G1 X132.678 Y118.215 E.49117
G1 E-3.5 F3600
;WIPE_START
G1 F7200
G1 X129.678 Y118.219 E-1.425
;WIPE_END
G1 E-.075 F3600
G1 X101.76 Y110.226 F9000
G1 E5 F2400
;TYPE:External perimeter
G1 F1200
G1 X101.657 Y110.567 E.01062
G1 X101.489 Y110.881 E.01062
G1 X101.263 Y111.157 E.01062
G1 X100.987 Y111.383 E.01062
G1 X100.673 Y111.551 E.01062
G1 X100.332 Y111.655 E.01062
G1 X99.977 Y111.69 E.01062
G1 X99.622 Y111.655 E.01062
G1 X99.281 Y111.551 E.01062
G1 X98.967 Y111.383 E.01062
G1 X98.691 Y111.157 E.01062
G1 X98.465 Y110.881 E.01062
G1 X98.297 Y110.567 E.01062
G1 X98.193 Y110.226 E.01062
G1 X98.158 Y109.871 E.01062
G1 X98.193 Y109.516 E.01062
G1 X98.297 Y109.175 E.01062
G1 X98.465 Y108.861 E.01062
G1 X98.691 Y108.585 E.01062
G1 X98.967 Y108.359 E.01062
G1 X99.282 Y108.19 E.01067
G1 X99.651 Y108.085 E.01142
G1 X99.977 Y108.053 E.00975
G1 X100.332 Y108.088 E.01062
G1 X100.673 Y108.191 E.01062
G1 X100.987 Y108.359 E.01062
G1 X101.263 Y108.585 E.01062
G1 X101.489 Y108.861 E.01062
G1 X101.657 Y109.175 E.01062
G1 X101.76 Y109.516 E.01062
G1 X101.795 Y109.871 E.01062
G1 X101.766 Y110.166 E.00883
G1 X102.028 Y110.461 F9000
G1 E-3.5 F3600
;WIPE_START
G1 F7200
G1 X101.657 Y110.567 E-.19736
G1 X101.489 Y110.881 E-.16933
G1 X101.263 Y111.157 E-.16933
G1 X100.987 Y111.383 E-.16933
G1 X100.673 Y111.551 E-.16933
G1 X100.332 Y111.655 E-.16934
G1 X99.977 Y111.69 E-.16933
G1 X99.622 Y111.655 E-.16933
G1 X99.537 Y111.629 E-.04231
;WIPE_END
G1 E-.075 F3600
G1 X99.58 Y107.713 F9000
G1 E5 F2400
;TYPE:Perimeter
G1 F1200
G1 X99.977 Y107.674 E.01187
G1 X100.406 Y107.716 E.01283
G1 X100.818 Y107.841 E.01283
G1 X101.198 Y108.044 E.01283
G1 X101.531 Y108.317 E.01283
G1 X101.804 Y108.65 E.01283
G1 X102.007 Y109.03 E.01283
G1 X102.132 Y109.442 E.01283
G1 X102.174 Y109.871 E.01283
G1 X102.132 Y110.3 E.01283
G1 X102.007 Y110.712 E.01283
G1 X101.804 Y111.092 E.01283
G1 X101.531 Y111.425 E.01283
G1 X101.198 Y111.698 E.01283
G1 X100.818 Y111.901 E.01283
G1 X100.406 Y112.026 E.01283
G1 X99.977 Y112.069 E.01283
G1 X99.548 Y112.026 E.01283
G1 X99.136 Y111.901 E.01283
G1 X98.756 Y111.698 E.01283
G1 X98.423 Y111.425 E.01283
G1 X98.15 Y111.092 E.01283
G1 X97.947 Y110.712 E.01283
G1 X97.822 Y110.3 E.01283
G1 X97.779 Y109.871 E.01283
G1 X97.822 Y109.442 E.01283
G1 X97.947 Y109.03 E.01283
G1 X98.15 Y108.65 E.01283
G1 X98.423 Y108.317 E.01283
G1 X98.756 Y108.044 E.01283
G1 X99.14 Y107.839 E.01297
G1 X99.522 Y107.729 E.01185
G1 X99.509 Y107.341 F9000
G1 F1200
G1 X99.977 Y107.295 E.014
G1 X100.479 Y107.344 E.01504
G1 X100.963 Y107.491 E.01504
G1 X101.408 Y107.729 E.01504
G1 X101.799 Y108.049 E.01504
G1 X102.119 Y108.44 E.01504
G1 X102.357 Y108.885 E.01504
G1 X102.504 Y109.369 E.01504
G1 X102.553 Y109.871 E.01504
G1 X102.504 Y110.374 E.01504
G1 X102.357 Y110.857 E.01504
G1 X102.119 Y111.302 E.01504
G1 X101.799 Y111.693 E.01504
G1 X101.408 Y112.013 E.01504
G1 X100.963 Y112.251 E.01504
G1 X100.479 Y112.398 E.01504
G1 X99.977 Y112.447 E.01504
G1 X99.474 Y112.398 E.01504
G1 X98.991 Y112.251 E.01504
G1 X98.546 Y112.013 E.01504
G1 X98.155 Y111.693 E.01504
G1 X97.835 Y111.302 E.01504
G1 X97.597 Y110.857 E.01504
G1 X97.45 Y110.374 E.01504
G1 X97.401 Y109.871 E.01504
G1 X97.45 Y109.368 E.01504
G1 X97.597 Y108.885 E.01504
G1 X97.835 Y108.44 E.01504
G1 X98.155 Y108.049 E.01504
G1 X98.546 Y107.729 E.01504
G1 X98.998 Y107.487 E.01527
G1 X99.451 Y107.357 E.01406
G1 E-3.5 F3600
;WIPE_START
G1 F7200
G1 X99.977 Y107.295 E-.25131
G1 X100.479 Y107.344 E-.23989
G1 X100.963 Y107.491 E-.2399
G1 X101.408 Y107.729 E-.2399
G1 X101.799 Y108.049 E-.23989
G1 X102.085 Y108.398 E-.21412
;WIPE_END
G1 E-.075 F3600
G1 X118.24 Y109.516 F9000
G1 E5 F2400
;TYPE:External perimeter
G1 F1200
G1 X118.343 Y109.175 E.01062
G1 X118.511 Y108.861 E.01062
G1 X118.737 Y108.585 E.01062
G1 X119.013 Y108.359 E.01062
G1 X119.329 Y108.19 E.01067
G1 X119.697 Y108.085 E.01142
G1 X120.023 Y108.053 E.00975
G1 X120.378 Y108.088 E.01062
G1 X120.719 Y108.191 E.01062
G1 X121.033 Y108.359 E.01062
G1 X121.309 Y108.585 E.01062
G1 X121.535 Y108.861 E.01062
G1 X121.703 Y109.175 E.01062
G1 X121.807 Y109.516 E.01062
G1 X121.842 Y109.871 E.01062
G1 X121.807 Y110.226 E.01062
G1 X121.703 Y110.567 E.01062
G1 X121.535 Y110.881 E.01062
G1 X121.309 Y111.157 E.01062
G1 X121.033 Y111.383 E.01062
G1 X120.719 Y111.551 E.01062
G1 X120.378 Y111.655 E.01062
G1 X120.023 Y111.69 E.01062
G1 X119.668 Y111.655 E.01062
G1 X119.327 Y111.551 E.01062
G1 X119.013 Y111.383 E.01062
G1 X118.737 Y111.157 E.01062
G1 X118.511 Y110.881 E.01062
G1 X118.343 Y110.567 E.01062
G1 X118.24 Y110.226 E.01062
G1 X118.205 Y109.871 E.01062
G1 X118.234 Y109.576 E.00883
G1 X117.972 Y109.281 F9000
G1 E-3.5 F3600
