; generated by PrusaSlicer 2.4.0+win64 on 2022-03-06 at 11:00:38 UTC

; 

; external perimeters extrusion width = 0.45mm
; perimeters extrusion width = 0.45mm
; infill extrusion width = 0.45mm
; solid infill extrusion width = 0.45mm
; top infill extrusion width = 0.45mm
; first layer extrusion width = 0.42mm

M201 X500 Y500 Z100 E5000 ; sets maximum accelerations, mm/sec^2
M203 X500 Y500 Z10 E60 ; sets maximum feedrates, mm/sec
M204 P500 R1000 T500 ; sets acceleration (P, T) and retract acceleration (R), mm/sec^2
M205 X8.00 Y8.00 Z0.40 E5.00 ; sets the jerk limits, mm/sec
M205 S0 T0 ; sets the minimum extruding and travel feed rate, mm/sec
M107
;TYPE:Custom
G90 ; use absolute coordinates
M83 ; extruder relative mode
M140 S80 ; set final bed temp
M104 S150 ; set temporary nozzle temp to prevent oozing during homing
G4 S10 ; allow partial nozzle warmup
G28 ; home all axis
G1 Z50 F240
G1 X2 Y10 F3000
M104 S235 ; set final nozzle temp
M190 S80 ; wait for bed temp to stabilize
M109 S235 ; wait for nozzle temp to stabilize
G1 Z0.28 F240
G92 E0
G1 Y140 E10 F1500 ; prime the nozzle
G1 X2.3 F5000
G92 E0
G1 Y10 E10 F1200 ; prime the nozzle
G92 E0
G21 ; set units to millimeters
G90 ; use absolute coordinates
M83 ; use relative distances for extrusion
; Filament gcode
M107
;LAYER_CHANGE
;Z:0.2
;HEIGHT:0.2
;BEFORE_LAYER_CHANGE
G92 E0
;0.2


G1 E-5 F3600
G1 Z.1 F9000
;AFTER_LAYER_CHANGE
;0.2
G1 X59.598 Y72.844
G1 E5 F2400
M204 S500
;TYPE:Skirt/Brim
;WIDTH:0.42
G1 F1200
G1 X60.694 Y72.112 E.03925
G1 X62.532 Y71.35 E.05925
G1 X63.824 Y71.093 E.03925
G1 X156.176 Y71.093 E2.75085
G1 X157.468 Y71.35 E.03925
G1 X159.306 Y72.111 E.05925
G1 X160.402 Y72.843 E.03925
G1 X174.767 Y87.209 E.60512
G1 X175.499 Y88.304 E.03925
G1 X176.26 Y90.142 E.05925
G1 X176.517 Y91.434 E.03925
G1 X176.517 Y142.601 E1.52408
G1 X176.123 Y144.184 E.0486
G1 X175.528 Y144.989 E.02981
G1 X172.599 Y147.918 E.12338
G1 X171.201 Y148.758 E.0486
G1 X170.211 Y148.907 E.02981
G1 X49.789 Y148.907 E3.58696
G1 X48.206 Y148.513 E.0486
G1 X47.401 Y147.918 E.02981
G1 X44.472 Y144.989 E.12338
G1 X43.631 Y143.591 E.0486
G1 X43.483 Y142.601 E.02981
G1 X43.483 Y91.434 E1.52408
G1 X43.74 Y90.142 E.03925
G1 X44.501 Y88.304 E.05925
G1 X45.233 Y87.209 E.03925
G1 X59.556 Y72.886 E.60333
G1 E-3.5 F3600
;WIPE_START
G1 F7200
G1 X60.694 Y72.112 E-.65387
G1 X62.194 Y71.49 E-.77113
;WIPE_END
G1 E-.075 F3600
G1 X62.193 Y75.546 F9000
G1 E5 F2400
G1 F1200
G1 X63.131 Y75.071 E.03131
G1 X64.443 Y74.757 E.04017
G1 X94.309 Y74.761 E.88961
G1 X95.553 Y75.038 E.03798
G1 X97.006 Y75.869 E.04985
G1 X110.001 Y88.864 E.5474
G1 X123.213 Y75.702 E.55548
G1 X124.366 Y75.073 E.03915
G1 X125.682 Y74.757 E.04032
G1 X155.552 Y74.761 E.88972
G1 X156.961 Y75.104 E.04321
G1 X158.248 Y75.871 E.04461
G1 X171.699 Y89.322 E.56662
G1 X172.43 Y90.469 E.04051
G1 X172.819 Y91.794 E.04112
G1 X172.853 Y107.409 E.46511
G1 X172.554 Y108.636 E.03764
G1 X172.096 Y109.524 E.02977
G1 X170.707 Y110.897 E.05816
G1 X169.876 Y111.314 E.02771
G1 X168.792 Y111.595 E.03334
G1 X160.36 Y111.613 E.25117
G1 X171.701 Y122.953 E.47773
G1 X172.526 Y124.323 E.04763
G1 X172.853 Y125.682 E.04162
G1 X172.853 Y141.039 E.45745
G1 X172.555 Y142.263 E.0375
G1 X172.136 Y143.098 E.02784
G1 X170.708 Y144.525 E.06013
G1 X169.873 Y144.945 E.02784
G1 X168.65 Y145.243 E.0375
G1 X150.76 Y145.243 E.53288
G1 X149.952 Y145.141 E.02425
G1 X147.979 Y144.16 E.06563
G1 X141.293 Y137.474 E.28164
G1 X139.947 Y137.474 E.04007
G1 X133.218 Y144.192 E.28321
G1 X131.605 Y145.041 E.0543
G1 X130.487 Y145.243 E.03384
G1 X112.591 Y145.243 E.53308
G1 X111.287 Y144.914 E.04005
G1 X110.533 Y144.526 E.02526
G1 X110 Y144.035 E.02159
G1 X109.467 Y144.526 E.02159
G1 X108.713 Y144.914 E.02526
G1 X107.409 Y145.243 E.04005
G1 X89.52 Y145.243 E.53287
G1 X88.712 Y145.141 E.02425
G1 X86.739 Y144.16 E.06563
G1 X80.053 Y137.474 E.28164
G1 X78.707 Y137.474 E.04008
G1 X72.021 Y144.16 E.28164
G1 X70.048 Y145.141 E.06563
G1 X69.24 Y145.243 E.02425
G1 X51.35 Y145.243 E.53288
G1 X50.127 Y144.945 E.0375
G1 X49.292 Y144.525 E.02784
G1 X47.864 Y143.098 E.06013
G1 X47.445 Y142.263 E.02784
G1 X47.147 Y141.039 E.0375
G1 X47.147 Y125.68 E.45751
G1 X47.499 Y124.263 E.04349
G1 X48.304 Y122.949 E.04589
G1 X59.692 Y111.613 E.47864
G1 X51.208 Y111.595 E.25273
G1 X50.124 Y111.314 E.03334
G1 X49.293 Y110.897 E.02771
G1 X47.904 Y109.524 E.05816
G1 X47.446 Y108.636 E.02977
G1 X47.147 Y107.409 E.03764
G1 X47.181 Y91.792 E.46517
G1 X47.572 Y90.466 E.04117
G1 X48.305 Y89.318 E.04056
G1 X62.151 Y75.588 E.58082
G1 X62.407 Y75.851 F9000
G1 F1200
G1 X63.242 Y75.432 E.02782
G1 X64.465 Y75.134 E.03751
G1 X94.287 Y75.138 E.88829
G1 X95.442 Y75.399 E.03527
G1 X96.757 Y76.153 E.04514
G1 X110 Y89.396 E.55787
G1 X123.46 Y75.989 E.56589
G1 X124.48 Y75.433 E.0346
G1 X125.705 Y75.134 E.03758
G1 X155.529 Y75.138 E.88834
G1 X156.843 Y75.463 E.04033
G1 X157.998 Y76.154 E.04007
G1 X171.418 Y89.574 E.5653
G1 X172.097 Y90.647 E.03784
G1 X172.449 Y91.872 E.03797
G1 X172.476 Y107.386 E.46209
G1 X172.194 Y108.523 E.0349
G1 X171.775 Y109.323 E.02691
G1 X170.51 Y110.574 E.053
G1 X169.761 Y110.955 E.02502
G1 X168.721 Y111.224 E.03201
G1 X159.45 Y111.236 E.27613
G1 X171.418 Y123.204 E.50413
G1 X172.167 Y124.441 E.04307
G1 X172.476 Y125.705 E.03874
G1 X172.476 Y141.016 E.45607
G1 X172.195 Y142.15 E.03481
G1 X171.813 Y142.9 E.02507
G1 X170.511 Y144.203 E.05488
G1 X169.76 Y144.584 E.02507
G1 X168.626 Y144.866 E.03481
G1 X150.772 Y144.866 E.53182
G1 X150.032 Y144.771 E.02223
G1 X148.224 Y143.872 E.06014
G1 X141.449 Y137.097 E.28538
G1 X139.791 Y137.097 E.04938
G1 X133.017 Y143.871 E.28534
G1 X131.456 Y144.693 E.05256
G1 X130.471 Y144.866 E.02977
G1 X112.614 Y144.866 E.53191
G1 X111.44 Y144.569 E.03606
G1 X110.73 Y144.204 E.02379
G1 X110 Y143.513 E.02994
G1 X109.27 Y144.204 E.02994
G1 X108.56 Y144.569 E.02379
G1 X107.386 Y144.866 E.03606
G1 X89.532 Y144.866 E.53181
G1 X88.792 Y144.771 E.02223
G1 X86.984 Y143.872 E.06014
G1 X80.209 Y137.097 E.28538
G1 X78.551 Y137.097 E.04938
G1 X71.776 Y143.872 E.28538
G1 X69.968 Y144.771 E.06014
G1 X69.228 Y144.866 E.02223
G1 X51.374 Y144.866 E.53182
G1 X50.24 Y144.584 E.03481
G1 X49.489 Y144.203 E.02507
G1 X48.187 Y142.9 E.05488
G1 X47.805 Y142.15 E.02507
G1 X47.524 Y141.016 E.03481
G1 X47.524 Y125.703 E.45611
G1 X47.858 Y124.384 E.04055
G1 X48.585 Y123.2 E.04137
G1 X60.605 Y111.236 E.50515
G1 X51.279 Y111.224 E.27778
G1 X50.239 Y110.955 E.03201
G1 X49.49 Y110.574 E.02502
G1 X48.225 Y109.323 E.053
G1 X47.806 Y108.523 E.02691
G1 X47.524 Y107.386 E.0349
G1 X47.551 Y91.87 E.46215
G1 X47.905 Y90.644 E.03802
G1 X48.586 Y89.57 E.03787
G1 X62.365 Y75.893 E.5783
G1 X62.605 Y76.174 F9000
G1 F1200
G1 X63.354 Y75.793 E.02505
G1 X64.489 Y75.511 E.03482
G1 X94.266 Y75.515 E.88695
G1 X95.33 Y75.76 E.03254
G1 X96.508 Y76.437 E.04047
G1 X110 Y89.929 E.56834
G1 X123.707 Y76.275 E.57629
G1 X124.594 Y75.793 E.03008
G1 X125.729 Y75.511 E.03483
G1 X155.506 Y75.515 E.88697
G1 X156.675 Y75.802 E.03586
G1 X157.748 Y76.438 E.03714
G1 X171.136 Y89.825 E.56394
G1 X171.762 Y90.824 E.03513
G1 X172.079 Y91.949 E.03482
G1 X172.099 Y107.362 E.4591
G1 X171.834 Y108.407 E.03211
G1 X171.456 Y109.121 E.02406
G1 X170.311 Y110.252 E.04794
G1 X169.645 Y110.595 E.0223
G1 X168.649 Y110.853 E.03066
G1 X158.54 Y110.86 E.30111
G1 X171.136 Y123.455 E.53057
G1 X171.808 Y124.561 E.03855
G1 X172.099 Y125.728 E.03584
G1 X172.099 Y140.992 E.45466
G1 X171.835 Y142.036 E.03207
G1 X171.492 Y142.701 E.0223
G1 X170.312 Y143.882 E.04972
G1 X169.646 Y144.224 E.0223
G1 X168.602 Y144.489 E.03207
G1 X150.784 Y144.489 E.53074
G1 X150.112 Y144.401 E.0202
G1 X148.469 Y143.584 E.05466
G1 X141.605 Y136.72 E.28913
G1 X139.635 Y136.72 E.05869
G1 X132.771 Y143.584 E.28912
G1 X131.309 Y144.345 E.0491
G1 X130.456 Y144.489 E.02576
G1 X112.638 Y144.489 E.53075
G1 X111.594 Y144.224 E.03207
G1 X110.928 Y143.882 E.02231
G1 X110 Y142.987 E.03839
G1 X109.072 Y143.882 E.03839
G1 X108.406 Y144.224 E.02231
G1 X107.362 Y144.489 E.03207
G1 X89.544 Y144.489 E.53074
G1 X88.872 Y144.401 E.0202
G1 X87.229 Y143.584 E.05466
G1 X80.365 Y136.72 E.28913
G1 X78.395 Y136.72 E.05869
G1 X71.531 Y143.584 E.28913
G1 X69.888 Y144.401 E.05466
G1 X69.216 Y144.489 E.0202
G1 X51.398 Y144.489 E.53074
G1 X50.354 Y144.224 E.03207
G1 X49.688 Y143.882 E.0223
G1 X48.508 Y142.701 E.04972
G1 X48.165 Y142.036 E.0223
G1 X47.901 Y140.992 E.03207
G1 X47.901 Y125.728 E.45468
G1 X48.215 Y124.506 E.03758
G1 X48.867 Y123.452 E.03689
G1 X61.518 Y110.86 E.5317
G1 X51.351 Y110.853 E.30285
G1 X50.355 Y110.595 E.03066
G1 X49.689 Y110.252 E.0223
G1 X48.544 Y109.121 E.04794
G1 X48.166 Y108.407 E.02406
G1 X47.901 Y107.362 E.03211
G1 X47.921 Y91.947 E.45915
G1 X48.239 Y90.821 E.03485
G1 X48.867 Y89.823 E.03514
G1 X62.562 Y76.216 E.57505
G1 X62.804 Y76.495 F9000
G1 F1200
G1 X63.469 Y76.153 E.02229
G1 X64.513 Y75.888 E.03208
G1 X94.243 Y75.892 E.88557
G1 X95.216 Y76.12 E.02977
G1 X96.258 Y76.721 E.03583
G1 X109.614 Y90.077 E.56261
G1 X110 Y90.679 E.02128
G1 X110.387 Y90.076 E.02134
G1 X123.953 Y76.561 E.57038
G1 X124.71 Y76.153 E.02561
G1 X125.753 Y75.888 E.03205
G1 X155.483 Y75.892 E.88555
G1 X156.557 Y76.161 E.03298
G1 X157.498 Y76.721 E.03263
G1 X170.853 Y90.076 E.56259
G1 X171.427 Y90.999 E.03238
G1 X171.709 Y92.024 E.03166
G1 X171.722 Y107.338 E.45614
G1 X171.475 Y108.289 E.02929
G1 X171.138 Y108.917 E.02122
G1 X170.111 Y109.931 E.04299
G1 X169.529 Y110.235 E.01955
G1 X168.578 Y110.482 E.02928
G1 X157.63 Y110.482 E.3261
G1 X170.853 Y123.706 E.55704
G1 X171.45 Y124.682 E.03407
G1 X171.722 Y125.752 E.0329
G1 X171.722 Y140.968 E.45321
G1 X171.475 Y141.919 E.02928
G1 X171.171 Y142.501 E.01955
G1 X170.111 Y143.561 E.04467
G1 X169.529 Y143.865 E.01955
G1 X168.578 Y144.112 E.02928
G1 X150.797 Y144.112 E.52963
G1 X150.193 Y144.031 E.01816
G1 X148.714 Y143.296 E.0492
G1 X141.761 Y136.343 E.29287
G1 X139.479 Y136.343 E.06799
G1 X132.526 Y143.296 E.29289
G1 X131.164 Y143.995 E.04559
G1 X130.442 Y144.112 E.0218
G1 X112.662 Y144.112 E.5296
G1 X111.711 Y143.865 E.02928
G1 X111.128 Y143.561 E.01957
G1 X110 Y142.458 E.047
G1 X108.872 Y143.561 E.047
G1 X108.289 Y143.865 E.01957
G1 X107.338 Y144.112 E.02928
G1 X89.557 Y144.112 E.52963
G1 X88.953 Y144.031 E.01816
G1 X87.474 Y143.296 E.0492
G1 X80.521 Y136.343 E.29287
G1 X78.239 Y136.343 E.06799
G1 X71.286 Y143.296 E.29287
G1 X69.807 Y144.031 E.0492
G1 X69.203 Y144.112 E.01816
G1 X51.422 Y144.112 E.52963
G1 X50.471 Y143.865 E.02928
G1 X49.889 Y143.561 E.01955
G1 X48.829 Y142.501 E.04467
G1 X48.525 Y141.919 E.01955
G1 X48.278 Y140.968 E.02928
G1 X48.278 Y125.752 E.45321
G1 X48.573 Y124.63 E.03457
G1 X49.148 Y123.704 E.03246
G1 X62.432 Y110.482 E.55827
G1 X51.422 Y110.482 E.32793
G1 X50.471 Y110.235 E.02928
G1 X49.889 Y109.931 E.01955
G1 X48.862 Y108.917 E.04299
G1 X48.525 Y108.289 E.02122
G1 X48.278 Y107.338 E.02929
G1 X48.291 Y92.025 E.45612
G1 X48.594 Y90.95 E.03326
G1 X49.148 Y90.075 E.03084
G1 X62.761 Y76.538 E.57187
G1 X63.004 Y76.816 F9000
G1 F1200
G1 X63.585 Y76.512 E.01954
G1 X64.537 Y76.265 E.02929
G1 X94.221 Y76.269 E.88417
G1 X95.101 Y76.48 E.02698
G1 X96.009 Y77.005 E.03124
G1 X109.332 Y90.328 E.56122
G1 X110 Y91.395 E.03751
G1 X110.669 Y90.327 E.03756
G1 X124.2 Y76.848 E.56888
G1 X124.826 Y76.512 E.02118
G1 X125.777 Y76.265 E.02926
G1 X155.46 Y76.269 E.88415
G1 X156.39 Y76.5 E.02854
G1 X157.249 Y77.005 E.02968
G1 X170.572 Y90.328 E.56124
G1 X171.071 Y91.126 E.02804
G1 X171.339 Y92.1 E.03008
G1 X171.345 Y107.313 E.45315
G1 X171.117 Y108.169 E.0264
G1 X170.821 Y108.711 E.0184
G1 X169.909 Y109.612 E.03816
G1 X169.41 Y109.877 E.01683
G1 X168.553 Y110.105 E.02644
G1 X156.906 Y110.105 E.34692
G1 X156.829 Y110.381 E.00853
G1 X157.248 Y110.634 E.01457
G1 X170.571 Y123.957 E.56124
G1 X171.092 Y124.805 E.02963
G1 X171.345 Y125.777 E.02992
G1 X171.345 Y140.942 E.45173
G1 X171.117 Y141.8 E.02644
G1 X170.852 Y142.299 E.01681
G1 X169.909 Y143.242 E.03973
G1 X169.41 Y143.507 E.01681
G1 X168.553 Y143.735 E.02644
G1 X150.81 Y143.735 E.52849
G1 X150.274 Y143.662 E.0161
G1 X148.959 Y143.007 E.04377
G1 X141.917 Y135.966 E.29661
G1 X139.322 Y135.966 E.07729
G1 X132.281 Y143.008 E.29663
G1 X131.022 Y143.645 E.04202
G1 X130.429 Y143.735 E.01789
G1 X112.687 Y143.735 E.52845
G1 X111.829 Y143.507 E.02644
G1 X111.331 Y143.242 E.01683
G1 X110.419 Y142.34 E.03819
G1 X110 Y141.594 E.0255
G1 X109.581 Y142.34 E.0255
G1 X108.669 Y143.242 E.03819
G1 X108.171 Y143.507 E.01683
G1 X107.313 Y143.735 E.02644
G1 X89.57 Y143.735 E.52849
G1 X89.034 Y143.662 E.0161
G1 X87.719 Y143.007 E.04377
G1 X80.678 Y135.966 E.29661
G1 X78.083 Y135.966 E.07729
G1 X71.041 Y143.007 E.29661
G1 X69.726 Y143.662 E.04377
G1 X69.19 Y143.735 E.0161
G1 X51.447 Y143.735 E.52849
G1 X50.59 Y143.507 E.02644
G1 X50.091 Y143.242 E.01681
G1 X49.148 Y142.299 E.03973
G1 X48.883 Y141.8 E.01681
G1 X48.655 Y140.942 E.02644
G1 X48.655 Y125.777 E.45171
G1 X48.929 Y124.755 E.03153
G1 X49.429 Y123.957 E.02806
G1 X63.345 Y110.105 E.58484
G1 X51.447 Y110.105 E.35439
G1 X50.59 Y109.877 E.02644
G1 X50.091 Y109.612 E.01683
G1 X49.179 Y108.711 E.03816
G1 X48.883 Y108.169 E.0184
G1 X48.655 Y107.313 E.0264
G1 X48.661 Y92.1 E.45315
G1 X48.929 Y91.126 E.03008
G1 X49.429 Y90.327 E.02808
G1 X62.961 Y76.858 E.5687
G1 X63.206 Y77.135 F9000
G1 F1200
G1 X63.704 Y76.87 E.01681
G1 X64.562 Y76.642 E.02644
G1 X94.197 Y76.646 E.88272
G1 X94.985 Y76.84 E.02415
G1 X95.76 Y77.289 E.02669
G1 X109.05 Y90.579 E.55982
G1 X109.495 Y91.3 E.02525
G1 X109.728 Y92.172 E.0269
G1 X109.728 Y107.287 E.45021
G1 X109.52 Y108.049 E.02353
G1 X109.294 Y108.465 E.01409
G1 X108.465 Y109.294 E.03494
G1 X108.049 Y109.52 E.01409
G1 X107.287 Y109.728 E.02353
G1 X89.583 Y109.728 E.52733
G1 X89.117 Y109.663 E.01403
G1 X87.964 Y109.089 E.03836
G1 X80.834 Y101.959 E.30035
G1 X77.926 Y101.959 E.0866
G1 X70.796 Y109.089 E.30035
G1 X69.643 Y109.663 E.03836
G1 X69.177 Y109.728 E.01403
G1 X51.473 Y109.728 E.52733
G1 X50.711 Y109.52 E.02353
G1 X50.295 Y109.294 E.01409
G1 X49.466 Y108.465 E.03494
G1 X49.241 Y108.049 E.01409
G1 X49.032 Y107.287 E.02353
G1 X49.032 Y92.172 E.45021
G1 X49.265 Y91.3 E.0269
G1 X49.711 Y90.578 E.02528
G1 X63.163 Y77.178 E.56558
G1 X63.41 Y77.453 F9000
G1 F1200
G1 X63.826 Y77.228 E.01409
G1 X64.588 Y77.019 E.02353
G1 X94.175 Y77.023 E.88129
G1 X94.821 Y77.181 E.01983
G1 X95.512 Y77.574 E.02366
G1 X108.768 Y90.83 E.55842
G1 X109.139 Y91.427 E.02092
G1 X109.351 Y92.198 E.02383
G1 X109.351 Y107.26 E.44864
G1 X109.163 Y107.924 E.02054
G1 X108.978 Y108.258 E.0114
G1 X108.258 Y108.978 E.03031
G1 X107.924 Y109.163 E.0114
G1 X107.26 Y109.351 E.02054
G1 X89.597 Y109.351 E.52612
G1 X89.2 Y109.294 E.01194
G1 X88.209 Y108.801 E.03299
G1 X80.99 Y101.582 E.30409
G1 X77.77 Y101.582 E.0959
G1 X70.551 Y108.801 E.30409
G1 X69.56 Y109.294 E.03299
G1 X69.163 Y109.351 E.01194
G1 X51.5 Y109.351 E.52612
G1 X50.836 Y109.163 E.02054
G1 X50.502 Y108.978 E.0114
G1 X49.782 Y108.258 E.03031
G1 X49.597 Y107.924 E.0114
G1 X49.409 Y107.26 E.02054
G1 X49.409 Y92.198 E.44864
G1 X49.621 Y91.427 E.02383
G1 X49.993 Y90.83 E.02094
G1 X63.368 Y77.496 E.56256
G1 X63.617 Y77.77 F9000
G1 F1200
G1 X63.951 Y77.584 E.0114
G1 X64.615 Y77.396 E.02055
G1 X94.153 Y77.4 E.87983
G1 X94.661 Y77.523 E.01558
G1 X95.264 Y77.86 E.02057
G1 X108.487 Y91.082 E.557
G1 X108.785 Y91.556 E.01668
G1 X108.974 Y92.225 E.0207
G1 X108.974 Y107.232 E.447
G1 X108.809 Y107.794 E.01746
G1 X108.663 Y108.049 E.00873
G1 X108.049 Y108.663 E.02589
G1 X107.794 Y108.809 E.00873
G1 X107.232 Y108.974 E.01746
G1 X89.611 Y108.974 E.52486
G1 X89.285 Y108.926 E.00982
G1 X88.454 Y108.513 E.02765
G1 X81.146 Y101.205 E.30783
G1 X77.614 Y101.205 E.10521
G1 X70.306 Y108.513 E.30783
G1 X69.475 Y108.926 E.02765
G1 X69.149 Y108.974 E.00982
G1 X51.528 Y108.974 E.52486
G1 X50.966 Y108.809 E.01746
G1 X50.711 Y108.663 E.00873
G1 X50.097 Y108.049 E.02589
G1 X49.952 Y107.794 E.00873
G1 X49.786 Y107.232 E.01746
G1 X49.786 Y92.225 E.447
G1 X49.976 Y91.556 E.0207
G1 X50.274 Y91.082 E.01668
G1 X63.574 Y77.812 E.55964
G1 X63.826 Y78.084 F9000
G1 F1200
G1 X64.08 Y77.939 E.00873
G1 X64.643 Y77.773 E.01746
G1 X94.131 Y77.777 E.87834
G1 X94.504 Y77.866 E.01142
