; generated by PrusaSlicer 2.4.0+win64 on 2022-03-04 at 16:40:56 UTC

; 

; external perimeters extrusion width = 0.45mm
; perimeters extrusion width = 0.45mm
; infill extrusion width = 0.45mm
; solid infill extrusion width = 0.45mm
; top infill extrusion width = 0.45mm
; first layer extrusion width = 0.42mm

M201 X500 Y500 Z100 E5000 ; sets maximum accelerations, mm/sec^2
M203 X500 Y500 Z10 E60 ; sets maximum feedrates, mm/sec
M204 P500 R1000 T500 ; sets acceleration (P, T) and retract acceleration (R), mm/sec^2
M205 X8.00 Y8.00 Z0.40 E5.00 ; sets the jerk limits, mm/sec
M205 S0 T0 ; sets the minimum extruding and travel feed rate, mm/sec
M107
;TYPE:Custom
G90 ; use absolute coordinates
M83 ; extruder relative mode
M140 S80 ; set final bed temp
M104 S150 ; set temporary nozzle temp to prevent oozing during homing
G4 S10 ; allow partial nozzle warmup
G28 ; home all axis
G1 Z50 F240
G1 X2 Y10 F3000
M104 S235 ; set final nozzle temp
M190 S80 ; wait for bed temp to stabilize
M109 S235 ; wait for nozzle temp to stabilize
G1 Z0.28 F240
G92 E0
G1 Y140 E10 F1500 ; prime the nozzle
G1 X2.3 F5000
G92 E0
G1 Y10 E10 F1200 ; prime the nozzle
G92 E0
G21 ; set units to millimeters
G90 ; use absolute coordinates
M83 ; use relative distances for extrusion
; Filament gcode
M107
;LAYER_CHANGE
;Z:0.2
;HEIGHT:0.2
;BEFORE_LAYER_CHANGE
G92 E0
;0.2


G1 E-5 F3600
G1 Z.1 F9000
;AFTER_LAYER_CHANGE
;0.2
G1 X86.333 Y93.373
G1 E5 F2400
M204 S500
;TYPE:Skirt/Brim
;WIDTH:0.42
G1 F1200
G1 X87.731 Y92.532 E.0486
G1 X88.721 Y92.384 E.02981
G1 X131.279 Y92.384 E1.26769
G1 X132.863 Y92.778 E.0486
G1 X133.667 Y93.373 E.02981
G1 X136.596 Y96.302 E.12338
G1 X137.437 Y97.7 E.0486
G1 X137.585 Y98.69 E.02981
G1 X137.585 Y121.31 E.67377
G1 X137.191 Y122.893 E.0486
G1 X136.596 Y123.698 E.02981
G1 X133.667 Y126.627 E.12338
G1 X132.269 Y127.468 E.0486
G1 X131.279 Y127.616 E.02981
G1 X88.721 Y127.616 E1.26769
G1 X87.137 Y127.222 E.0486
G1 X86.333 Y126.627 E.02981
G1 X83.404 Y123.698 E.12338
G1 X82.563 Y122.3 E.0486
G1 X82.415 Y121.31 E.02981
G1 X82.415 Y98.69 E.67377
G1 X82.809 Y97.107 E.0486
G1 X83.404 Y96.302 E.02981
G1 X86.29 Y93.416 E.12159
G1 E-3.5 F3600
;WIPE_START
G1 F7200
G1 X87.731 Y92.532 E-.80263
G1 X88.721 Y92.384 E-.47543
G1 X89.03 Y92.384 E-.14695
;WIPE_END
G1 E-.075 F3600
G1 X88.323 Y96.696 F9000
G1 E5 F2400
G1 F1200
G1 X90.245 Y96.048 E.06042
G1 X129.695 Y96.051 E1.17508
G1 X130.643 Y96.235 E.02877
G1 X131.551 Y96.626 E.02946
G1 X132.77 Y97.65 E.04741
G1 X133.561 Y98.867 E.04324
G1 X133.922 Y100.253 E.04266
G1 X133.899 Y111.775 E.34321
G1 X133.616 Y112.875 E.03383
G1 X133.247 Y113.612 E.02453
G1 X132.966 Y113.952 E.01315
G1 X133.165 Y114.199 E.00944
G1 X133.779 Y115.515 E.04328
G1 X133.908 Y116.3 E.02368
G1 X133.876 Y120.058 E.11195
G1 X133.575 Y121.101 E.03233
G1 X133.158 Y121.871 E.02607
G1 X132.307 Y122.809 E.03774
G1 X131.677 Y123.304 E.02386
G1 X129.755 Y123.952 E.06041
G1 X90.282 Y123.952 E1.17577
G1 X89.059 Y123.654 E.0375
G1 X88.243 Y123.245 E.02719
G1 X87.231 Y122.347 E.0403
G1 X86.727 Y121.708 E.02423
G1 X86.078 Y119.781 E.06059
G1 X86.107 Y107.416 E.36829
G1 X86.418 Y106.264 E.03554
G1 X86.794 Y105.553 E.02398
G1 X87.04 Y105.26 E.01138
G1 X86.768 Y104.935 E.01263
G1 X86.416 Y104.257 E.02275
G1 X86.161 Y103.469 E.02468
G1 X86.123 Y99.96 E.10451
G1 X86.424 Y98.901 E.03282
G1 X86.842 Y98.13 E.02613
G1 X87.693 Y97.191 E.03774
G1 X88.276 Y96.733 E.02207
G1 X88.508 Y97.03 F9000
G1 F1200
G1 X90.276 Y96.425 E.05565
G1 X129.676 Y96.428 E1.1736
G1 X130.549 Y96.601 E.02652
G1 X131.375 Y96.96 E.02682
G1 X132.505 Y97.919 E.04415
G1 X133.205 Y98.993 E.03818
G1 X133.545 Y100.277 E.03957
G1 X133.522 Y111.751 E.34175
G1 X133.27 Y112.724 E.02995
G1 X132.921 Y113.421 E.02321
G1 X132.461 Y113.958 E.02106
G1 X132.836 Y114.386 E.01695
G1 X133.426 Y115.65 E.04154
G1 X133.533 Y116.341 E.02084
G1 X133.499 Y120.028 E.10982
G1 X133.22 Y120.974 E.02939
G1 X132.838 Y121.669 E.0236
G1 X132.039 Y122.543 E.03527
G1 X131.47 Y122.987 E.02151
G1 X129.725 Y123.575 E.05487
G1 X90.305 Y123.575 E1.17416
G1 X89.171 Y123.294 E.03481
G1 X88.436 Y122.921 E.02456
G1 X87.495 Y122.078 E.03762
G1 X87.044 Y121.501 E.02181
G1 X86.455 Y119.751 E.05502
G1 X86.484 Y107.442 E.36663
G1 X86.761 Y106.422 E.03148
G1 X87.116 Y105.75 E.02264
G1 X87.545 Y105.262 E.01936
G1 X87.091 Y104.74 E.0206
G1 X86.758 Y104.098 E.02155
G1 X86.529 Y103.381 E.0224
G1 X86.5 Y99.985 E.10116
G1 X86.78 Y99.027 E.02974
G1 X87.162 Y98.331 E.02363
G1 X87.961 Y97.457 E.03527
G1 X88.461 Y97.067 E.0189
G1 X88.692 Y97.364 F9000
G1 F1200
G1 X88.736 Y97.33 E.00166
G1 X90.306 Y96.802 E.04936
G1 X129.657 Y96.805 E1.17212
G1 X130.454 Y96.966 E.02422
G1 X131.197 Y97.294 E.02417
G1 X132.238 Y98.187 E.04087
G1 X132.871 Y99.171 E.03486
G1 X133.168 Y100.301 E.03478
G1 X133.145 Y111.726 E.34031
G1 X132.924 Y112.573 E.02607
G1 X132.595 Y113.229 E.02188
G1 X131.953 Y113.964 E.02906
G1 X132.509 Y114.575 E.0246
G1 X133.058 Y115.736 E.03827
G1 X133.155 Y116.354 E.01863
G1 X133.122 Y119.997 E.10852
G1 X132.865 Y120.845 E.02638
G1 X132.52 Y121.465 E.02115
G1 X131.773 Y122.275 E.03282
G1 X131.264 Y122.67 E.01919
G1 X129.694 Y123.198 E.04936
G1 X90.329 Y123.198 E1.17254
G1 X89.286 Y122.934 E.03207
G1 X88.631 Y122.597 E.02192
G1 X87.761 Y121.81 E.03495
G1 X87.361 Y121.295 E.01941
G1 X86.832 Y119.721 E.04948
G1 X86.861 Y107.468 E.36496
G1 X87.104 Y106.58 E.02742
G1 X87.438 Y105.948 E.02131
G1 X88.053 Y105.264 E.0274
G1 X87.415 Y104.544 E.02864
G1 X87.1 Y103.939 E.02033
G1 X86.897 Y103.296 E.02009
G1 X86.877 Y100.012 E.0978
G1 X87.135 Y99.156 E.02663
G1 X87.48 Y98.535 E.02117
G1 X88.227 Y97.725 E.03282
G1 X88.644 Y97.401 E.01574
G1 X88.874 Y97.699 F9000
G1 F1200
G1 X88.94 Y97.648 E.0025
G1 X90.337 Y97.179 E.04388
G1 X129.637 Y97.182 E1.17062
G1 X130.357 Y97.331 E.02189
G1 X131.017 Y97.626 E.02152
G1 X131.971 Y98.454 E.03762
G1 X132.515 Y99.298 E.02992
G1 X132.791 Y100.325 E.03169
G1 X132.768 Y111.7 E.3388
G1 X132.565 Y112.455 E.02329
G1 X132.271 Y113.036 E.01942
G1 X131.441 Y113.971 E.03723
G1 X132.182 Y114.765 E.03236
G1 X132.69 Y115.824 E.03498
G1 X132.778 Y116.367 E.01638
G1 X132.745 Y119.965 E.10718
G1 X132.512 Y120.712 E.02331
G1 X132.203 Y121.26 E.01874
G1 X131.508 Y122.006 E.03037
G1 X131.06 Y122.352 E.01688
G1 X129.663 Y122.821 E.04387
G1 X90.354 Y122.821 E1.1709
G1 X89.402 Y122.574 E.02928
G1 X88.828 Y122.275 E.01928
G1 X88.028 Y121.543 E.03229
G1 X87.679 Y121.09 E.01704
G1 X87.209 Y119.691 E.04397
G1 X87.238 Y107.495 E.36328
G1 X87.448 Y106.736 E.02345
G1 X87.735 Y106.181 E.0186
G1 X88.561 Y105.262 E.0368
G1 X87.737 Y104.347 E.03667
G1 X87.455 Y103.809 E.01811
G1 X87.266 Y103.21 E.01872
G1 X87.254 Y100.041 E.09439
G1 X87.488 Y99.289 E.02347
G1 X87.797 Y98.74 E.01875
G1 X88.492 Y97.994 E.03037
G1 X88.826 Y97.736 E.01259
G1 X89.055 Y98.035 F9000
G1 F1200
G1 X89.144 Y97.967 E.00335
G1 X90.367 Y97.556 E.03843
G1 X129.618 Y97.56 E1.16914
G1 X130.222 Y97.684 E.01836
G1 X130.836 Y97.958 E.02005
G1 X131.701 Y98.718 E.03428
G1 X132.181 Y99.475 E.02669
G1 X132.414 Y100.349 E.02696
G1 X132.391 Y111.673 E.33729
G1 X132.208 Y112.334 E.02044
G1 X131.947 Y112.841 E.01699
G1 X131.234 Y113.635 E.03178
G1 X130.782 Y113.962 E.01661
G1 X131.17 Y114.235 E.01411
G1 X131.857 Y114.958 E.0297
G1 X132.323 Y115.914 E.03169
G1 X132.401 Y116.38 E.01409
G1 X132.369 Y119.932 E.10579
G1 X132.16 Y120.576 E.02017
G1 X131.887 Y121.053 E.01637
G1 X131.245 Y121.736 E.02793
G1 X130.856 Y122.033 E.01459
G1 X129.633 Y122.444 E.03843
G1 X90.379 Y122.444 E1.16924
G1 X89.521 Y122.216 E.02644
G1 X89.028 Y121.954 E.01664
G1 X88.297 Y121.278 E.02965
G1 X87.997 Y120.886 E.01469
G1 X87.586 Y119.661 E.0385
G1 X87.615 Y107.522 E.36157
G1 X87.804 Y106.86 E.02054
G1 X88.057 Y106.379 E.01617
G1 X88.801 Y105.561 E.03294
G1 X89.219 Y105.263 E.0153
G1 X88.804 Y104.968 E.01516
G1 X88.059 Y104.149 E.03299
G1 X87.809 Y103.679 E.01586
G1 X87.634 Y103.124 E.01733
G1 X87.631 Y100.071 E.09092
G1 X87.84 Y99.424 E.02025
G1 X88.113 Y98.947 E.01637
G1 X88.755 Y98.264 E.02793
G1 X89.007 Y98.071 E.00945
G1 X89.234 Y98.371 F9000
G1 F1200
G1 X89.347 Y98.286 E.00421
G1 X90.398 Y97.933 E.03303
G1 X129.598 Y97.937 E1.16763
G1 X130.122 Y98.048 E.01597
G1 X130.653 Y98.289 E.01737
G1 X131.43 Y98.982 E.031
G1 X131.825 Y99.602 E.02191
G1 X132.037 Y100.375 E.02385
G1 X132.014 Y111.645 E.3357
G1 X131.851 Y112.21 E.01753
G1 X131.625 Y112.644 E.01459
G1 X130.97 Y113.365 E.02899
G1 X130.612 Y113.616 E.01304
G1 X129.804 Y113.964 E.02621
G1 X130.623 Y114.316 E.02658
G1 X130.912 Y114.511 E.01037
G1 X131.563 Y115.196 E.02817
G1 X131.956 Y116.005 E.02677
G1 X132.024 Y116.394 E.01179
G1 X131.992 Y119.897 E.10433
G1 X131.809 Y120.435 E.01693
G1 X131.573 Y120.844 E.01406
G1 X130.983 Y121.464 E.0255
G1 X130.653 Y121.714 E.01232
G1 X129.602 Y122.067 E.03302
G1 X90.405 Y122.067 E1.16756
G1 X89.643 Y121.858 E.02353
G1 X89.229 Y121.635 E.014
G1 X88.567 Y121.014 E.02703
G1 X88.317 Y120.684 E.01236
G1 X87.963 Y119.631 E.03307
G1 X87.992 Y107.551 E.35981
G1 X88.16 Y106.987 E.01755
G1 X88.378 Y106.579 E.01378
G1 X89.063 Y105.833 E.03016
G1 X89.39 Y105.609 E.01181
G1 X90.197 Y105.263 E.02616
G1 X89.394 Y104.92 E.02599
G1 X89.066 Y104.695 E.01185
G1 X88.379 Y103.949 E.03022
G1 X88.163 Y103.548 E.01355
G1 X88.003 Y103.038 E.01591
G1 X88.008 Y100.104 E.0874
G1 X88.191 Y99.565 E.01697
G1 X88.427 Y99.156 E.01406
G1 X89.017 Y98.536 E.0255
G1 X89.186 Y98.408 E.00632
G1 X89.411 Y98.709 F9000
G1 F1200
G1 X89.548 Y98.606 E.00509
G1 X90.429 Y98.31 E.02767
G1 X129.576 Y98.314 E1.16608
G1 X130.02 Y98.411 E.01352
G1 X130.468 Y98.619 E.0147
G1 X131.158 Y99.244 E.02774
G1 X131.47 Y99.732 E.01727
G1 X131.659 Y100.401 E.0207
G1 X131.645 Y111.566 E.33255
G1 X131.494 Y112.088 E.0162
G1 X131.327 Y112.411 E.01081
G1 X130.736 Y113.069 E.02636
G1 X130.413 Y113.296 E.01176
G1 X129.948 Y113.49 E.015
G1 X129.272 Y113.581 E.02032
G1 X129.121 Y113.644 E.00489
G1 X128.987 Y113.779 E.00566
G1 X128.95 Y113.964 E.00563
G1 X128.988 Y114.15 E.00566
G1 X129.121 Y114.283 E.00561
G1 X129.272 Y114.346 E.00488
G1 X129.952 Y114.438 E.02044
G1 X130.457 Y114.655 E.01634
G1 X130.68 Y114.809 E.00809
G1 X131.268 Y115.433 E.02552
G1 X131.604 Y116.14 E.02333
G1 X131.647 Y116.406 E.00802
G1 X131.615 Y119.86 E.1029
G1 X131.461 Y120.289 E.01358
G1 X131.26 Y120.633 E.01186
G1 X130.723 Y121.191 E.02308
G1 X130.452 Y121.394 E.01008
G1 X129.571 Y121.69 E.02766
G1 X90.432 Y121.69 E1.16584
G1 X89.768 Y121.502 E.02054
G1 X89.434 Y121.317 E.01136
G1 X88.839 Y120.753 E.02444
G1 X88.637 Y120.482 E.01006
G1 X88.341 Y119.601 E.02769
G1 X88.369 Y107.582 E.35801
G1 X88.514 Y107.116 E.01454
G1 X88.673 Y106.814 E.01018
G1 X89.294 Y106.131 E.02748
G1 X89.586 Y105.931 E.01054
G1 X90.052 Y105.736 E.01503
G1 X90.728 Y105.645 E.02032
G1 X90.879 Y105.583 E.00488
G1 X90.985 Y105.476 E.00448
G1 X91.058 Y105.3 E.00566
G1 X91.013 Y105.078 E.00676
G1 X90.879 Y104.943 E.00566
G1 X90.728 Y104.88 E.00489
G1 X90.052 Y104.789 E.02032
G1 X89.586 Y104.595 E.01503
G1 X89.327 Y104.422 E.00927
G1 X88.673 Y103.712 E.02876
G1 X88.515 Y103.413 E.01007
G1 X88.38 Y103.007 E.01275
G1 X88.385 Y100.139 E.08542
G1 X88.539 Y99.711 E.01356
G1 X88.74 Y99.367 E.01186
G1 X89.277 Y98.809 E.02308
G1 X89.363 Y98.744 E.0032
G1 X89.586 Y99.047 F9000
G1 F1200
G1 X89.748 Y98.927 E.00599
G1 X90.459 Y98.687 E.02237
G1 X129.554 Y98.691 E1.1645
G1 X129.914 Y98.774 E.01099
G1 X130.279 Y98.947 E.01205
G1 X130.884 Y99.504 E.02451
G1 X131.116 Y99.866 E.0128
G1 X131.282 Y100.429 E.01749
G1 X131.275 Y111.487 E.32937
G1 X131.137 Y111.964 E.01481
G1 X131.006 Y112.212 E.00835
G1 X130.471 Y112.799 E.02365
G1 X130.248 Y112.956 E.00812
G1 X129.827 Y113.132 E.01359
G1 X129.176 Y113.213 E.01954
G1 X128.907 Y113.324 E.00866
G1 X128.702 Y113.529 E.00866
G1 X128.622 Y113.678 E.00504
G1 X128.565 Y113.963 E.00866
G1 X128.622 Y114.249 E.00866
G1 X128.702 Y114.398 E.00504
G1 X128.907 Y114.603 E.00866
G1 X129.176 Y114.714 E.00866
G1 X129.829 Y114.796 E.01959
G1 X130.288 Y114.993 E.01489
G1 X130.447 Y115.106 E.00579
G1 X130.942 Y115.625 E.02138
G1 X131.237 Y116.232 E.0201
G1 X131.269 Y116.421 E.00573
G1 X131.249 Y119.763 E.09955
G1 X131.112 Y120.147 E.01212
G1 X130.972 Y120.388 E.00832
G1 X130.462 Y120.918 E.02189
G1 X130.252 Y121.073 E.00778
G1 X129.541 Y121.313 E.02237
G1 X90.46 Y121.313 E1.16409
G1 X89.897 Y121.147 E.01746
G1 X89.643 Y121.002 E.00873
G1 X89.113 Y120.493 E.0219
G1 X88.958 Y120.283 E.00778
G1 X88.718 Y119.571 E.02238
G1 X88.737 Y107.667 E.35456
G1 X88.869 Y107.247 E.01312
G1 X88.994 Y107.014 E.00788
G1 X89.529 Y106.427 E.02364
G1 X89.752 Y106.271 E.00812
G1 X90.173 Y106.094 E.01359
G1 X90.824 Y106.014 E.01954
G1 X91.093 Y105.903 E.00866
G1 X91.305 Y105.69 E.00894
G1 X91.416 Y105.422 E.00866
G1 X91.433 Y105.253 E.00504
G1 X91.378 Y104.978 E.00837
G1 X91.298 Y104.829 E.00504
G1 X91.093 Y104.623 E.00866
G1 X90.824 Y104.512 E.00866
G1 X90.173 Y104.431 E.01954
G1 X89.75 Y104.254 E.01364
G1 X89.557 Y104.123 E.00695
G1 X88.994 Y103.512 E.02478
G1 X88.868 Y103.277 E.00792
G1 X88.747 Y102.916 E.01134
G1 X88.751 Y100.236 E.07984
G1 X88.888 Y99.853 E.0121
G1 X89.028 Y99.612 E.00832
G1 X89.538 Y99.082 E.02189
G1 X89.795 Y99.358 F9000
G1 F1200
G1 X89.945 Y99.249 E.00551
G1 X90.491 Y99.064 E.01716
G1 X129.532 Y99.068 E1.16292
G1 X129.771 Y99.123 E.00729
G1 X130.091 Y99.274 E.01054
G1 X130.609 Y99.762 E.02121
G1 X130.765 Y100.003 E.00853
G1 X130.905 Y100.459 E.0142
G1 X130.905 Y111.408 E.32614
G1 X130.781 Y111.839 E.01336
G1 X130.688 Y112.01 E.0058
G1 X130.209 Y112.528 E.02103
G1 X130.084 Y112.616 E.00454
G1 X129.708 Y112.773 E.01215
G1 X129.11 Y112.84 E.01791
G1 X128.896 Y112.905 E.00665
G1 X128.698 Y113.011 E.00669
G1 X128.525 Y113.154 E.00669
G1 X128.382 Y113.327 E.00669
G1 X128.277 Y113.525 E.00669
G1 X128.211 Y113.74 E.00669
G1 X128.189 Y113.963 E.00669
G1 X128.211 Y114.187 E.00669
G1 X128.277 Y114.402 E.00669
G1 X128.382 Y114.6 E.00669
G1 X128.525 Y114.773 E.00669
G1 X128.698 Y114.916 E.00669
G1 X128.896 Y115.022 E.00669
G1 X129.11 Y115.087 E.00665
G1 X129.707 Y115.154 E.01788
G1 X130.117 Y115.33 E.0133
G1 X130.206 Y115.396 E.00332
G1 X130.648 Y115.862 E.01912
G1 X130.871 Y116.326 E.01532
G1 X130.892 Y116.439 E.00344
G1 X130.883 Y119.667 E.09614
G1 X130.763 Y120.001 E.01058
G1 X130.66 Y120.175 E.00602
G1 X130.205 Y120.642 E.01943
G1 X130.055 Y120.751 E.00551
G1 X129.509 Y120.936 E.01715
G1 X90.489 Y120.936 E1.16228
G1 X90.032 Y120.795 E.01425
G1 X89.855 Y120.69 E.00611
G1 X89.388 Y120.235 E.01942
G1 X89.28 Y120.085 E.00551
G1 X89.095 Y119.54 E.01716
G1 X89.114 Y107.7 E.35267
G1 X89.22 Y107.385 E.0099
G1 X89.312 Y107.217 E.00571
G1 X89.791 Y106.698 E.02104
G1 X89.916 Y106.611 E.00454
G1 X90.292 Y106.453 E.01215
G1 X90.89 Y106.386 E.01791
G1 X91.104 Y106.321 E.00665
G1 X91.302 Y106.215 E.00669
G1 X91.475 Y106.073 E.00669
G1 X91.618 Y105.899 E.00669
G1 X91.723 Y105.701 E.00669
G1 X91.789 Y105.486 E.00669
G1 X91.811 Y105.263 E.00669
G1 X91.789 Y105.039 E.00669
G1 X91.723 Y104.825 E.00669
G1 X91.618 Y104.626 E.00669
G1 X91.475 Y104.453 E.00669
G1 X91.302 Y104.31 E.00669
G1 X91.104 Y104.205 E.00669
G1 X90.89 Y104.14 E.00665
G1 X90.292 Y104.073 E.01791
G1 X89.916 Y103.915 E.01215
G1 X89.791 Y103.827 E.00454
G1 X89.312 Y103.309 E.02104
G1 X89.22 Y103.141 E.00571
G1 X89.114 Y102.826 E.00989
G1 X89.117 Y100.332 E.07427
G1 X89.237 Y99.999 E.01056
G1 X89.34 Y99.825 E.00602
G1 X89.753 Y99.401 E.01765
G1 X90.021 Y99.666 F9000
G1 F1200
G1 X90.14 Y99.573 E.00447
G1 X90.522 Y99.441 E.01206
G1 X129.51 Y99.445 E1.16132
G1 X129.627 Y99.472 E.00358
G1 X129.9 Y99.602 E.009
G1 X130.332 Y100.018 E.01786
G1 X130.415 Y100.146 E.00455
G1 X130.528 Y100.49 E.01079
G1 X130.528 Y111.378 E.32431
G1 X130.428 Y111.705 E.01018
G1 X130.373 Y111.801 E.0033
G1 X129.919 Y112.276 E.01957
G1 X129.589 Y112.414 E.01064
G1 X129.037 Y112.468 E.01651
G1 X128.751 Y112.555 E.0089
G1 X128.488 Y112.696 E.0089
G1 X128.257 Y112.886 E.0089
G1 X128.067 Y113.117 E.0089
G1 X127.926 Y113.38 E.0089
G1 X127.84 Y113.666 E.0089
G1 X127.81 Y113.963 E.0089
G1 X127.84 Y114.261 E.0089
G1 X127.926 Y114.547 E.0089
G1 X128.067 Y114.81 E.0089
G1 X128.257 Y115.041 E.0089
G1 X128.488 Y115.231 E.0089
