; generated by PrusaSlicer 2.4.0+win64 on 2022-03-04 at 14:58:36 UTC

; 

; external perimeters extrusion width = 0.45mm
; perimeters extrusion width = 0.45mm
; infill extrusion width = 0.45mm
; solid infill extrusion width = 0.45mm
; top infill extrusion width = 0.45mm
; first layer extrusion width = 0.42mm

M201 X500 Y500 Z100 E5000 ; sets maximum accelerations, mm/sec^2
M203 X500 Y500 Z10 E60 ; sets maximum feedrates, mm/sec
M204 P500 R1000 T500 ; sets acceleration (P, T) and retract acceleration (R), mm/sec^2
M205 X8.00 Y8.00 Z0.40 E5.00 ; sets the jerk limits, mm/sec
M205 S0 T0 ; sets the minimum extruding and travel feed rate, mm/sec
M107
;TYPE:Custom
G90 ; use absolute coordinates
M83 ; extruder relative mode
M140 S80 ; set final bed temp
M104 S150 ; set temporary nozzle temp to prevent oozing during homing
G4 S10 ; allow partial nozzle warmup
G28 ; home all axis
G1 Z50 F240
G1 X2 Y10 F3000
M104 S235 ; set final nozzle temp
M190 S80 ; wait for bed temp to stabilize
M109 S235 ; wait for nozzle temp to stabilize
G1 Z0.28 F240
G92 E0
G1 Y140 E10 F1500 ; prime the nozzle
G1 X2.3 F5000
G92 E0
G1 Y10 E10 F1200 ; prime the nozzle
G92 E0
G21 ; set units to millimeters
G90 ; use absolute coordinates
M83 ; use relative distances for extrusion
; Filament gcode
M107
;LAYER_CHANGE
;Z:0.2
;HEIGHT:0.2
;BEFORE_LAYER_CHANGE
G92 E0
;0.2


G1 E-5 F3600
G1 Z.1 F9000
;AFTER_LAYER_CHANGE
;0.2
G1 X144.48 Y29.735
G1 E5 F2400
M204 S500
;TYPE:Skirt/Brim
;WIDTH:0.42
G1 F1200
G1 X145.458 Y27.423 E.07478
G1 X145.877 Y26.699 E.02493
G1 X146.632 Y25.703 E.0372
G1 X147.216 Y25.104 E.02493
G1 X149.062 Y23.631 E.07033
G1 X150.137 Y22.949 E.03793
G1 X153.143 Y21.493 E.09948
G1 X157.544 Y19.882 E.13961
G1 X159.212 Y19.413 E.0516
G1 X160.423 Y19.272 E.03634
G1 X164.387 Y19.282 E.11807
G1 X193.475 Y21.588 E.86915
G1 X195.596 Y22.566 E.06958
G1 X198.525 Y25.495 E.12338
G1 X199.366 Y26.893 E.0486
G1 X199.514 Y27.883 E.02981
G1 X199.514 Y36.247 E.24913
G1 X199.12 Y37.83 E.0486
G1 X198.525 Y38.635 E.02981
G1 X195.596 Y41.564 E.12338
G1 X193.475 Y42.542 E.06958
G1 X164.387 Y44.848 E.86917
G1 X160.423 Y44.858 E.11805
G1 X158.732 Y44.61 E.05092
G1 X157.45 Y44.215 E.03997
G1 X153.143 Y42.637 E.13664
G1 X150.137 Y41.181 E.09948
G1 X149.36 Y40.711 E.02705
G1 X147.216 Y39.026 E.08121
G1 X146.632 Y38.427 E.02493
G1 X145.877 Y37.431 E.0372
G1 X145.458 Y36.707 E.02493
G1 X144.48 Y34.395 E.07478
G1 X144.213 Y33.079 E.03999
G1 X144.213 Y31.051 E.06041
G1 X144.468 Y29.794 E.0382
G1 E-3.5 F3600
;WIPE_START
G1 F7200
G1 X145.458 Y27.423 E-1.22046
G1 X145.674 Y27.05 E-.20454
;WIPE_END
G1 E-.075 F3600
G1 X148.1 Y30.583 F9000
G1 E5 F2400
G1 F1200
G1 X148.685 Y29.2 E.04473
G1 X149.416 Y28.117 E.03893
G1 X151.543 Y26.373 E.08191
G1 X154.576 Y24.865 E.10091
G1 X158.755 Y23.339 E.1325
G1 X160.202 Y22.972 E.04448
G1 X162.788 Y22.967 E.07702
G1 X163.81 Y23.242 E.03152
G1 X164.732 Y23.74 E.03123
G1 X165.881 Y24.867 E.04792
G1 X166.103 Y25.241 E.01296
G1 X191.555 Y25.241 E.7581
G1 X192.692 Y25.468 E.03456
G1 X193.804 Y26.033 E.03713
G1 X194.745 Y26.893 E.03798
G1 X195.36 Y27.784 E.03227
G1 X195.756 Y28.843 E.03366
G1 X195.852 Y34.575 E.17076
G1 X195.624 Y35.73 E.03506
G1 X195.03 Y36.884 E.03865
G1 X194.156 Y37.821 E.03817
G1 X193.088 Y38.504 E.03777
G1 X191.911 Y38.853 E.03656
G1 X166.091 Y38.889 E.76908
G1 X165.831 Y39.334 E.01536
G1 X164.799 Y40.34 E.04292
G1 X163.959 Y40.824 E.02889
G1 X162.563 Y41.195 E.04301
G1 X160.5 Y41.195 E.06145
G1 X158.822 Y40.811 E.05129
G1 X154.402 Y39.191 E.14021
G1 X151.574 Y37.776 E.09419
G1 X149.719 Y36.322 E.0702
G1 X148.987 Y35.456 E.03379
G1 X148.035 Y33.304 E.07008
G1 X147.877 Y32.148 E.03477
G1 X148.091 Y30.642 E.04529
G1 X148.456 Y30.707 F9000
G1 F1200
G1 X149.025 Y29.363 E.04348
G1 X149.677 Y28.39 E.03489
G1 X151.73 Y26.701 E.07918
G1 X154.715 Y25.215 E.09932
G1 X158.875 Y23.697 E.1319
G1 X160.272 Y23.344 E.04293
G1 X162.716 Y23.338 E.0728
G1 X163.651 Y23.584 E.02879
G1 X164.529 Y24.059 E.02973
G1 X165.595 Y25.115 E.04471
G1 X165.882 Y25.618 E.01723
G1 X191.537 Y25.618 E.76417
G1 X192.545 Y25.816 E.03062
G1 X193.609 Y26.357 E.03556
G1 X194.473 Y27.155 E.03503
G1 X195.035 Y27.977 E.02968
G1 X195.391 Y28.943 E.03065
G1 X195.474 Y34.561 E.16737
G1 X195.276 Y35.583 E.03101
G1 X194.734 Y36.648 E.03557
G1 X193.931 Y37.518 E.03529
G1 X192.954 Y38.15 E.03466
G1 X191.83 Y38.484 E.03493
G1 X165.869 Y38.512 E.7733
G1 X165.546 Y39.085 E.01959
G1 X164.588 Y40.027 E.04002
G1 X163.835 Y40.467 E.02597
G1 X162.538 Y40.818 E.04003
G1 X160.522 Y40.818 E.06005
G1 X158.918 Y40.446 E.04903
G1 X154.542 Y38.84 E.13886
G1 X151.76 Y37.448 E.09268
G1 X149.993 Y36.063 E.06687
G1 X149.32 Y35.277 E.03079
G1 X148.391 Y33.177 E.06841
G1 X148.254 Y32.125 E.0316
G1 X148.448 Y30.767 E.04087
G1 X148.813 Y30.832 F9000
G1 F1200
G1 X149.366 Y29.526 E.04224
G1 X149.939 Y28.663 E.03087
G1 X151.918 Y27.029 E.07642
G1 X154.855 Y25.566 E.09773
G1 X158.995 Y24.054 E.13129
G1 X160.342 Y23.715 E.04137
G1 X162.646 Y23.709 E.06863
G1 X163.492 Y23.927 E.02603
G1 X164.325 Y24.378 E.0282
G1 X165.309 Y25.361 E.04144
G1 X165.657 Y25.995 E.02153
G1 X191.519 Y25.995 E.77035
G1 X192.4 Y26.165 E.02673
G1 X193.373 Y26.653 E.03242
G1 X194.201 Y27.417 E.03356
G1 X194.71 Y28.168 E.02703
G1 X195.025 Y29.041 E.02764
G1 X195.097 Y34.547 E.16403
G1 X194.927 Y35.438 E.02703
G1 X194.439 Y36.412 E.03243
G1 X193.67 Y37.244 E.03375
G1 X192.775 Y37.818 E.03168
G1 X191.751 Y38.115 E.03175
G1 X165.643 Y38.135 E.77767
G1 X165.26 Y38.838 E.02384
G1 X164.375 Y39.715 E.03712
G1 X163.71 Y40.111 E.02304
G1 X162.512 Y40.44 E.03701
G1 X160.544 Y40.44 E.05862
G1 X159.016 Y40.082 E.04675
G1 X154.682 Y38.49 E.13753
G1 X151.945 Y37.119 E.09117
G1 X150.265 Y35.801 E.06361
G1 X149.653 Y35.098 E.02775
G1 X148.747 Y33.05 E.0667
G1 X148.631 Y32.104 E.02839
G1 X148.805 Y30.891 E.03651
G1 X149.17 Y30.956 F9000
G1 F1200
G1 X149.706 Y29.688 E.04102
G1 X150.202 Y28.935 E.02686
G1 X152.106 Y27.357 E.07365
G1 X154.994 Y25.916 E.09613
G1 X159.115 Y24.412 E.13068
G1 X160.411 Y24.086 E.0398
G1 X162.621 Y24.086 E.06581
G1 X163.372 Y24.285 E.02316
G1 X164.119 Y24.694 E.02536
G1 X165.02 Y25.606 E.03818
G1 X165.429 Y26.372 E.02586
G1 X191.502 Y26.372 E.77662
G1 X192.255 Y26.514 E.02284
G1 X193.18 Y26.977 E.0308
G1 X193.927 Y27.676 E.03049
G1 X194.383 Y28.358 E.02441
G1 X194.66 Y29.137 E.02464
G1 X194.72 Y34.533 E.16074
G1 X194.577 Y35.293 E.02304
G1 X194.114 Y36.218 E.0308
G1 X193.412 Y36.968 E.0306
G1 X192.597 Y37.484 E.02873
G1 X191.674 Y37.745 E.02857
G1 X165.414 Y37.758 E.78219
G1 X164.972 Y38.593 E.02812
G1 X164.159 Y39.405 E.03425
G1 X163.582 Y39.755 E.0201
G1 X162.486 Y40.063 E.03392
G1 X160.566 Y40.063 E.05717
G1 X159.115 Y39.717 E.04445
G1 X154.822 Y38.14 E.13623
G1 X152.131 Y36.79 E.08965
G1 X150.535 Y35.538 E.06044
G1 X149.986 Y34.918 E.02466
G1 X149.104 Y32.925 E.06493
G1 X149.008 Y32.086 E.02513
G1 X149.161 Y31.016 E.03222
G1 X149.527 Y31.081 F9000
G1 F1200
G1 X150.048 Y29.85 E.03982
G1 X150.466 Y29.206 E.02287
G1 X152.294 Y27.684 E.07085
G1 X155.133 Y26.267 E.09453
G1 X159.235 Y24.77 E.13007
G1 X160.48 Y24.458 E.03823
G1 X162.55 Y24.457 E.06166
G1 X163.215 Y24.629 E.02047
G1 X163.871 Y24.98 E.02216
G1 X164.731 Y25.85 E.03644
G1 X165.088 Y26.536 E.02303
G1 X165.155 Y26.749 E.00665
G1 X191.485 Y26.749 E.78427
G1 X192.113 Y26.864 E.01902
G1 X192.943 Y27.272 E.02754
G1 X193.653 Y27.936 E.02895
G1 X194.054 Y28.545 E.02171
G1 X194.293 Y29.231 E.02165
G1 X194.343 Y34.519 E.15752
G1 X194.227 Y35.152 E.01916
G1 X193.819 Y35.981 E.02754
G1 X193.154 Y36.692 E.029
G1 X192.422 Y37.149 E.0257
G1 X191.599 Y37.374 E.02541
G1 X165.183 Y37.381 E.78685
G1 X164.683 Y38.349 E.03244
G1 X163.941 Y39.097 E.03141
G1 X163.451 Y39.4 E.01715
G1 X162.459 Y39.686 E.03077
G1 X160.589 Y39.686 E.05568
G1 X159.214 Y39.354 E.04214
G1 X154.962 Y37.79 E.13495
G1 X152.318 Y36.462 E.08814
G1 X150.803 Y35.272 E.05736
G1 X150.318 Y34.737 E.02152
G1 X149.461 Y32.8 E.06309
G1 X149.386 Y32.071 E.02182
G1 X149.518 Y31.14 E.02802
G1 X149.884 Y31.204 F9000
G1 F1200
G1 X150.389 Y30.01 E.0386
G1 X150.73 Y29.476 E.01889
G1 X152.482 Y28.012 E.06801
G1 X155.273 Y26.618 E.09291
G1 X159.355 Y25.127 E.12945
G1 X160.549 Y24.829 E.03664
G1 X162.525 Y24.834 E.05887
G1 X163.061 Y24.973 E.0165
G1 X163.625 Y25.267 E.01893
G1 X164.442 Y26.093 E.03462
G1 X164.741 Y26.685 E.01976
G1 X164.863 Y27.126 E.01362
G1 X191.469 Y27.126 E.79251
G1 X191.971 Y27.215 E.01519
G1 X192.75 Y27.598 E.02585
G1 X193.377 Y28.194 E.02578
G1 X193.706 Y28.691 E.01775
G1 X193.927 Y29.326 E.02002
G1 X193.965 Y34.505 E.15429
G1 X193.877 Y35.01 E.01526
G1 X193.494 Y35.789 E.02585
G1 X192.898 Y36.415 E.02576
G1 X192.296 Y36.792 E.02117
G1 X191.524 Y37.004 E.02383
G1 X164.846 Y37.004 E.79466
G1 X164.765 Y37.377 E.01136
G1 X164.395 Y38.104 E.02432
G1 X163.69 Y38.815 E.0298
G1 X163.278 Y39.065 E.01436
G1 X162.432 Y39.309 E.02623
G1 X160.612 Y39.309 E.05421
G1 X159.335 Y38.996 E.03918
G1 X155.121 Y37.448 E.13371
G1 X152.535 Y36.154 E.08613
G1 X151.049 Y34.986 E.0563
G1 X150.619 Y34.508 E.01915
G1 X149.819 Y32.677 E.05952
G1 X149.762 Y32.1 E.01726
G1 X149.876 Y31.263 E.02516
G1 X150.242 Y31.327 F9000
G1 F1200
G1 X150.73 Y30.173 E.03732
G1 X151.031 Y29.705 E.01657
G1 X152.706 Y28.316 E.06481
G1 X155.412 Y26.968 E.09005
G1 X159.476 Y25.485 E.12887
G1 X160.572 Y25.206 E.03368
G1 X162.5 Y25.211 E.05743
G1 X162.91 Y25.319 E.01264
G1 X163.381 Y25.557 E.01572
G1 X164.119 Y26.291 E.03101
G1 X164.395 Y26.837 E.01821
G1 X164.477 Y27.148 E.00959
G1 X164.493 Y27.503 E.01059
G1 X191.454 Y27.503 E.80308
G1 X191.834 Y27.567 E.01147
G1 X192.512 Y27.892 E.02241
G1 X193.101 Y28.452 E.02419
G1 X193.376 Y28.875 E.01506
G1 X193.56 Y29.417 E.01703
G1 X193.588 Y34.492 E.15116
G1 X193.525 Y34.872 E.0115
G1 X193.2 Y35.551 E.02241
G1 X192.641 Y36.138 E.02415
G1 X192.166 Y36.437 E.01672
G1 X191.497 Y36.627 E.0207
G1 X164.529 Y36.627 E.80329
G1 X164.414 Y37.236 E.01846
G1 X164.105 Y37.861 E.02078
G1 X163.44 Y38.531 E.02811
G1 X163.107 Y38.728 E.01151
G1 X162.405 Y38.932 E.02179
G1 X160.635 Y38.932 E.05271
G1 X159.455 Y38.639 E.03622
G1 X155.28 Y37.106 E.13249
G1 X152.753 Y35.845 E.08411
G1 X151.296 Y34.7 E.05521
G1 X150.921 Y34.28 E.01677
G1 X150.19 Y32.608 E.05435
G1 X150.139 Y32.125 E.01446
G1 X150.234 Y31.386 E.02219
G1 X150.6 Y31.448 F9000
G1 F1200
G1 X151.07 Y30.335 E.03599
G1 X151.331 Y29.935 E.01421
G1 X152.928 Y28.621 E.06162
G1 X155.551 Y27.319 E.08721
G1 X159.597 Y25.842 E.1283
G1 X160.595 Y25.583 E.03072
G1 X162.474 Y25.588 E.05595
G1 X162.757 Y25.664 E.00874
G1 X163.183 Y25.879 E.01422
G1 X163.829 Y26.533 E.02737
G1 X164.035 Y26.95 E.01386
G1 X164.106 Y27.22 E.00829
G1 X164.118 Y27.88 E.01968
G1 X191.441 Y27.88 E.81388
G1 X191.697 Y27.92 E.00772
G1 X192.321 Y28.218 E.02059
G1 X192.821 Y28.705 E.02079
G1 X193.045 Y29.057 E.01242
G1 X193.192 Y29.505 E.01407
G1 X193.211 Y34.48 E.14817
G1 X193.172 Y34.736 E.00772
G1 X192.873 Y35.359 E.02059
G1 X192.387 Y35.859 E.02079
G1 X192.033 Y36.084 E.01248
G1 X191.469 Y36.25 E.0175
G1 X164.119 Y36.25 E.81468
G1 X164.12 Y36.781 E.01582
G1 X164.064 Y37.093 E.00945
G1 X163.781 Y37.665 E.01899
G1 X163.195 Y38.244 E.02455
G1 X162.941 Y38.389 E.00871
G1 X162.378 Y38.555 E.01748
G1 X160.659 Y38.555 E.05119
G1 X159.576 Y38.281 E.03327
G1 X155.439 Y36.763 E.13128
G1 X152.971 Y35.537 E.08208
G1 X151.542 Y34.415 E.05411
G1 X151.223 Y34.053 E.01436
G1 X150.561 Y32.536 E.04931
G1 X150.516 Y32.146 E.01168
G1 X150.592 Y31.508 E.01915
G1 X150.958 Y31.569 F9000
G1 F1200
G1 X151.411 Y30.499 E.03461
G1 X151.629 Y30.168 E.01181
G1 X153.15 Y28.927 E.05846
G1 X155.69 Y27.67 E.08442
G1 X159.718 Y26.199 E.12775
G1 X160.621 Y25.96 E.02779
G1 X162.405 Y25.96 E.05315
G1 X162.607 Y26.011 E.0062
G1 X162.984 Y26.201 E.01259
G1 X163.534 Y26.771 E.02357
G1 X163.685 Y27.092 E.01057
G1 X163.734 Y27.288 E.00602
G1 X163.741 Y28.257 E.02889
G1 X191.425 Y28.257 E.82462
G1 X191.608 Y28.287 E.0055
G1 X192.124 Y28.541 E.01716
G1 X192.54 Y28.957 E.01749
G1 X192.694 Y29.197 E.00853
G1 X192.825 Y29.595 E.01245
G1 X192.834 Y34.464 E.14505
G1 X192.805 Y34.646 E.0055
G1 X192.55 Y35.163 E.01716
G1 X192.135 Y35.578 E.01749
G1 X191.896 Y35.732 E.00848
G1 X191.44 Y35.873 E.01421
G1 X163.741 Y35.873 E.82506
G1 X163.743 Y36.763 E.02652
G1 X163.699 Y36.995 E.00704
G1 X163.46 Y37.466 E.01571
G1 X162.983 Y37.932 E.01988
G1 X162.806 Y38.037 E.00612
G1 X162.348 Y38.178 E.01427
G1 X160.683 Y38.178 E.04958
G1 X159.698 Y37.924 E.03032
G1 X155.597 Y36.421 E.13011
G1 X153.188 Y35.228 E.08005
G1 X151.79 Y34.129 E.05298
G1 X151.527 Y33.828 E.01191
G1 X150.931 Y32.46 E.04444
G1 X150.893 Y32.163 E.00893
G1 X150.951 Y31.629 E.01601
G1 X151.317 Y31.688 F9000
G1 F1200
G1 X151.751 Y30.663 E.03316
G1 X151.926 Y30.402 E.00935
G1 X153.37 Y29.234 E.05535
G1 X155.828 Y28.02 E.08165
G1 X159.841 Y26.556 E.12723
G1 X160.647 Y26.337 E.02489
G1 X162.343 Y26.332 E.05052
G1 X162.459 Y26.359 E.00354
G1 X162.786 Y26.524 E.01091
G1 X163.206 Y26.959 E.01801
G1 X163.335 Y27.233 E.00901
G1 X163.362 Y27.35 E.00359
G1 X163.363 Y28.634 E.03826
G1 X191.408 Y28.634 E.83535
G1 X191.516 Y28.653 E.00327
G1 X191.88 Y28.831 E.01206
G1 X192.26 Y29.21 E.01598
G1 X192.344 Y29.339 E.0046
G1 X192.457 Y29.683 E.01079
G1 X192.457 Y34.446 E.14187
G1 X192.438 Y34.555 E.00327
G1 X192.261 Y34.919 E.01206
G1 X191.882 Y35.298 E.01598
G1 X191.752 Y35.383 E.0046
G1 X191.408 Y35.496 E.01079
G1 X163.363 Y35.496 E.83537
G1 X163.366 Y36.749 E.03734
G1 X163.347 Y36.858 E.00328
G1 X163.17 Y37.222 E.01206
G1 X162.764 Y37.624 E.01704
G1 X162.663 Y37.687 E.00353
G1 X162.316 Y37.801 E.01088
G1 X160.708 Y37.801 E.0479
G1 X159.819 Y37.567 E.02737
G1 X155.754 Y36.078 E.12896
G1 X153.406 Y34.919 E.078
G1 X152.038 Y33.845 E.05181
G1 X151.832 Y33.605 E.00942
G1 X151.301 Y32.38 E.03977
G1 X151.271 Y32.173 E.00622
G1 X151.311 Y31.748 E.01273
G1 X151.677 Y31.805 F9000
G1 F1200
G1 X152.09 Y30.828 E.0316
G1 X152.22 Y30.639 E.00682
G1 X153.59 Y29.541 E.0523
G1 X155.967 Y28.371 E.07893
G1 X159.964 Y26.912 E.12673
G1 X160.675 Y26.714 E.022
G1 X162.293 Y26.706 E.04819
G1 X162.546 Y26.816 E.00821
G1 X162.879 Y27.15 E.01408
G1 X162.982 Y27.369 E.0072
G1 X162.985 Y29.011 E.04892
G1 X191.419 Y29.018 E.84696
G1 X191.637 Y29.121 E.00719
G1 X191.981 Y29.464 E.01446
G1 X192.08 Y29.719 E.00814
G1 X192.08 Y34.426 E.14021
G1 X191.971 Y34.676 E.00814
G1 X191.627 Y35.019 E.01446
G1 X191.373 Y35.119 E.00814
G1 X162.985 Y35.119 E.84558
G1 X162.988 Y36.729 E.04798
G1 X162.879 Y36.98 E.00815
G1 X162.536 Y37.324 E.01448
G1 X162.281 Y37.424 E.00815
G1 X160.734 Y37.424 E.0461
G1 X159.942 Y37.211 E.02442
G1 X155.911 Y35.735 E.12784
G1 X153.623 Y34.61 E.07595
G1 X152.287 Y33.561 E.0506
G1 X152.139 Y33.385 E.00685
G1 X151.668 Y32.294 E.0354
G1 X151.648 Y32.176 E.00356
G1 X151.672 Y31.865 E.00928
G1 X152.038 Y31.919 F9000
G1 F1200
G1 X152.429 Y30.995 E.02988
G1 X152.51 Y30.881 E.00419
G1 X153.808 Y29.849 E.04938
G1 X156.106 Y28.722 E.07623
G1 X160.075 Y27.272 E.12587
G1 X160.704 Y27.091 E.0195
G1 X162.238 Y27.083 E.0457
G1 X162.308 Y27.112 E.00225
G1 X162.583 Y27.387 E.01157
G1 X162.611 Y27.456 E.00224
G1 X162.607 Y29.389 E.05755
G1 X191.331 Y29.389 E.85559
G1 X191.4 Y29.417 E.00223
G1 X191.674 Y29.691 E.01154
G1 X191.703 Y29.76 E.00223
G1 X191.703 Y34.37 E.13729
G1 X191.674 Y34.439 E.00223
G1 X191.4 Y34.713 E.01154
G1 X191.331 Y34.741 E.00223
G1 X162.607 Y34.741 E.85559
G1 X162.611 Y36.674 E.05756
G1 X162.583 Y36.743 E.00224
G1 X162.309 Y37.018 E.01156
G1 X162.239 Y37.047 E.00224
G1 X160.76 Y37.047 E.04407
G1 X160.065 Y36.854 E.02148
G1 X156.069 Y35.392 E.12674
G1 X153.808 Y34.281 E.07505
G1 X152.539 Y33.279 E.04816
G1 X152.45 Y33.169 E.00421
G1 X152.032 Y32.197 E.03152
G1 X152.035 Y31.979 E.00649
G1 X152.402 Y32.027 F9000
G1 F1200
G1 X152.794 Y31.129 E.02917
G1 X153.992 Y30.179 E.04556
G1 X156.245 Y29.073 E.07474
G1 X160.19 Y27.632 E.12511
G1 X160.734 Y27.468 E.01693
G1 X162.124 Y27.461 E.04139
G1 X162.234 Y27.571 E.00465
G1 X162.229 Y29.766 E.06537
G1 X191.215 Y29.766 E.86341
G1 X191.326 Y29.876 E.00465
G1 X191.326 Y34.254 E.1304
G1 X191.215 Y34.364 E.00465
G1 X162.229 Y34.364 E.86341
G1 X162.234 Y36.559 E.06537
