; generated by PrusaSlicer 2.4.0+win64 on 2022-03-07 at 08:33:15 UTC

; 

; external perimeters extrusion width = 0.45mm
; perimeters extrusion width = 0.45mm
; infill extrusion width = 0.45mm
; solid infill extrusion width = 0.45mm
; top infill extrusion width = 0.45mm
; first layer extrusion width = 0.42mm

M201 X500 Y500 Z100 E5000 ; sets maximum accelerations, mm/sec^2
M203 X500 Y500 Z10 E60 ; sets maximum feedrates, mm/sec
M204 P500 R1000 T500 ; sets acceleration (P, T) and retract acceleration (R), mm/sec^2
M205 X8.00 Y8.00 Z0.40 E5.00 ; sets the jerk limits, mm/sec
M205 S0 T0 ; sets the minimum extruding and travel feed rate, mm/sec
M107
;TYPE:Custom
G90 ; use absolute coordinates
M83 ; extruder relative mode
M140 S80 ; set final bed temp
M104 S150 ; set temporary nozzle temp to prevent oozing during homing
G4 S10 ; allow partial nozzle warmup
G28 ; home all axis
G1 Z50 F240
G1 X2 Y10 F3000
M104 S235 ; set final nozzle temp
M190 S80 ; wait for bed temp to stabilize
M109 S235 ; wait for nozzle temp to stabilize
G1 Z0.28 F240
G92 E0
G1 Y140 E10 F1500 ; prime the nozzle
G1 X2.3 F5000
G92 E0
G1 Y10 E10 F1200 ; prime the nozzle
G92 E0
G21 ; set units to millimeters
G90 ; use absolute coordinates
M83 ; use relative distances for extrusion
; Filament gcode
M107
;LAYER_CHANGE
;Z:0.2
;HEIGHT:0.2
;BEFORE_LAYER_CHANGE
G92 E0
;0.2


G1 E-5 F3600
G1 Z.1 F9000
;AFTER_LAYER_CHANGE
;0.2
G1 X84.333 Y93.373
G1 E5 F2400
M204 S500
;TYPE:Skirt/Brim
;WIDTH:0.42
G1 F1200
G1 X85.731 Y92.532 E.0486
G1 X86.721 Y92.384 E.02981
G1 X133.279 Y92.384 E1.38683
G1 X134.863 Y92.778 E.0486
G1 X135.667 Y93.373 E.02981
G1 X138.596 Y96.302 E.12338
G1 X139.437 Y97.7 E.0486
G1 X139.585 Y98.69 E.02981
G1 X139.585 Y121.31 E.67377
G1 X139.191 Y122.893 E.0486
G1 X138.596 Y123.698 E.02981
G1 X135.667 Y126.627 E.12338
G1 X134.269 Y127.468 E.0486
G1 X133.279 Y127.616 E.02981
G1 X86.721 Y127.616 E1.38683
G1 X85.137 Y127.222 E.0486
G1 X84.333 Y126.627 E.02981
G1 X81.404 Y123.698 E.12338
G1 X80.563 Y122.3 E.0486
G1 X80.415 Y121.31 E.02981
G1 X80.415 Y98.69 E.67377
G1 X80.809 Y97.107 E.0486
G1 X81.404 Y96.302 E.02981
G1 X84.29 Y93.416 E.12159
G1 E-3.5 F3600
;WIPE_START
G1 F7200
G1 X85.731 Y92.532 E-.80263
G1 X86.721 Y92.384 E-.47543
G1 X87.03 Y92.384 E-.14695
;WIPE_END
G1 E-.075 F3600
G1 X86.527 Y96.583 F9000
G1 E5 F2400
G1 F1200
G1 X88.265 Y96.048 E.05415
G1 X131.695 Y96.051 E1.29364
G1 X132.643 Y96.235 E.02877
G1 X133.551 Y96.626 E.02946
G1 X134.77 Y97.65 E.04741
G1 X135.561 Y98.867 E.04324
G1 X135.922 Y100.253 E.04266
G1 X135.899 Y111.775 E.34321
G1 X135.616 Y112.875 E.03383
G1 X135.247 Y113.612 E.02453
G1 X134.961 Y113.958 E.01339
G1 X135.207 Y114.261 E.01161
G1 X135.759 Y115.449 E.03903
G1 X135.902 Y116.222 E.02342
G1 X135.876 Y120.061 E.11435
G1 X135.546 Y121.17 E.03446
G1 X135.063 Y121.997 E.02853
G1 X134.26 Y122.856 E.03502
G1 X133.473 Y123.417 E.0288
G1 X131.736 Y123.952 E.05414
G1 X88.282 Y123.952 E1.29434
G1 X87.059 Y123.654 E.0375
G1 X86.242 Y123.245 E.0272
G1 X85.205 Y122.322 E.04137
G1 X84.616 Y121.508 E.02991
G1 X84.078 Y119.761 E.05448
G1 X84.108 Y107.41 E.3679
G1 X84.421 Y106.256 E.03562
G1 X84.798 Y105.546 E.02393
G1 X85.04 Y105.261 E.01115
G1 X84.768 Y104.935 E.01265
G1 X84.416 Y104.257 E.02275
G1 X84.161 Y103.469 E.02468
G1 X84.123 Y99.956 E.10463
G1 X84.453 Y98.832 E.03491
G1 X84.937 Y98.003 E.02858
G1 X85.74 Y97.144 E.03503
G1 X86.478 Y96.618 E.02701
G1 X86.696 Y96.925 F9000
G1 F1200
G1 X88.293 Y96.425 E.04983
G1 X131.676 Y96.428 E1.29224
G1 X132.549 Y96.601 E.02652
G1 X133.375 Y96.96 E.02682
G1 X134.505 Y97.919 E.04415
G1 X135.205 Y98.993 E.03818
G1 X135.545 Y100.277 E.03957
G1 X135.522 Y111.751 E.34175
G1 X135.27 Y112.724 E.02995
G1 X134.921 Y113.421 E.02321
G1 X134.46 Y113.959 E.02112
G1 X134.877 Y114.445 E.01907
G1 X135.406 Y115.585 E.03743
G1 X135.527 Y116.27 E.02072
G1 X135.499 Y120.03 E.11201
G1 X135.192 Y121.037 E.03137
G1 X134.75 Y121.787 E.02592
G1 X133.999 Y122.583 E.0326
G1 X133.28 Y123.092 E.02625
G1 X131.707 Y123.575 E.04899
G1 X88.305 Y123.575 E1.2928
G1 X87.171 Y123.294 E.03481
G1 X86.436 Y122.921 E.02456
G1 X85.473 Y122.056 E.03856
G1 X84.941 Y121.314 E.02719
G1 X84.455 Y119.733 E.04926
G1 X84.485 Y107.436 E.3663
G1 X84.764 Y106.414 E.03154
G1 X85.12 Y105.745 E.02258
G1 X85.547 Y105.264 E.01916
G1 X85.091 Y104.74 E.02067
G1 X84.758 Y104.098 E.02155
G1 X84.529 Y103.381 E.0224
G1 X84.5 Y99.982 E.10125
G1 X84.807 Y98.964 E.03169
G1 X85.25 Y98.213 E.02595
G1 X86.001 Y97.417 E.0326
G1 X86.647 Y96.96 E.02358
G1 X86.864 Y97.268 F9000
G1 F1200
G1 X86.912 Y97.234 E.00177
G1 X88.321 Y96.802 E.04388
G1 X131.657 Y96.805 E1.29083
G1 X132.454 Y96.966 E.02422
G1 X133.197 Y97.294 E.02417
G1 X134.238 Y98.187 E.04087
G1 X134.871 Y99.171 E.03486
G1 X135.168 Y100.301 E.03478
G1 X135.145 Y111.726 E.34031
G1 X134.924 Y112.573 E.02607
G1 X134.595 Y113.229 E.02188
G1 X133.955 Y113.961 E.02897
G1 X134.547 Y114.63 E.02661
G1 X135.053 Y115.72 E.03579
G1 X135.153 Y116.315 E.01796
G1 X135.122 Y119.998 E.10972
G1 X134.84 Y120.902 E.02822
G1 X134.438 Y121.574 E.02332
G1 X133.739 Y122.309 E.03019
G1 X133.088 Y122.766 E.02371
G1 X131.679 Y123.198 E.04387
G1 X88.329 Y123.198 E1.29125
G1 X87.286 Y122.934 E.03207
G1 X86.631 Y122.597 E.02193
G1 X85.742 Y121.791 E.03576
G1 X85.266 Y121.121 E.02448
G1 X84.832 Y119.706 E.04408
G1 X84.862 Y107.462 E.36471
G1 X85.107 Y106.573 E.02747
G1 X85.441 Y105.943 E.02123
G1 X86.056 Y105.267 E.02723
G1 X85.415 Y104.544 E.02877
G1 X85.1 Y103.939 E.02033
G1 X84.897 Y103.296 E.02009
G1 X84.877 Y100.01 E.09787
G1 X85.16 Y99.098 E.02844
G1 X85.562 Y98.426 E.02334
G1 X86.261 Y97.691 E.03019
G1 X86.815 Y97.302 E.02015
G1 X87.03 Y97.611 F9000
G1 F1200
G1 X87.103 Y97.56 E.00267
G1 X88.349 Y97.179 E.0388
G1 X131.637 Y97.182 E1.28941
G1 X132.357 Y97.331 E.02189
G1 X133.017 Y97.626 E.02152
G1 X133.971 Y98.454 E.03762
G1 X134.515 Y99.298 E.02992
G1 X134.791 Y100.325 E.03169
G1 X134.768 Y111.7 E.3388
G1 X134.565 Y112.455 E.02329
G1 X134.271 Y113.036 E.01942
G1 X133.447 Y113.964 E.03696
G1 X134.218 Y114.818 E.03428
G1 X134.686 Y115.81 E.03267
G1 X134.775 Y116.329 E.01569
G1 X134.745 Y119.966 E.10833
G1 X134.488 Y120.765 E.025
G1 X134.127 Y121.36 E.02076
G1 X133.481 Y122.034 E.02779
G1 X132.897 Y122.44 E.02118
G1 X131.651 Y122.821 E.0388
G1 X88.354 Y122.821 E1.28969
G1 X87.402 Y122.574 E.02928
G1 X86.828 Y122.275 E.01929
G1 X86.012 Y121.527 E.03297
G1 X85.592 Y120.929 E.02178
G1 X85.209 Y119.679 E.03895
G1 X85.239 Y107.488 E.3631
G1 X85.45 Y106.729 E.02348
G1 X85.737 Y106.178 E.01849
G1 X86.565 Y105.267 E.03668
G1 X85.737 Y104.347 E.03686
G1 X85.455 Y103.809 E.01811
G1 X85.266 Y103.21 E.01872
G1 X85.254 Y100.039 E.09443
G1 X85.512 Y99.236 E.02514
G1 X85.873 Y98.64 E.02077
G1 X86.519 Y97.966 E.02779
G1 X86.98 Y97.646 E.01673
G1 X87.194 Y97.955 F9000
G1 F1200
G1 X87.293 Y97.887 E.00358
G1 X88.377 Y97.556 E.03376
G1 X131.618 Y97.56 E1.28801
G1 X132.222 Y97.684 E.01836
G1 X132.836 Y97.958 E.02005
G1 X133.701 Y98.718 E.03428
G1 X134.181 Y99.475 E.02669
G1 X134.414 Y100.349 E.02696
G1 X134.391 Y111.673 E.33729
G1 X134.208 Y112.334 E.02044
G1 X133.947 Y112.841 E.01699
G1 X133.234 Y113.635 E.03178
G1 X132.782 Y113.962 E.01662
G1 X133.231 Y114.289 E.01653
G1 X133.891 Y115.007 E.02905
G1 X134.32 Y115.902 E.02956
G1 X134.398 Y116.344 E.01336
G1 X134.369 Y119.932 E.10688
G1 X134.138 Y120.623 E.0217
G1 X133.817 Y121.144 E.01824
G1 X133.223 Y121.757 E.02541
G1 X132.707 Y122.113 E.01867
G1 X131.623 Y122.444 E.03376
G1 X88.379 Y122.444 E1.28811
G1 X87.521 Y122.216 E.02644
G1 X87.028 Y121.954 E.01664
G1 X86.284 Y121.265 E.03019
G1 X85.918 Y120.739 E.0191
G1 X85.586 Y119.651 E.03386
G1 X85.616 Y107.516 E.36146
G1 X85.807 Y106.853 E.02055
G1 X86.059 Y106.377 E.01605
G1 X86.84 Y105.527 E.03439
G1 X87.221 Y105.264 E.01379
G1 X86.804 Y104.968 E.01522
G1 X86.059 Y104.149 E.03299
G1 X85.809 Y103.679 E.01586
G1 X85.634 Y103.124 E.01733
G1 X85.631 Y100.071 E.09094
G1 X85.862 Y99.377 E.02178
G1 X86.183 Y98.856 E.01824
G1 X86.777 Y98.243 E.02541
G1 X87.144 Y97.99 E.0133
G1 X87.356 Y98.3 F9000
G1 F1200
G1 X87.481 Y98.215 E.0045
G1 X88.405 Y97.933 E.02877
G1 X131.598 Y97.937 E1.28657
G1 X132.122 Y98.048 E.01597
G1 X132.653 Y98.289 E.01737
G1 X133.43 Y98.982 E.031
G1 X133.825 Y99.602 E.02191
G1 X134.037 Y100.375 E.02385
G1 X134.014 Y111.645 E.3357
G1 X133.851 Y112.21 E.01753
G1 X133.625 Y112.644 E.01459
G1 X132.97 Y113.365 E.02899
G1 X132.612 Y113.616 E.01304
G1 X131.804 Y113.964 E.02621
G1 X132.623 Y114.316 E.02655
G1 X132.968 Y114.56 E.01259
G1 X133.594 Y115.241 E.02757
G1 X133.954 Y115.995 E.02488
G1 X134.021 Y116.359 E.01102
G1 X133.992 Y119.897 E.10537
G1 X133.79 Y120.477 E.01831
G1 X133.509 Y120.926 E.01577
G1 X132.968 Y121.48 E.02305
G1 X132.519 Y121.785 E.01616
G1 X131.595 Y122.067 E.02877
G1 X88.405 Y122.067 E1.2865
G1 X87.643 Y121.858 E.02353
G1 X87.229 Y121.635 E.014
G1 X86.557 Y121.005 E.02743
G1 X86.246 Y120.55 E.01643
G1 X85.963 Y119.624 E.02883
G1 X85.993 Y107.546 E.35978
G1 X86.162 Y106.981 E.01755
G1 X86.379 Y106.577 E.01365
G1 X87.098 Y105.802 E.0315
G1 X87.423 Y105.59 E.01156
G1 X88.202 Y105.265 E.02513
G1 X87.394 Y104.92 E.02615
G1 X87.066 Y104.695 E.01185
G1 X86.379 Y103.949 E.03022
G1 X86.163 Y103.548 E.01355
G1 X86.003 Y103.038 E.01591
G1 X86.008 Y100.104 E.08739
G1 X86.21 Y99.523 E.01835
G1 X86.491 Y99.074 E.01577
G1 X87.032 Y98.52 E.02305
G1 X87.306 Y98.334 E.00987
G1 X87.516 Y98.646 F9000
G1 F1200
G1 X87.667 Y98.544 E.00545
G1 X88.433 Y98.31 E.02384
G1 X131.576 Y98.314 E1.28511
G1 X132.02 Y98.411 E.01352
G1 X132.468 Y98.619 E.0147
G1 X133.158 Y99.244 E.02774
G1 X133.47 Y99.732 E.01727
G1 X133.659 Y100.401 E.0207
G1 X133.645 Y111.566 E.33255
G1 X133.494 Y112.088 E.0162
G1 X133.327 Y112.411 E.01081
G1 X132.736 Y113.069 E.02636
G1 X132.413 Y113.296 E.01176
G1 X131.948 Y113.49 E.015
G1 X131.272 Y113.581 E.02032
G1 X131.121 Y113.644 E.00489
G1 X130.987 Y113.779 E.00566
G1 X130.95 Y113.964 E.00561
G1 X130.987 Y114.148 E.00561
G1 X131.121 Y114.283 E.00566
G1 X131.272 Y114.346 E.00489
G1 X131.952 Y114.438 E.02044
G1 X132.456 Y114.654 E.01631
G1 X132.706 Y114.832 E.00914
G1 X133.268 Y115.433 E.02451
G1 X133.589 Y116.093 E.02186
G1 X133.644 Y116.376 E.00859
G1 X133.615 Y119.86 E.10377
G1 X133.444 Y120.326 E.01481
G1 X133.202 Y120.706 E.0134
G1 X132.714 Y121.2 E.02071
G1 X132.333 Y121.456 E.01366
G1 X131.567 Y121.69 E.02383
G1 X88.432 Y121.69 E1.28487
G1 X87.768 Y121.502 E.02054
G1 X87.434 Y121.317 E.01136
G1 X86.833 Y120.747 E.02469
G1 X86.575 Y120.363 E.01377
G1 X86.341 Y119.597 E.02387
G1 X86.37 Y107.576 E.35805
G1 X86.516 Y107.111 E.01452
G1 X86.673 Y106.814 E.01002
G1 X87.327 Y106.103 E.02876
G1 X87.586 Y105.931 E.00927
G1 X88.052 Y105.736 E.01503
G1 X88.728 Y105.645 E.02032
G1 X88.879 Y105.583 E.00489
G1 X89.013 Y105.448 E.00566
G1 X89.05 Y105.263 E.00562
G1 X89.013 Y105.078 E.00561
G1 X88.879 Y104.943 E.00566
G1 X88.728 Y104.88 E.00489
G1 X88.052 Y104.789 E.02032
G1 X87.586 Y104.595 E.01503
G1 X87.327 Y104.422 E.00927
G1 X86.673 Y103.712 E.02876
G1 X86.515 Y103.413 E.01007
G1 X86.38 Y103.007 E.01275
G1 X86.385 Y100.14 E.0854
G1 X86.556 Y99.674 E.0148
G1 X86.798 Y99.294 E.0134
G1 X87.286 Y98.8 E.02071
G1 X87.466 Y98.679 E.00643
G1 X87.672 Y98.992 F9000
G1 F1200
G1 X87.852 Y98.874 E.00641
G1 X88.461 Y98.687 E.01897
G1 X131.554 Y98.691 E1.2836
G1 X131.914 Y98.774 E.01099
G1 X132.279 Y98.947 E.01205
G1 X132.884 Y99.504 E.02451
G1 X133.116 Y99.866 E.0128
G1 X133.282 Y100.429 E.01749
G1 X133.275 Y111.487 E.32937
G1 X133.137 Y111.964 E.01481
G1 X133.006 Y112.212 E.00835
G1 X132.471 Y112.799 E.02365
G1 X132.248 Y112.956 E.00812
G1 X131.827 Y113.132 E.01359
G1 X131.176 Y113.213 E.01954
G1 X130.907 Y113.324 E.00866
G1 X130.702 Y113.529 E.00866
G1 X130.622 Y113.678 E.00504
G1 X130.565 Y113.963 E.00866
G1 X130.622 Y114.249 E.00866
G1 X130.702 Y114.398 E.00504
G1 X130.907 Y114.603 E.00866
G1 X131.176 Y114.714 E.00866
G1 X131.829 Y114.796 E.01959
G1 X132.288 Y114.993 E.01489
G1 X132.447 Y115.106 E.00579
G1 X132.942 Y115.625 E.02138
G1 X133.237 Y116.232 E.0201
G1 X133.269 Y116.421 E.00573
G1 X133.249 Y119.763 E.09955
G1 X133.112 Y120.146 E.01209
G1 X132.919 Y120.456 E.01091
G1 X132.46 Y120.921 E.01945
G1 X132.148 Y121.126 E.01111
G1 X131.539 Y121.313 E.01897
G1 X88.46 Y121.313 E1.28319
G1 X87.897 Y121.147 E.01746
G1 X87.643 Y121.002 E.00873
G1 X87.11 Y120.49 E.022
G1 X86.904 Y120.179 E.01113
G1 X86.718 Y119.569 E.01898
G1 X86.747 Y107.609 E.35625
G1 X86.868 Y107.248 E.01134
G1 X86.994 Y107.014 E.00792
G1 X87.557 Y106.402 E.02478
G1 X87.75 Y106.271 E.00695
G1 X88.173 Y106.094 E.01364
G1 X88.824 Y106.014 E.01954
G1 X89.093 Y105.903 E.00866
G1 X89.298 Y105.697 E.00866
G1 X89.378 Y105.548 E.00504
G1 X89.435 Y105.263 E.00866
G1 X89.378 Y104.978 E.00866
G1 X89.298 Y104.829 E.00504
G1 X89.093 Y104.623 E.00866
G1 X88.824 Y104.512 E.00866
G1 X88.173 Y104.431 E.01954
G1 X87.75 Y104.254 E.01364
G1 X87.557 Y104.123 E.00695
G1 X86.994 Y103.512 E.02478
G1 X86.868 Y103.277 E.00792
G1 X86.747 Y102.916 E.01134
G1 X86.751 Y100.236 E.07984
G1 X86.888 Y99.854 E.01207
G1 X87.081 Y99.544 E.01091
G1 X87.54 Y99.079 E.01945
G1 X87.622 Y99.025 E.00292
G1 X87.825 Y99.34 F9000
G1 F1200
G1 X88.033 Y99.205 E.0074
G1 X88.489 Y99.064 E.01421
G1 X131.532 Y99.068 E1.28211
G1 X131.771 Y99.123 E.00729
G1 X132.091 Y99.274 E.01054
G1 X132.609 Y99.762 E.02121
G1 X132.765 Y100.003 E.00853
G1 X132.905 Y100.459 E.0142
G1 X132.905 Y111.408 E.32614
G1 X132.781 Y111.839 E.01336
G1 X132.688 Y112.01 E.0058
G1 X132.209 Y112.528 E.02103
G1 X132.084 Y112.616 E.00454
G1 X131.708 Y112.773 E.01215
G1 X131.11 Y112.84 E.01791
G1 X130.896 Y112.905 E.00665
G1 X130.698 Y113.011 E.00669
G1 X130.525 Y113.154 E.00669
G1 X130.382 Y113.327 E.00669
G1 X130.277 Y113.525 E.00669
G1 X130.211 Y113.74 E.00669
G1 X130.189 Y113.963 E.00669
G1 X130.211 Y114.187 E.00669
G1 X130.277 Y114.402 E.00669
G1 X130.382 Y114.6 E.00669
G1 X130.525 Y114.773 E.00669
G1 X130.698 Y114.916 E.00669
G1 X130.896 Y115.022 E.00669
G1 X131.11 Y115.087 E.00665
G1 X131.707 Y115.154 E.01788
G1 X132.117 Y115.33 E.0133
G1 X132.206 Y115.396 E.00332
G1 X132.648 Y115.862 E.01912
G1 X132.871 Y116.326 E.01532
G1 X132.892 Y116.439 E.00344
G1 X132.883 Y119.667 E.09614
G1 X132.764 Y120 E.01053
G1 X132.636 Y120.206 E.00725
G1 X132.207 Y120.64 E.01817
G1 X131.967 Y120.795 E.00851
G1 X131.511 Y120.936 E.01421
G1 X88.489 Y120.936 E1.28147
G1 X88.032 Y120.795 E.01425
G1 X87.855 Y120.69 E.00611
G1 X87.39 Y120.237 E.01936
G1 X87.235 Y119.997 E.00849
G1 X87.095 Y119.541 E.01421
G1 X87.114 Y107.7 E.35271
G1 X87.22 Y107.385 E.0099
G1 X87.312 Y107.217 E.00571
G1 X87.791 Y106.698 E.02104
G1 X87.916 Y106.611 E.00454
G1 X88.292 Y106.453 E.01215
G1 X88.89 Y106.386 E.01791
G1 X89.104 Y106.321 E.00665
G1 X89.302 Y106.215 E.00669
G1 X89.475 Y106.073 E.00669
G1 X89.618 Y105.899 E.00669
G1 X89.723 Y105.701 E.00669
G1 X89.789 Y105.486 E.00669
G1 X89.811 Y105.263 E.00669
G1 X89.789 Y105.039 E.00669
G1 X89.723 Y104.825 E.00669
G1 X89.618 Y104.626 E.00669
G1 X89.475 Y104.453 E.00669
G1 X89.302 Y104.31 E.00669
G1 X89.104 Y104.205 E.00669
G1 X88.89 Y104.14 E.00665
G1 X88.292 Y104.073 E.01791
G1 X87.916 Y103.915 E.01215
G1 X87.791 Y103.827 E.00454
G1 X87.312 Y103.309 E.02104
G1 X87.22 Y103.141 E.00571
G1 X87.114 Y102.826 E.00989
G1 X87.117 Y100.332 E.07427
G1 X87.236 Y100 E.01051
G1 X87.364 Y99.794 E.00725
G1 X87.777 Y99.376 E.01749
G1 X88.045 Y99.641 F9000
G1 F1200
G1 X88.177 Y99.554 E.00468
G1 X88.521 Y99.441 E.01079
G1 X131.51 Y99.445 E1.28051
G1 X131.627 Y99.472 E.00358
G1 X131.9 Y99.602 E.009
G1 X132.332 Y100.018 E.01786
G1 X132.415 Y100.146 E.00455
G1 X132.528 Y100.49 E.01079
G1 X132.528 Y111.378 E.32431
G1 X132.428 Y111.705 E.01018
G1 X132.373 Y111.801 E.0033
G1 X131.919 Y112.276 E.01957
G1 X131.589 Y112.414 E.01064
G1 X131.037 Y112.468 E.01651
G1 X130.751 Y112.555 E.0089
G1 X130.488 Y112.696 E.0089
G1 X130.257 Y112.886 E.0089
G1 X130.067 Y113.117 E.0089
G1 X129.926 Y113.38 E.0089
G1 X129.84 Y113.666 E.0089
G1 X129.81 Y113.963 E.0089
G1 X129.84 Y114.261 E.0089
G1 X129.926 Y114.547 E.0089
G1 X130.067 Y114.81 E.0089
G1 X130.257 Y115.041 E.0089
