; generated by PrusaSlicer 2.4.0+win64 on 2022-03-04 at 14:38:00 UTC

; 

; external perimeters extrusion width = 0.45mm
; perimeters extrusion width = 0.45mm
; infill extrusion width = 0.45mm
; solid infill extrusion width = 0.45mm
; top infill extrusion width = 0.45mm
; first layer extrusion width = 0.42mm

M201 X500 Y500 Z100 E5000 ; sets maximum accelerations, mm/sec^2
M203 X500 Y500 Z10 E60 ; sets maximum feedrates, mm/sec
M204 P500 R1000 T500 ; sets acceleration (P, T) and retract acceleration (R), mm/sec^2
M205 X8.00 Y8.00 Z0.40 E5.00 ; sets the jerk limits, mm/sec
M205 S0 T0 ; sets the minimum extruding and travel feed rate, mm/sec
M107
;TYPE:Custom
G90 ; use absolute coordinates
M83 ; extruder relative mode
M140 S80 ; set final bed temp
M104 S150 ; set temporary nozzle temp to prevent oozing during homing
G4 S10 ; allow partial nozzle warmup
G28 ; home all axis
G1 Z50 F240
G1 X2 Y10 F3000
M104 S235 ; set final nozzle temp
M190 S80 ; wait for bed temp to stabilize
M109 S235 ; wait for nozzle temp to stabilize
G1 Z0.28 F240
G92 E0
G1 Y140 E10 F1500 ; prime the nozzle
G1 X2.3 F5000
G92 E0
G1 Y10 E10 F1200 ; prime the nozzle
G92 E0
G21 ; set units to millimeters
G90 ; use absolute coordinates
M83 ; use relative distances for extrusion
; Filament gcode
M107
;LAYER_CHANGE
;Z:0.2
;HEIGHT:0.2
;BEFORE_LAYER_CHANGE
G92 E0
;0.2


G1 E-5 F3600
G1 Z.1 F9000
;AFTER_LAYER_CHANGE
;0.2
G1 X70.039 Y101.566
G1 E5 F2400
M204 S500
;TYPE:Skirt/Brim
;WIDTH:0.42
G1 F1200
G1 X71.114 Y100.884 E.03793
G1 X74.12 Y99.428 E.09948
G1 X78.521 Y97.817 E.13961
G1 X80.189 Y97.348 E.0516
G1 X81.4 Y97.207 E.03634
G1 X85.364 Y97.217 E.11807
G1 X114.452 Y99.523 E.86915
G1 X116.573 Y100.501 E.06958
G1 X119.502 Y103.43 E.12338
G1 X120.343 Y104.828 E.0486
G1 X120.492 Y105.818 E.02981
G1 X120.492 Y114.182 E.24913
G1 X120.097 Y115.765 E.0486
G1 X119.502 Y116.57 E.02981
G1 X116.573 Y119.499 E.12338
G1 X114.452 Y120.477 E.06958
G1 X85.364 Y122.783 E.86917
G1 X81.4 Y122.793 E.11805
G1 X79.709 Y122.545 E.05092
G1 X78.427 Y122.15 E.03997
G1 X74.12 Y120.572 E.13664
G1 X71.114 Y119.116 E.09948
G1 X70.337 Y118.646 E.02705
G1 X68.193 Y116.961 E.08121
G1 X67.609 Y116.362 E.02493
G1 X66.855 Y115.366 E.0372
G1 X66.435 Y114.642 E.02493
G1 X65.457 Y112.33 E.07478
G1 X65.191 Y111.014 E.03999
G1 X65.191 Y108.986 E.06041
G1 X65.457 Y107.67 E.03999
G1 X66.435 Y105.358 E.07478
G1 X66.855 Y104.634 E.02493
G1 X67.609 Y103.638 E.0372
G1 X68.193 Y103.039 E.02493
G1 X69.992 Y101.604 E.06854
G1 E-3.5 F3600
;WIPE_START
G1 F7200
G1 X71.114 Y100.884 E-.63313
G1 X72.614 Y100.157 E-.79187
;WIPE_END
G1 E-.075 F3600
G1 X72.334 Y104.461 F9000
G1 E5 F2400
G1 F1200
G1 X72.52 Y104.308 E.00717
G1 X75.553 Y102.8 E.10091
G1 X79.732 Y101.274 E.1325
G1 X81.179 Y100.907 E.04448
G1 X83.765 Y100.902 E.07702
G1 X84.787 Y101.177 E.03152
G1 X85.709 Y101.675 E.03123
G1 X86.858 Y102.802 E.04792
G1 X87.08 Y103.176 E.01296
G1 X112.532 Y103.176 E.7581
G1 X113.67 Y103.403 E.03456
G1 X114.781 Y103.968 E.03713
G1 X115.722 Y104.828 E.03798
G1 X116.337 Y105.719 E.03227
G1 X116.733 Y106.778 E.03366
G1 X116.829 Y112.51 E.17076
G1 X116.601 Y113.665 E.03506
G1 X116.007 Y114.819 E.03865
G1 X115.133 Y115.756 E.03817
G1 X114.065 Y116.439 E.03777
G1 X112.888 Y116.788 E.03656
G1 X87.068 Y116.824 E.76908
G1 X86.808 Y117.269 E.01536
G1 X85.777 Y118.275 E.04292
G1 X84.936 Y118.759 E.02889
G1 X83.54 Y119.13 E.04301
G1 X81.477 Y119.13 E.06145
G1 X79.799 Y118.746 E.05129
G1 X75.379 Y117.126 E.14021
G1 X72.551 Y115.711 E.09419
G1 X70.696 Y114.257 E.0702
G1 X69.964 Y113.391 E.03379
G1 X69.012 Y111.239 E.07008
G1 X68.854 Y110.083 E.03477
G1 X69.077 Y108.518 E.04708
G1 X69.662 Y107.135 E.04473
G1 X70.393 Y106.052 E.03893
G1 X72.287 Y104.499 E.07295
G1 X72.524 Y104.787 F9000
G1 F1200
G1 X72.707 Y104.636 E.00706
G1 X75.692 Y103.15 E.09932
G1 X79.852 Y101.632 E.1319
G1 X81.249 Y101.279 E.04293
G1 X83.693 Y101.273 E.0728
G1 X84.628 Y101.519 E.02879
G1 X85.506 Y101.994 E.02973
G1 X86.573 Y103.05 E.04471
G1 X86.859 Y103.553 E.01723
G1 X112.514 Y103.553 E.76417
G1 X113.522 Y103.751 E.03062
G1 X114.586 Y104.292 E.03556
G1 X115.45 Y105.09 E.03503
G1 X116.012 Y105.912 E.02968
G1 X116.368 Y106.878 E.03065
G1 X116.451 Y112.496 E.16737
G1 X116.253 Y113.518 E.03101
G1 X115.712 Y114.583 E.03557
G1 X114.908 Y115.453 E.03529
G1 X113.931 Y116.085 E.03466
G1 X112.807 Y116.419 E.03493
G1 X86.846 Y116.447 E.7733
G1 X86.523 Y117.02 E.01959
G1 X85.565 Y117.962 E.04002
G1 X84.812 Y118.402 E.02597
G1 X83.515 Y118.753 E.04003
G1 X81.499 Y118.753 E.06005
G1 X79.895 Y118.381 E.04903
G1 X75.519 Y116.775 E.13886
G1 X72.737 Y115.383 E.09268
G1 X70.97 Y113.998 E.06687
G1 X70.297 Y113.212 E.03079
G1 X69.368 Y111.112 E.06841
G1 X69.231 Y110.06 E.0316
G1 X69.433 Y108.642 E.04265
G1 X70.002 Y107.298 E.04348
G1 X70.654 Y106.325 E.03489
G1 X72.478 Y104.825 E.07033
G1 X72.715 Y105.112 F9000
G1 F1200
G1 X72.895 Y104.964 E.00694
G1 X75.832 Y103.501 E.09773
G1 X79.972 Y101.989 E.13129
G1 X81.319 Y101.65 E.04137
G1 X83.623 Y101.644 E.06863
G1 X84.469 Y101.862 E.02603
G1 X85.302 Y102.313 E.0282
G1 X86.286 Y103.296 E.04144
G1 X86.634 Y103.93 E.02153
G1 X112.496 Y103.93 E.77035
G1 X113.377 Y104.1 E.02673
G1 X114.35 Y104.588 E.03242
G1 X115.178 Y105.352 E.03356
G1 X115.687 Y106.103 E.02703
G1 X116.002 Y106.976 E.02764
G1 X116.074 Y112.482 E.16403
G1 X115.904 Y113.373 E.02703
G1 X115.416 Y114.347 E.03243
G1 X114.648 Y115.179 E.03375
G1 X113.752 Y115.753 E.03168
G1 X112.728 Y116.05 E.03175
G1 X86.62 Y116.07 E.77767
G1 X86.237 Y116.773 E.02384
G1 X85.352 Y117.65 E.03712
G1 X84.687 Y118.046 E.02304
G1 X83.489 Y118.375 E.03701
G1 X81.521 Y118.375 E.05862
G1 X79.993 Y118.017 E.04675
G1 X75.659 Y116.425 E.13753
G1 X72.923 Y115.054 E.09117
G1 X71.242 Y113.736 E.06361
G1 X70.631 Y113.033 E.02775
G1 X69.724 Y110.985 E.0667
G1 X69.608 Y110.039 E.02839
G1 X69.79 Y108.767 E.03829
G1 X70.343 Y107.461 E.04224
G1 X70.916 Y106.598 E.03087
G1 X72.669 Y105.151 E.0677
G1 X72.907 Y105.438 F9000
G1 F1200
G1 X73.083 Y105.292 E.00681
G1 X75.971 Y103.851 E.09613
G1 X80.092 Y102.347 E.13068
G1 X81.388 Y102.021 E.0398
G1 X83.598 Y102.021 E.06581
G1 X84.349 Y102.22 E.02316
G1 X85.096 Y102.629 E.02536
G1 X85.997 Y103.541 E.03818
G1 X86.406 Y104.307 E.02586
G1 X112.479 Y104.307 E.77662
G1 X113.232 Y104.449 E.02284
G1 X114.157 Y104.912 E.0308
G1 X114.904 Y105.611 E.03049
G1 X115.36 Y106.293 E.02441
G1 X115.637 Y107.072 E.02464
G1 X115.697 Y112.468 E.16074
G1 X115.554 Y113.228 E.02304
G1 X115.091 Y114.153 E.0308
G1 X114.39 Y114.903 E.0306
G1 X113.574 Y115.419 E.02873
G1 X112.651 Y115.68 E.02857
G1 X86.391 Y115.693 E.78219
G1 X85.949 Y116.528 E.02812
G1 X85.136 Y117.34 E.03425
G1 X84.559 Y117.69 E.0201
G1 X83.463 Y117.998 E.03392
G1 X81.543 Y117.998 E.05717
G1 X80.092 Y117.652 E.04445
G1 X75.799 Y116.075 E.13623
G1 X73.109 Y114.725 E.08965
G1 X71.512 Y113.473 E.06044
G1 X70.963 Y112.853 E.02466
G1 X70.081 Y110.86 E.06493
G1 X69.985 Y110.021 E.02513
G1 X70.147 Y108.891 E.03401
G1 X70.684 Y107.623 E.04102
G1 X71.179 Y106.87 E.02686
G1 X72.861 Y105.476 E.06506
G1 X73.099 Y105.762 F9000
G1 F1200
G1 X73.271 Y105.619 E.00666
G1 X76.11 Y104.202 E.09453
G1 X80.212 Y102.705 E.13007
G1 X81.457 Y102.393 E.03823
G1 X83.527 Y102.392 E.06166
G1 X84.193 Y102.564 E.02047
G1 X84.848 Y102.915 E.02216
G1 X85.708 Y103.785 E.03644
G1 X86.065 Y104.471 E.02303
G1 X86.132 Y104.684 E.00665
G1 X112.462 Y104.684 E.78427
G1 X113.09 Y104.799 E.01902
G1 X113.92 Y105.207 E.02754
G1 X114.63 Y105.871 E.02895
G1 X115.031 Y106.48 E.02171
G1 X115.27 Y107.166 E.02165
G1 X115.32 Y112.454 E.15752
G1 X115.204 Y113.087 E.01916
G1 X114.796 Y113.916 E.02754
G1 X114.131 Y114.627 E.029
G1 X113.399 Y115.084 E.0257
G1 X112.577 Y115.309 E.02541
G1 X86.16 Y115.316 E.78685
G1 X85.661 Y116.284 E.03244
G1 X84.918 Y117.032 E.03141
G1 X84.428 Y117.335 E.01715
G1 X83.436 Y117.621 E.03077
G1 X81.566 Y117.621 E.05568
G1 X80.191 Y117.289 E.04214
G1 X75.939 Y115.725 E.13495
G1 X73.295 Y114.397 E.08814
G1 X71.78 Y113.207 E.05736
G1 X71.295 Y112.672 E.02152
G1 X70.438 Y110.735 E.06309
G1 X70.363 Y110.006 E.02182
G1 X70.504 Y109.016 E.02981
G1 X71.025 Y107.785 E.03982
G1 X71.443 Y107.141 E.02287
G1 X73.053 Y105.801 E.0624
G1 X73.292 Y106.087 F9000
G1 F1200
G1 X73.459 Y105.947 E.0065
G1 X76.25 Y104.553 E.09291
G1 X80.332 Y103.062 E.12945
G1 X81.526 Y102.764 E.03664
G1 X83.502 Y102.769 E.05887
G1 X84.038 Y102.908 E.0165
G1 X84.602 Y103.202 E.01893
G1 X85.419 Y104.028 E.03462
G1 X85.718 Y104.62 E.01976
G1 X85.84 Y105.061 E.01362
G1 X112.446 Y105.061 E.79251
G1 X112.948 Y105.15 E.01519
G1 X113.727 Y105.533 E.02585
G1 X114.354 Y106.129 E.02578
G1 X114.683 Y106.626 E.01775
G1 X114.904 Y107.261 E.02002
G1 X114.943 Y112.44 E.15429
G1 X114.854 Y112.945 E.01526
G1 X114.471 Y113.724 E.02585
G1 X113.875 Y114.35 E.02576
G1 X113.273 Y114.727 E.02117
G1 X112.501 Y114.939 E.02383
G1 X85.823 Y114.939 E.79466
G1 X85.742 Y115.312 E.01136
G1 X85.372 Y116.039 E.02432
G1 X84.667 Y116.75 E.0298
G1 X84.255 Y117 E.01436
G1 X83.409 Y117.244 E.02623
G1 X81.589 Y117.244 E.05421
G1 X80.312 Y116.931 E.03918
G1 X76.098 Y115.383 E.13371
G1 X73.513 Y114.089 E.08613
G1 X72.026 Y112.921 E.0563
G1 X71.596 Y112.443 E.01915
G1 X70.796 Y110.612 E.05952
G1 X70.739 Y110.035 E.01726
G1 X70.861 Y109.139 E.02695
G1 X71.366 Y107.945 E.0386
G1 X71.707 Y107.411 E.01889
G1 X73.246 Y106.125 E.05972
G1 X73.486 Y106.415 F9000
G1 F1200
G1 X73.683 Y106.251 E.00763
G1 X76.389 Y104.903 E.09005
G1 X80.453 Y103.42 E.12887
G1 X81.549 Y103.141 E.03368
G1 X83.477 Y103.146 E.05743
G1 X83.887 Y103.254 E.01264
G1 X84.358 Y103.492 E.01572
G1 X85.096 Y104.226 E.03101
G1 X85.372 Y104.772 E.01821
G1 X85.454 Y105.083 E.00959
G1 X85.47 Y105.438 E.01059
G1 X112.431 Y105.438 E.80308
G1 X112.811 Y105.502 E.01147
G1 X113.489 Y105.827 E.02241
G1 X114.078 Y106.387 E.02419
G1 X114.354 Y106.81 E.01506
G1 X114.537 Y107.352 E.01703
G1 X114.565 Y112.427 E.15116
G1 X114.502 Y112.807 E.0115
G1 X114.177 Y113.486 E.02241
G1 X113.618 Y114.073 E.02415
G1 X113.143 Y114.372 E.01672
G1 X112.474 Y114.562 E.0207
G1 X85.506 Y114.562 E.80329
G1 X85.391 Y115.171 E.01846
G1 X85.082 Y115.796 E.02078
G1 X84.417 Y116.466 E.02811
G1 X84.085 Y116.663 E.01151
G1 X83.382 Y116.867 E.02179
G1 X81.613 Y116.867 E.05271
G1 X80.432 Y116.574 E.03622
G1 X76.257 Y115.041 E.13249
G1 X73.73 Y113.78 E.08411
G1 X72.273 Y112.635 E.05521
G1 X71.898 Y112.215 E.01677
G1 X71.167 Y110.543 E.05435
G1 X71.116 Y110.06 E.01446
G1 X71.219 Y109.262 E.02398
G1 X71.707 Y108.108 E.03732
G1 X72.008 Y107.64 E.01657
G1 X73.44 Y106.453 E.05539
G1 X73.678 Y106.743 F9000
G1 F1200
G1 X73.905 Y106.556 E.00876
G1 X76.528 Y105.254 E.08721
G1 X80.574 Y103.777 E.1283
G1 X81.572 Y103.518 E.03072
G1 X83.451 Y103.523 E.05595
G1 X83.734 Y103.599 E.00874
G1 X84.16 Y103.814 E.01422
G1 X84.806 Y104.468 E.02737
G1 X85.012 Y104.885 E.01386
G1 X85.083 Y105.155 E.00829
G1 X85.095 Y105.815 E.01968
G1 X112.418 Y105.815 E.81388
G1 X112.674 Y105.855 E.00772
G1 X113.298 Y106.153 E.02059
G1 X113.798 Y106.64 E.02079
G1 X114.022 Y106.992 E.01242
G1 X114.169 Y107.44 E.01407
G1 X114.188 Y112.415 E.14817
G1 X114.149 Y112.671 E.00772
G1 X113.85 Y113.294 E.02059
G1 X113.364 Y113.794 E.02079
G1 X113.01 Y114.019 E.01248
G1 X112.446 Y114.185 E.0175
G1 X85.096 Y114.185 E.81468
G1 X85.097 Y114.716 E.01582
G1 X85.041 Y115.028 E.00945
G1 X84.758 Y115.6 E.01899
G1 X84.172 Y116.179 E.02455
G1 X83.918 Y116.324 E.00871
G1 X83.355 Y116.49 E.01748
G1 X81.636 Y116.49 E.05119
G1 X80.553 Y116.216 E.03327
G1 X76.416 Y114.698 E.13128
G1 X73.948 Y113.472 E.08208
G1 X72.519 Y112.35 E.05411
G1 X72.201 Y111.988 E.01436
G1 X71.538 Y110.471 E.04931
G1 X71.493 Y110.081 E.01168
G1 X71.577 Y109.383 E.02094
G1 X72.047 Y108.27 E.03599
G1 X72.308 Y107.87 E.01421
G1 X73.632 Y106.781 E.05107
G1 X73.869 Y107.072 F9000
G1 F1200
G1 X74.127 Y106.862 E.0099
G1 X76.667 Y105.605 E.08442
G1 X80.696 Y104.134 E.12775
G1 X81.598 Y103.895 E.02779
G1 X83.382 Y103.895 E.05315
G1 X83.584 Y103.946 E.0062
G1 X83.961 Y104.136 E.01259
G1 X84.511 Y104.706 E.02357
G1 X84.662 Y105.027 E.01057
G1 X84.711 Y105.223 E.00602
G1 X84.718 Y106.192 E.02889
G1 X112.402 Y106.192 E.82462
G1 X112.585 Y106.222 E.0055
G1 X113.101 Y106.476 E.01716
G1 X113.517 Y106.892 E.01749
G1 X113.671 Y107.132 E.00853
G1 X113.802 Y107.53 E.01245
G1 X113.811 Y112.399 E.14505
G1 X113.782 Y112.581 E.0055
G1 X113.527 Y113.098 E.01716
G1 X113.112 Y113.513 E.01749
G1 X112.873 Y113.667 E.00848
G1 X112.417 Y113.808 E.01421
G1 X84.718 Y113.808 E.82506
G1 X84.72 Y114.698 E.02652
G1 X84.676 Y114.93 E.00704
G1 X84.437 Y115.401 E.01571
G1 X83.96 Y115.867 E.01988
G1 X83.783 Y115.972 E.00612
G1 X83.325 Y116.113 E.01427
G1 X81.66 Y116.113 E.04958
G1 X80.675 Y115.859 E.03032
G1 X76.574 Y114.356 E.13011
G1 X74.165 Y113.163 E.08005
G1 X72.767 Y112.064 E.05298
G1 X72.504 Y111.763 E.01191
G1 X71.909 Y110.395 E.04444
G1 X71.87 Y110.098 E.00893
G1 X71.935 Y109.504 E.01779
G1 X72.388 Y108.434 E.03461
G1 X72.606 Y108.103 E.01181
G1 X73.823 Y107.11 E.04678
G1 X74.059 Y107.402 F9000
G1 F1200
G1 X74.347 Y107.169 E.01105
G1 X76.805 Y105.955 E.08165
G1 X80.818 Y104.491 E.12723
G1 X81.624 Y104.272 E.02489
G1 X83.32 Y104.267 E.05052
G1 X83.436 Y104.294 E.00354
G1 X83.763 Y104.459 E.01091
G1 X84.183 Y104.894 E.01801
G1 X84.312 Y105.168 E.00901
G1 X84.339 Y105.285 E.00359
G1 X84.34 Y106.569 E.03826
G1 X112.385 Y106.569 E.83535
G1 X112.493 Y106.588 E.00327
G1 X112.857 Y106.766 E.01206
G1 X113.237 Y107.145 E.01598
G1 X113.321 Y107.274 E.0046
G1 X113.434 Y107.618 E.01079
G1 X113.434 Y112.381 E.14187
G1 X113.415 Y112.49 E.00327
G1 X113.238 Y112.854 E.01206
G1 X112.859 Y113.233 E.01598
G1 X112.729 Y113.318 E.0046
G1 X112.385 Y113.431 E.01079
G1 X84.34 Y113.431 E.83537
G1 X84.343 Y114.684 E.03734
G1 X84.324 Y114.793 E.00328
G1 X84.147 Y115.157 E.01206
G1 X83.741 Y115.559 E.01704
G1 X83.64 Y115.622 E.00353
G1 X83.293 Y115.736 E.01088
G1 X81.685 Y115.736 E.0479
G1 X80.797 Y115.502 E.02737
G1 X76.731 Y114.013 E.12896
G1 X74.383 Y112.854 E.078
G1 X73.015 Y111.78 E.05181
G1 X72.809 Y111.54 E.00942
G1 X72.278 Y110.315 E.03977
G1 X72.248 Y110.108 E.00622
G1 X72.294 Y109.623 E.01452
G1 X72.728 Y108.598 E.03316
G1 X72.903 Y108.337 E.00935
G1 X74.012 Y107.44 E.04251
G1 X74.247 Y107.732 F9000
G1 F1200
G1 X74.567 Y107.476 E.01221
G1 X76.944 Y106.306 E.07893
G1 X80.941 Y104.847 E.12673
G1 X81.652 Y104.649 E.022
G1 X83.27 Y104.641 E.04819
G1 X83.523 Y104.751 E.00821
G1 X83.856 Y105.085 E.01408
G1 X83.959 Y105.304 E.0072
G1 X83.962 Y106.946 E.04892
G1 X112.364 Y106.946 E.84601
G1 X112.614 Y107.056 E.00814
G1 X112.958 Y107.399 E.01446
G1 X113.057 Y107.654 E.00814
G1 X113.057 Y112.361 E.14021
G1 X112.948 Y112.611 E.00814
G1 X112.604 Y112.954 E.01446
G1 X112.35 Y113.054 E.00814
G1 X83.962 Y113.054 E.84558
G1 X83.966 Y114.664 E.04798
G1 X83.856 Y114.915 E.00815
G1 X83.513 Y115.259 E.01448
G1 X83.258 Y115.359 E.00815
G1 X81.711 Y115.359 E.0461
G1 X80.919 Y115.146 E.02442
G1 X76.889 Y113.67 E.12784
G1 X74.6 Y112.545 E.07595
G1 X73.264 Y111.496 E.0506
G1 X73.116 Y111.32 E.00685
G1 X72.645 Y110.229 E.0354
G1 X72.625 Y110.111 E.00356
G1 X72.654 Y109.74 E.01107
G1 X73.067 Y108.763 E.0316
G1 X73.197 Y108.574 E.00682
G1 X74.2 Y107.77 E.03831
G1 X74.434 Y108.063 F9000
G1 F1200
G1 X74.785 Y107.784 E.01337
G1 X77.083 Y106.657 E.07623
G1 X81.052 Y105.207 E.12587
G1 X81.681 Y105.026 E.0195
G1 X83.216 Y105.018 E.0457
G1 X83.286 Y105.047 E.00225
G1 X83.56 Y105.322 E.01157
G1 X83.588 Y105.391 E.00224
G1 X83.584 Y107.324 E.05755
G1 X112.308 Y107.324 E.85559
G1 X112.377 Y107.352 E.00223
G1 X112.651 Y107.626 E.01154
G1 X112.68 Y107.695 E.00223
G1 X112.68 Y112.305 E.13729
G1 X112.651 Y112.374 E.00223
G1 X112.377 Y112.648 E.01154
G1 X112.308 Y112.676 E.00223
G1 X83.584 Y112.676 E.85559
G1 X83.588 Y114.609 E.05756
G1 X83.56 Y114.678 E.00224
G1 X83.286 Y114.953 E.01156
G1 X83.216 Y114.982 E.00224
G1 X81.737 Y114.982 E.04407
G1 X81.042 Y114.789 E.02148
G1 X77.046 Y113.327 E.12674
G1 X74.785 Y112.216 E.07505
G1 X73.516 Y111.214 E.04816
G1 X73.427 Y111.104 E.00421
G1 X73.009 Y110.132 E.03152
G1 X73.015 Y109.854 E.00828
G1 X73.406 Y108.93 E.02988
