; generated by PrusaSlicer 2.4.0+win64 on 2022-03-06 at 11:00:23 UTC

; 

; external perimeters extrusion width = 0.45mm
; perimeters extrusion width = 0.45mm
; infill extrusion width = 0.45mm
; solid infill extrusion width = 0.45mm
; top infill extrusion width = 0.45mm
; first layer extrusion width = 0.42mm

M201 X500 Y500 Z100 E5000 ; sets maximum accelerations, mm/sec^2
M203 X500 Y500 Z10 E60 ; sets maximum feedrates, mm/sec
M204 P500 R1000 T500 ; sets acceleration (P, T) and retract acceleration (R), mm/sec^2
M205 X8.00 Y8.00 Z0.40 E5.00 ; sets the jerk limits, mm/sec
M205 S0 T0 ; sets the minimum extruding and travel feed rate, mm/sec
M107
;TYPE:Custom
G90 ; use absolute coordinates
M83 ; extruder relative mode
M140 S80 ; set final bed temp
M104 S150 ; set temporary nozzle temp to prevent oozing during homing
G4 S10 ; allow partial nozzle warmup
G28 ; home all axis
G1 Z50 F240
G1 X2 Y10 F3000
M104 S235 ; set final nozzle temp
M190 S80 ; wait for bed temp to stabilize
M109 S235 ; wait for nozzle temp to stabilize
G1 Z0.28 F240
G92 E0
G1 Y140 E10 F1500 ; prime the nozzle
G1 X2.3 F5000
G92 E0
G1 Y10 E10 F1200 ; prime the nozzle
G92 E0
G21 ; set units to millimeters
G90 ; use absolute coordinates
M83 ; use relative distances for extrusion
; Filament gcode
M107
;LAYER_CHANGE
;Z:0.2
;HEIGHT:0.2
;BEFORE_LAYER_CHANGE
G92 E0
;0.2


G1 E-5 F3600
G1 Z.1 F9000
;AFTER_LAYER_CHANGE
;0.2
G1 X89.938 Y89.938
G1 E5 F2400
M204 S500
;TYPE:Skirt/Brim
;WIDTH:0.42
G1 F1200
G1 X90.218 Y89.658 E.01179
G1 X91.314 Y88.926 E.03925
G1 X93.152 Y88.165 E.05925
G1 X94.444 Y87.908 E.03925
G1 X125.556 Y87.908 E.92672
G1 X126.848 Y88.165 E.03925
G1 X128.686 Y88.926 E.05925
G1 X129.782 Y89.658 E.03925
G1 X144.147 Y104.023 E.60512
G1 X144.879 Y105.119 E.03925
G1 X145.64 Y106.957 E.05925
G1 X145.897 Y108.249 E.03925
G1 X145.897 Y125.786 E.52236
G1 X145.503 Y127.369 E.0486
G1 X144.908 Y128.174 E.02981
G1 X141.979 Y131.103 E.12338
G1 X140.581 Y131.944 E.0486
G1 X139.591 Y132.092 E.02981
G1 X80.409 Y132.092 E1.76283
G1 X78.826 Y131.698 E.0486
G1 X78.021 Y131.103 E.02981
G1 X75.092 Y128.174 E.12338
G1 X74.251 Y126.776 E.0486
G1 X74.103 Y125.786 E.02981
G1 X74.103 Y108.249 E.52236
G1 X74.36 Y106.957 E.03925
G1 X75.121 Y105.119 E.05925
G1 X75.853 Y104.023 E.03925
G1 X89.896 Y89.981 E.59154
G1 E-3.5 F3600
;WIPE_START
G1 F7200
G1 X90.218 Y89.658 E-.21657
G1 X91.314 Y88.926 E-.62589
G1 X92.447 Y88.457 E-.58253
;WIPE_END
G1 E-.075 F3600
G1 X92.517 Y92.616 F9000
G1 E5 F2400
G1 F1200
G1 X92.687 Y92.447 E.00717
G1 X93.751 Y91.886 E.03581
G1 X95.062 Y91.572 E.04018
G1 X124.932 Y91.575 E.88972
G1 X126.342 Y91.919 E.04321
G1 X127.628 Y92.686 E.04461
G1 X141.08 Y106.137 E.56664
G1 X141.859 Y107.396 E.0441
G1 X142.233 Y108.865 E.04515
G1 X142.233 Y124.224 E.4575
G1 X141.935 Y125.448 E.0375
G1 X141.516 Y126.283 E.02784
G1 X140.232 Y127.605 E.05488
G1 X139.253 Y128.13 E.0331
G1 X138.03 Y128.428 E.03751
G1 X120.14 Y128.428 E.53288
G1 X119.332 Y128.326 E.02425
G1 X117.359 Y127.345 E.06563
G1 X110.673 Y120.66 E.28164
G1 X109.327 Y120.66 E.04008
G1 X102.641 Y127.345 E.28164
G1 X100.668 Y128.326 E.06563
G1 X99.86 Y128.428 E.02425
G1 X81.97 Y128.428 E.53288
G1 X80.747 Y128.13 E.0375
G1 X79.912 Y127.711 E.02784
G1 X78.59 Y126.427 E.05488
G1 X78.065 Y125.448 E.0331
G1 X77.767 Y124.224 E.03751
G1 X77.767 Y108.865 E.45751
G1 X78.119 Y107.448 E.04349
G1 X78.924 Y106.134 E.0459
G1 X92.474 Y92.659 E.56922
G1 X92.74 Y92.926 F9000
G1 F1200
G1 X92.933 Y92.734 E.00811
G1 X93.863 Y92.247 E.03126
G1 X95.085 Y91.949 E.03749
G1 X124.909 Y91.952 E.88834
G1 X126.223 Y92.278 E.04033
G1 X127.378 Y92.969 E.04007
G1 X140.797 Y106.388 E.56529
G1 X141.523 Y107.569 E.04127
G1 X141.856 Y108.888 E.04055
G1 X141.856 Y124.201 E.45611
G1 X141.575 Y125.335 E.03481
G1 X141.193 Y126.086 E.02508
G1 X139.984 Y127.32 E.05146
G1 X139.139 Y127.77 E.0285
G1 X138.006 Y128.051 E.03478
G1 X120.152 Y128.051 E.53182
G1 X119.412 Y127.956 E.02223
G1 X117.604 Y127.057 E.06014
G1 X110.829 Y120.282 E.28538
G1 X109.171 Y120.282 E.04938
G1 X102.396 Y127.057 E.28538
G1 X100.588 Y127.956 E.06014
G1 X99.848 Y128.051 E.02223
G1 X81.994 Y128.051 E.53182
G1 X80.86 Y127.769 E.03481
G1 X80.109 Y127.388 E.02508
G1 X78.875 Y126.179 E.05146
G1 X78.425 Y125.334 E.0285
G1 X78.144 Y124.201 E.03478
G1 X78.144 Y108.888 E.45611
G1 X78.478 Y107.569 E.04055
G1 X79.205 Y106.385 E.04138
G1 X92.698 Y92.968 E.56677
G1 X92.963 Y93.236 F9000
G1 F1200
G1 X93.178 Y93.022 E.00903
G1 X93.975 Y92.607 E.02675
G1 X95.109 Y92.326 E.03479
G1 X124.886 Y92.329 E.88697
G1 X126.055 Y92.617 E.03586
G1 X127.128 Y93.252 E.03714
G1 X140.515 Y106.64 E.56392
G1 X141.165 Y107.691 E.03681
G1 X141.479 Y108.913 E.03758
G1 X141.479 Y124.177 E.45468
G1 X141.215 Y125.221 E.03207
G1 X140.872 Y125.887 E.02232
G1 X139.737 Y127.034 E.04806
G1 X139.025 Y127.41 E.02398
G1 X137.982 Y127.674 E.03204
G1 X120.164 Y127.674 E.53074
G1 X119.492 Y127.586 E.0202
G1 X117.849 Y126.769 E.05466
G1 X110.985 Y119.905 E.28913
G1 X109.015 Y119.905 E.05869
G1 X102.151 Y126.769 E.28913
G1 X100.508 Y127.586 E.05466
G1 X99.836 Y127.674 E.0202
G1 X82.018 Y127.674 E.53074
G1 X80.974 Y127.41 E.03207
G1 X80.308 Y127.067 E.02232
G1 X79.161 Y125.932 E.04806
G1 X78.785 Y125.22 E.02398
G1 X78.521 Y124.177 E.03204
G1 X78.521 Y108.913 E.45468
G1 X78.835 Y107.691 E.03758
G1 X79.487 Y106.637 E.0369
G1 X92.921 Y93.278 E.56433
G1 X93.187 Y93.545 F9000
G1 F1200
G1 X93.424 Y93.31 E.00994
G1 X94.089 Y92.968 E.02229
G1 X95.133 Y92.703 E.03208
G1 X124.863 Y92.707 E.88555
G1 X125.937 Y92.976 E.03298
G1 X126.878 Y93.536 E.03263
G1 X140.233 Y106.891 E.56259
G1 X140.807 Y107.815 E.03239
G1 X141.102 Y108.937 E.03457
G1 X141.102 Y124.153 E.45321
G1 X140.855 Y125.104 E.02928
G1 X140.551 Y125.686 E.01955
G1 X139.491 Y126.746 E.04467
G1 X138.909 Y127.05 E.01955
G1 X137.958 Y127.297 E.02928
G1 X120.177 Y127.297 E.52963
G1 X119.573 Y127.217 E.01816
G1 X118.094 Y126.481 E.0492
G1 X111.141 Y119.528 E.29287
G1 X108.859 Y119.528 E.06799
G1 X101.906 Y126.481 E.29287
G1 X100.427 Y127.217 E.0492
G1 X99.823 Y127.297 E.01816
G1 X82.042 Y127.297 E.52963
G1 X81.091 Y127.05 E.02928
G1 X80.509 Y126.746 E.01955
G1 X79.449 Y125.686 E.04467
G1 X79.145 Y125.104 E.01955
G1 X78.898 Y124.153 E.02928
G1 X78.898 Y108.937 E.45321
G1 X79.193 Y107.815 E.03457
G1 X79.768 Y106.889 E.03245
G1 X93.144 Y93.588 E.5619
G1 X93.404 Y93.849 F9000
G1 F1200
G1 X93.624 Y93.631 E.00922
G1 X94.205 Y93.327 E.01954
G1 X95.157 Y93.08 E.02929
G1 X124.84 Y93.084 E.88415
G1 X125.77 Y93.315 E.02854
G1 X126.629 Y93.82 E.02968
G1 X139.952 Y107.143 E.56124
G1 X140.451 Y107.94 E.02802
G1 X140.725 Y108.963 E.03153
G1 X140.725 Y124.128 E.45171
G1 X140.497 Y124.985 E.02644
G1 X140.232 Y125.484 E.01681
G1 X139.289 Y126.427 E.03973
G1 X138.791 Y126.692 E.01681
G1 X137.933 Y126.92 E.02644
G1 X120.19 Y126.92 E.52849
G1 X119.654 Y126.847 E.0161
G1 X118.339 Y126.192 E.04377
G1 X111.297 Y119.151 E.29661
G1 X108.703 Y119.151 E.07729
G1 X101.661 Y126.192 E.29661
G1 X100.346 Y126.847 E.04377
G1 X99.81 Y126.92 E.0161
G1 X82.067 Y126.92 E.52849
G1 X81.209 Y126.692 E.02644
G1 X80.711 Y126.427 E.01681
G1 X79.768 Y125.484 E.03973
G1 X79.503 Y124.985 E.01681
G1 X79.275 Y124.128 E.02644
G1 X79.275 Y108.963 E.45171
G1 X79.549 Y107.94 E.03153
G1 X80.049 Y107.142 E.02806
G1 X93.362 Y93.891 E.55948
G1 X93.622 Y94.153 F9000
G1 F1200
G1 X93.826 Y93.95 E.00856
G1 X94.324 Y93.685 E.01681
G1 X95.182 Y93.457 E.02644
G1 X124.817 Y93.461 E.88272
G1 X125.604 Y93.655 E.02415
G1 X126.38 Y94.104 E.02669
G1 X139.67 Y107.394 E.55982
G1 X140.115 Y108.114 E.02525
G1 X140.348 Y108.987 E.0269
G1 X140.348 Y124.102 E.45021
G1 X140.14 Y124.864 E.02353
G1 X139.914 Y125.28 E.01409
G1 X139.085 Y126.109 E.03494
G1 X138.669 Y126.334 E.01409
G1 X137.907 Y126.543 E.02353
G1 X120.203 Y126.543 E.52733
G1 X119.737 Y126.478 E.01403
G1 X118.584 Y125.904 E.03836
G1 X111.454 Y118.774 E.30035
G1 X108.546 Y118.774 E.0866
G1 X101.416 Y125.904 E.30035
G1 X100.263 Y126.478 E.03836
G1 X99.797 Y126.543 E.01403
G1 X82.093 Y126.543 E.52733
G1 X81.331 Y126.334 E.02353
G1 X80.915 Y126.109 E.01409
G1 X80.086 Y125.28 E.03494
G1 X79.86 Y124.864 E.01409
G1 X79.652 Y124.102 E.02353
G1 X79.652 Y108.987 E.45021
G1 X79.885 Y108.114 E.0269
G1 X80.331 Y107.393 E.02528
G1 X93.58 Y94.195 E.55702
G1 X93.841 Y94.457 F9000
G1 F1200
G1 X94.03 Y94.268 E.00797
G1 X94.446 Y94.043 E.01409
G1 X95.208 Y93.834 E.02353
G1 X124.795 Y93.838 E.88129
G1 X125.441 Y93.996 E.01983
G1 X126.132 Y94.389 E.02366
G1 X139.388 Y107.645 E.55842
G1 X139.759 Y108.241 E.02092
G1 X139.971 Y109.013 E.02383
G1 X139.971 Y124.075 E.44864
G1 X139.783 Y124.738 E.02054
G1 X139.598 Y125.073 E.0114
G1 X138.878 Y125.793 E.03031
G1 X138.544 Y125.978 E.0114
G1 X137.88 Y126.166 E.02054
G1 X120.217 Y126.166 E.52612
G1 X119.82 Y126.109 E.01194
G1 X118.829 Y125.616 E.03299
G1 X111.61 Y118.397 E.30409
G1 X108.39 Y118.397 E.0959
G1 X101.171 Y125.616 E.30409
G1 X100.18 Y126.109 E.03299
G1 X99.783 Y126.166 E.01194
G1 X82.12 Y126.166 E.52612
G1 X81.456 Y125.978 E.02054
G1 X81.122 Y125.793 E.0114
G1 X80.402 Y125.073 E.03031
G1 X80.217 Y124.738 E.0114
G1 X80.029 Y124.075 E.02054
G1 X80.029 Y109.013 E.44864
G1 X80.241 Y108.241 E.02383
G1 X80.613 Y107.645 E.02094
G1 X93.798 Y94.499 E.5546
G1 X94.059 Y94.761 F9000
G1 F1200
G1 X94.237 Y94.584 E.00745
G1 X94.571 Y94.399 E.0114
G1 X95.235 Y94.211 E.02055
G1 X124.773 Y94.215 E.87983
G1 X125.281 Y94.338 E.01558
G1 X125.884 Y94.675 E.02057
G1 X139.107 Y107.897 E.557
G1 X139.405 Y108.371 E.01668
G1 X139.594 Y109.04 E.0207
G1 X139.594 Y124.047 E.447
G1 X139.428 Y124.609 E.01746
G1 X139.283 Y124.864 E.00873
G1 X138.669 Y125.478 E.02589
G1 X138.414 Y125.623 E.00873
G1 X137.852 Y125.789 E.01746
G1 X120.231 Y125.789 E.52486
G1 X119.905 Y125.741 E.00982
G1 X119.074 Y125.328 E.02765
G1 X111.766 Y118.02 E.30783
G1 X108.234 Y118.02 E.10521
G1 X100.926 Y125.328 E.30783
G1 X100.095 Y125.741 E.02765
G1 X99.769 Y125.789 E.00982
G1 X82.148 Y125.789 E.52486
G1 X81.586 Y125.623 E.01746
G1 X81.331 Y125.478 E.00873
G1 X80.717 Y124.864 E.02589
G1 X80.572 Y124.609 E.00873
G1 X80.406 Y124.047 E.01746
G1 X80.406 Y109.04 E.447
G1 X80.595 Y108.371 E.0207
G1 X80.894 Y107.897 E.01668
G1 X94.017 Y94.803 E.55219
G1 X94.279 Y95.066 F9000
G1 F1200
G1 X94.446 Y94.899 E.00704
G1 X94.7 Y94.754 E.00873
G1 X95.263 Y94.588 E.01746
G1 X124.751 Y94.592 E.87834
G1 X125.124 Y94.681 E.01142
G1 X125.637 Y94.961 E.01742
G1 X138.826 Y108.15 E.55556
G1 X139.051 Y108.504 E.01252
G1 X139.217 Y109.068 E.0175
G1 X139.217 Y124.017 E.44529
G1 X139.076 Y124.474 E.01425
G1 X138.972 Y124.65 E.00609
G1 X138.456 Y125.167 E.02174
G1 X138.279 Y125.271 E.00609
G1 X137.822 Y125.412 E.01425
G1 X120.246 Y125.412 E.52353
G1 X119.991 Y125.373 E.00768
G1 X119.318 Y125.039 E.02237
G1 X111.922 Y117.643 E.31156
G1 X108.078 Y117.643 E.11451
G1 X100.682 Y125.039 E.31156
G1 X100.009 Y125.373 E.02237
G1 X99.754 Y125.412 E.00768
G1 X82.178 Y125.412 E.52353
G1 X81.721 Y125.271 E.01425
G1 X81.544 Y125.167 E.00609
G1 X81.028 Y124.65 E.02174
G1 X80.924 Y124.474 E.00609
G1 X80.783 Y124.017 E.01425
G1 X80.783 Y109.068 E.44529
G1 X80.949 Y108.504 E.0175
G1 X81.175 Y108.149 E.01252
G1 X94.236 Y95.108 E.54979
G1 X94.499 Y95.371 F9000
G1 F1200
G1 X94.659 Y95.21 E.00675
G1 X94.835 Y95.106 E.00609
G1 X95.292 Y94.965 E.01425
G1 X124.729 Y94.969 E.87681
G1 X124.97 Y95.026 E.00738
G1 X125.391 Y95.249 E.01419
G1 X138.545 Y108.402 E.55409
G1 X138.699 Y108.642 E.00848
G1 X138.84 Y109.097 E.01421
G1 X138.84 Y123.986 E.44346
G1 X138.726 Y124.332 E.01086
G1 X138.664 Y124.432 E.0035
G1 X138.237 Y124.859 E.01798
G1 X138.137 Y124.921 E.0035
G1 X137.791 Y125.035 E.01086
G1 X120.262 Y125.035 E.52212
G1 X120.08 Y125.005 E.0055
G1 X119.563 Y124.751 E.01716
G1 X112.078 Y117.266 E.31529
G1 X107.922 Y117.266 E.12382
G1 X100.437 Y124.751 E.31529
G1 X99.92 Y125.005 E.01716
G1 X99.738 Y125.035 E.0055
G1 X82.209 Y125.035 E.52212
G1 X81.863 Y124.921 E.01086
G1 X81.763 Y124.859 E.0035
G1 X81.336 Y124.432 E.01798
G1 X81.274 Y124.332 E.0035
G1 X81.16 Y123.986 E.01086
G1 X81.16 Y109.097 E.44346
G1 X81.301 Y108.642 E.01421
G1 X81.455 Y108.402 E.00848
G1 X94.456 Y95.413 E.54742
G1 X94.719 Y95.676 F9000
G1 F1200
G1 X94.877 Y95.518 E.00666
G1 X94.978 Y95.456 E.0035
G1 X95.324 Y95.342 E.01086
G1 X124.707 Y95.346 E.87522
G1 X124.822 Y95.373 E.0035
G1 X125.147 Y95.538 E.01086
G1 X138.265 Y108.656 E.55259
G1 X138.35 Y108.785 E.0046
G1 X138.463 Y109.129 E.01079
G1 X138.463 Y123.95 E.44147
G1 X138.381 Y124.178 E.00719
G1 X138.01 Y124.558 E.01583
G1 X137.756 Y124.658 E.00814
G1 X120.28 Y124.658 E.52055
G1 X120.171 Y124.639 E.00327
G1 X119.807 Y124.461 E.01206
G1 X112.235 Y116.889 E.31899
G1 X107.765 Y116.889 E.13312
G1 X100.193 Y124.461 E.31899
G1 X99.829 Y124.639 E.01206
G1 X99.72 Y124.658 E.00327
G1 X82.244 Y124.658 E.52055
G1 X82.017 Y124.576 E.00719
G1 X81.637 Y124.205 E.01583
G1 X81.537 Y123.95 E.00814
G1 X81.537 Y109.129 E.44148
G1 X81.65 Y108.785 E.01079
G1 X81.735 Y108.656 E.0046
G1 X94.677 Y95.719 E.54507
G1 X94.941 Y95.983 F9000
G1 F1200
G1 X95.132 Y95.801 E.00785
G1 X95.359 Y95.72 E.00719
G1 X124.655 Y95.72 E.87263
G1 X124.905 Y95.829 E.00814
G1 X138.004 Y108.937 E.55197
G1 X138.086 Y109.164 E.00719
G1 X138.086 Y123.909 E.43918
G1 X138.057 Y123.978 E.00223
G1 X137.783 Y124.252 E.01154
G1 X137.714 Y124.28 E.00223
G1 X120.268 Y124.274 E.51963
G1 X120.05 Y124.171 E.00719
G1 X112.391 Y116.512 E.32264
G1 X107.609 Y116.512 E.14243
G1 X99.95 Y124.171 E.32264
G1 X99.732 Y124.274 E.00719
G1 X82.286 Y124.28 E.51963
G1 X82.217 Y124.252 E.00223
G1 X81.943 Y123.978 E.01154
G1 X81.914 Y123.909 E.00223
G1 X81.914 Y109.164 E.43918
G1 X81.996 Y108.937 E.00719
G1 X94.899 Y96.025 E.54371
G1 X95.165 Y96.292 F9000
G1 F1200
G1 X95.332 Y96.125 E.00702
G1 X95.401 Y96.097 E.00223
G1 X124.599 Y96.097 E.86971
G1 X124.668 Y96.125 E.00223
G1 X137.68 Y109.137 E.5481
G1 X137.709 Y109.206 E.00223
G1 X137.709 Y123.793 E.43449
G1 X137.598 Y123.903 E.00465
G1 X120.356 Y123.903 E.51357
G1 X120.287 Y123.875 E.00223
G1 X112.547 Y116.135 E.32605
G1 X107.453 Y116.135 E.15173
G1 X99.713 Y123.875 E.32605
G1 X99.644 Y123.903 E.00223
G1 X82.402 Y123.903 E.51357
G1 X82.291 Y123.793 E.00465
G1 X82.291 Y109.206 E.43449
G1 X82.32 Y109.137 E.00223
G1 X95.123 Y96.334 E.5393
G1 X95.526 Y96.495 F9000
;TYPE:External perimeter
G1 F1200
G1 X124.475 Y96.495 E.86229
G1 X137.31 Y109.331 E.54069
G1 X137.31 Y123.505 E.4222
G1 X120.481 Y123.505 E.50128
G1 X112.712 Y115.736 E.32726
G1 X107.288 Y115.736 E.16157
G1 X99.519 Y123.505 E.32726
G1 X82.69 Y123.505 E.50128
G1 X82.69 Y109.331 E.4222
G1 X95.483 Y96.538 E.5389
G1 X95.839 Y96.744 F9000
G1 E-3.5 F3600
;WIPE_START
G1 F7200
G1 X98.483 Y96.533 E-1.425
;WIPE_END
G1 E-.075 F3600
G1 X136.933 Y109.487 F9000
G1 E5 F2400
;TYPE:Perimeter
G1 F1200
G1 X136.933 Y123.128 E.40632
G1 X120.637 Y123.128 E.4854
G1 X112.868 Y115.359 E.32726
G1 X107.132 Y115.359 E.17087
G1 X99.363 Y123.128 E.32726
G1 X83.067 Y123.128 E.4854
G1 X83.067 Y109.487 E.40632
G1 X95.682 Y96.872 E.53138
G1 X124.318 Y96.872 E.85299
G1 X136.89 Y109.444 E.5296
G1 X136.556 Y109.643 F9000
G1 F1200
G1 X136.556 Y122.751 E.39043
G1 X120.793 Y122.751 E.46951
G1 X113.024 Y114.982 E.32726
G1 X106.976 Y114.982 E.18018
G1 X99.207 Y122.751 E.32726
G1 X83.444 Y122.751 E.46951
G1 X83.444 Y109.643 E.39043
G1 X95.838 Y97.249 E.52208
G1 X124.162 Y97.249 E.84368
G1 X136.513 Y109.601 E.52029
G1 X136.179 Y109.799 F9000
G1 F1200
G1 X136.179 Y122.374 E.37455
G1 X120.949 Y122.374 E.45363
G1 X113.181 Y114.605 E.32726
G1 X106.819 Y114.605 E.18948
G1 X99.051 Y122.374 E.32726
G1 X83.821 Y122.374 E.45363
G1 X83.821 Y109.799 E.37455
G1 X95.994 Y97.626 E.51277
G1 X124.006 Y97.626 E.83438
G1 X136.136 Y109.757 E.51099
G1 X135.802 Y109.955 F9000
G1 F1200
G1 X135.802 Y121.997 E.35866
G1 X121.106 Y121.997 E.43774
G1 X113.337 Y114.228 E.32726
G1 X106.663 Y114.228 E.19879
G1 X98.894 Y121.997 E.32726
G1 X84.198 Y121.997 E.43774
G1 X84.198 Y109.955 E.35866
G1 X96.15 Y98.003 E.50347
G1 X123.85 Y98.003 E.82507
G1 X135.759 Y109.913 E.50168
G1 E-3.5 F3600
;WIPE_START
G1 F7200
G1 X135.77 Y112.913 E-1.425
;WIPE_END
G1 E-.075 F3600
G1 X113.003 Y105.864 F9000
