; generated by PrusaSlicer 2.4.0+win64 on 2022-03-06 at 10:32:51 UTC

; 

; external perimeters extrusion width = 0.45mm
; perimeters extrusion width = 0.45mm
; infill extrusion width = 0.45mm
; solid infill extrusion width = 0.45mm
; top infill extrusion width = 0.45mm
; first layer extrusion width = 0.42mm

M201 X500 Y500 Z100 E5000 ; sets maximum accelerations, mm/sec^2
M203 X500 Y500 Z10 E60 ; sets maximum feedrates, mm/sec
M204 P500 R1000 T500 ; sets acceleration (P, T) and retract acceleration (R), mm/sec^2
M205 X8.00 Y8.00 Z0.40 E5.00 ; sets the jerk limits, mm/sec
M205 S0 T0 ; sets the minimum extruding and travel feed rate, mm/sec
M107
;TYPE:Custom
G90 ; use absolute coordinates
M83 ; extruder relative mode
M140 S80 ; set final bed temp
M104 S150 ; set temporary nozzle temp to prevent oozing during homing
G4 S10 ; allow partial nozzle warmup
G28 ; home all axis
G1 Z50 F240
G1 X2 Y10 F3000
M104 S235 ; set final nozzle temp
M190 S80 ; wait for bed temp to stabilize
M109 S235 ; wait for nozzle temp to stabilize
G1 Z0.28 F240
G92 E0
G1 Y140 E10 F1500 ; prime the nozzle
G1 X2.3 F5000
G92 E0
G1 Y10 E10 F1200 ; prime the nozzle
G92 E0
G21 ; set units to millimeters
G90 ; use absolute coordinates
M83 ; use relative distances for extrusion
; Filament gcode
M107
;LAYER_CHANGE
;Z:0.2
;HEIGHT:0.2
;BEFORE_LAYER_CHANGE
G92 E0
;0.2


G1 E-5 F3600
G1 Z.1 F9000
;AFTER_LAYER_CHANGE
;0.2
G1 X62.22 Y74.8
G1 E5 F2400
M204 S500
;TYPE:Skirt/Brim
;WIDTH:0.42
G1 F1200
G1 X64.387 Y73.095 E.08213
G1 X65.164 Y72.626 E.02705
G1 X67.807 Y71.327 E.08771
G1 X72.838 Y69.46 E.15984
G1 X73.885 Y69.144 E.03258
G1 X75.087 Y68.932 E.03634
G1 X127.628 Y68.907 E1.56503
G1 X157.298 Y71.26 E.88654
G1 X159.419 Y72.239 E.06957
G1 X162.348 Y75.168 E.12338
G1 X163.188 Y76.566 E.0486
G1 X163.337 Y77.556 E.02981
G1 X163.337 Y142.444 E1.93281
G1 X162.943 Y144.027 E.0486
G1 X162.348 Y144.832 E.02981
G1 X159.419 Y147.761 E.12338
G1 X157.298 Y148.74 E.06957
G1 X127.36 Y151.104 E.89451
G1 X75.087 Y151.068 E1.55705
G1 X73.885 Y150.856 E.03634
G1 X72.838 Y150.54 E.03258
G1 X67.971 Y148.749 E.15449
G1 X64.845 Y147.196 E.10396
G1 X64.089 Y146.692 E.02705
G1 X62.22 Y145.2 E.07124
G1 X61.636 Y144.601 E.02493
G1 X60.881 Y143.606 E.0372
G1 X60.462 Y142.882 E.02493
G1 X59.476 Y140.552 E.07535
G1 X59.21 Y139.236 E.03999
G1 X59.21 Y80.764 E1.74168
G1 X59.476 Y79.448 E.03999
G1 X60.462 Y77.118 E.07535
G1 X60.881 Y76.394 E.02493
G1 X61.636 Y75.399 E.0372
G1 X62.178 Y74.843 E.02314
G1 E-3.5 F3600
;WIPE_START
G1 F7200
G1 X64.387 Y73.095 E-1.33795
G1 X64.544 Y73 E-.08705
;WIPE_END
G1 E-.075 F3600
G1 X75.356 Y129.04 F9000
G1 E5 F2400
G1 F1200
G1 X77.92 Y129.029 E.07638
G1 X78.992 Y129.311 E.03301
G1 X79.958 Y129.842 E.03284
G1 X81.062 Y130.936 E.04629
G1 X81.31 Y131.357 E.01456
G1 X107.352 Y131.36 E.77571
G1 X108.404 Y131.567 E.03194
G1 X109.608 Y132.178 E.04021
G1 X110.508 Y133.009 E.03646
G1 X111.123 Y133.901 E.03227
G1 X111.673 Y135.441 E.04873
G1 X112.442 Y134.297 E.04104
G1 X114.631 Y132.493 E.08449
G1 X117.709 Y130.962 E.10242
G1 X121.987 Y129.402 E.13564
G1 X123.507 Y129.029 E.04662
G1 X125.981 Y129.029 E.07369
G1 X127.009 Y129.294 E.03162
G1 X128.015 Y129.84 E.0341
G1 X129.121 Y130.935 E.04634
G1 X129.37 Y131.357 E.0146
G1 X155.413 Y131.361 E.77575
G1 X156.514 Y131.584 E.03348
G1 X157.626 Y132.149 E.03714
G1 X158.567 Y133.009 E.03797
G1 X159.203 Y133.941 E.03361
G1 X159.59 Y135.021 E.03417
G1 X159.67 Y140.811 E.17248
G1 X159.446 Y141.928 E.03392
G1 X158.881 Y143.039 E.03716
G1 X158.013 Y143.989 E.03832
G1 X156.958 Y144.679 E.03757
G1 X155.733 Y145.051 E.03812
G1 X129.359 Y145.086 E.78559
G1 X129.041 Y145.618 E.01845
G1 X127.985 Y146.625 E.04347
G1 X127.049 Y147.135 E.03175
G1 X125.954 Y147.418 E.0337
G1 X123.732 Y147.441 E.06618
G1 X121.971 Y147.037 E.05381
G1 X117.476 Y145.382 E.14269
G1 X114.629 Y143.95 E.09493
G1 X112.809 Y142.523 E.0689
G1 X112.11 Y141.724 E.03161
G1 X111.823 Y141.106 E.02029
G1 X111.551 Y141.139 E.00814
G1 X111.404 Y141.877 E.02242
G1 X110.822 Y143.039 E.0387
G1 X109.954 Y143.989 E.03835
G1 X108.898 Y144.679 E.03757
G1 X107.673 Y145.051 E.03812
G1 X81.299 Y145.086 E.78559
G1 X80.981 Y145.618 E.01845
G1 X79.925 Y146.625 E.04347
G1 X78.989 Y147.135 E.03175
G1 X77.894 Y147.418 E.0337
G1 X75.672 Y147.441 E.06618
G1 X73.912 Y147.037 E.05381
G1 X69.436 Y145.39 E.14206
G1 X66.569 Y143.949 E.09558
G1 X64.749 Y142.523 E.06886
G1 X64.021 Y141.678 E.03325
G1 X63.016 Y139.407 E.07395
G1 X62.873 Y138.252 E.03467
G1 X63.082 Y136.787 E.04407
G1 X63.688 Y135.34 E.04674
G1 X64.42 Y134.255 E.03897
G1 X66.571 Y132.493 E.08282
G1 X69.63 Y130.97 E.10179
G1 X73.909 Y129.407 E.1357
G1 X75.298 Y129.055 E.04266
G1 X75.39 Y129.421 F9000
G1 F1200
G1 X77.85 Y129.4 E.07328
G1 X78.831 Y129.653 E.03018
G1 X79.753 Y130.159 E.03131
G1 X80.776 Y131.183 E.04311
G1 X81.088 Y131.734 E.01887
G1 X107.3 Y131.734 E.78077
G1 X108.26 Y131.916 E.02911
G1 X109.372 Y132.474 E.03706
G1 X110.236 Y133.271 E.03501
G1 X110.798 Y134.093 E.02965
G1 X111.165 Y135.12 E.0325
G1 X111.187 Y136.863 E.05192
G1 X111.488 Y136.922 E.00912
G1 X112.089 Y135.502 E.04595
G1 X112.704 Y134.569 E.03327
G1 X114.818 Y132.821 E.08171
G1 X117.849 Y131.313 E.10083
G1 X122.107 Y129.759 E.13503
G1 X123.531 Y129.406 E.04368
G1 X125.956 Y129.406 E.07226
G1 X126.891 Y129.653 E.0288
G1 X127.769 Y130.127 E.02973
G1 X128.836 Y131.183 E.04471
G1 X129.147 Y131.734 E.01885
G1 X155.359 Y131.734 E.78075
G1 X156.367 Y131.933 E.03062
G1 X157.431 Y132.473 E.03556
G1 X158.296 Y133.271 E.03503
G1 X158.858 Y134.094 E.02968
G1 X159.213 Y135.059 E.03065
G1 X159.297 Y140.759 E.16979
G1 X159.098 Y141.781 E.031
G1 X158.557 Y142.845 E.03557
G1 X157.753 Y143.716 E.03529
G1 X156.776 Y144.348 E.03466
G1 X155.652 Y144.681 E.03493
G1 X129.14 Y144.709 E.7897
G1 X128.759 Y145.365 E.02259
G1 X127.78 Y146.307 E.04046
G1 X126.929 Y146.776 E.02895
G1 X125.926 Y147.041 E.03091
G1 X123.751 Y147.064 E.06479
G1 X122.069 Y146.673 E.05145
G1 X117.636 Y145.04 E.14071
G1 X114.846 Y143.641 E.09295
G1 X113.081 Y142.261 E.06675
G1 X112.413 Y141.498 E.0302
G1 X111.522 Y139.505 E.06503
G1 X111.222 Y139.571 E.00915
G1 X111.237 Y140.759 E.0354
G1 X111.054 Y141.732 E.02949
G1 X110.497 Y142.845 E.03708
G1 X109.693 Y143.716 E.03527
G1 X108.717 Y144.348 E.03466
G1 X107.592 Y144.681 E.03493
G1 X81.08 Y144.709 E.7897
G1 X80.7 Y145.365 E.02259
G1 X79.721 Y146.307 E.04046
G1 X78.87 Y146.776 E.02895
G1 X77.866 Y147.041 E.03091
G1 X75.691 Y147.064 E.06479
G1 X74.009 Y146.673 E.05145
G1 X69.576 Y145.04 E.14071
G1 X66.755 Y143.621 E.09406
G1 X65.021 Y142.261 E.06564
G1 X64.354 Y141.498 E.03019
G1 X63.373 Y139.281 E.07221
G1 X63.25 Y138.233 E.03143
G1 X63.44 Y136.911 E.03979
G1 X64.029 Y135.502 E.04549
G1 X64.681 Y134.529 E.03489
G1 X66.758 Y132.821 E.08009
G1 X69.77 Y131.321 E.10021
G1 X74.029 Y129.765 E.13509
G1 X75.332 Y129.435 E.04001
G1 X75.424 Y129.801 F9000
G1 F1200
G1 X75.495 Y129.783 E.00219
G1 X77.827 Y129.777 E.06944
G1 X78.673 Y129.995 E.02603
G1 X79.506 Y130.446 E.0282
G1 X80.489 Y131.43 E.04144
G1 X80.863 Y132.111 E.02315
G1 X107.282 Y132.111 E.78693
G1 X108.163 Y132.282 E.02673
G1 X109.136 Y132.769 E.03242
G1 X109.964 Y133.533 E.03356
G1 X110.472 Y134.285 E.02703
G1 X110.788 Y135.157 E.02764
G1 X110.86 Y140.745 E.16645
G1 X110.689 Y141.636 E.02702
G1 X110.202 Y142.609 E.03243
G1 X109.433 Y143.442 E.03375
G1 X108.537 Y144.015 E.03168
G1 X107.514 Y144.312 E.03175
G1 X80.859 Y144.332 E.79396
G1 X80.418 Y145.113 E.02672
G1 X79.478 Y146.017 E.03884
G1 X78.71 Y146.434 E.02602
G1 X77.839 Y146.664 E.02685
G1 X75.71 Y146.687 E.0634
G1 X74.129 Y146.315 E.0484
G1 X69.716 Y144.69 E.14006
G1 X66.973 Y143.313 E.09144
G1 X65.268 Y141.976 E.06453
G1 X64.657 Y141.272 E.02775
G1 X63.743 Y139.207 E.06727
G1 X63.627 Y138.261 E.02838
G1 X63.809 Y136.989 E.03829
G1 X64.369 Y135.665 E.04282
G1 X64.943 Y134.802 E.03088
G1 X66.946 Y133.149 E.07734
G1 X69.928 Y131.663 E.09925
G1 X74.15 Y130.122 E.13386
G1 X75.366 Y129.816 E.03736
G1 X75.458 Y130.181 F9000
G1 F1200
G1 X75.565 Y130.154 E.00328
G1 X77.801 Y130.154 E.06663
G1 X78.553 Y130.354 E.02317
G1 X79.3 Y130.763 E.02535
G1 X80.201 Y131.674 E.03818
G1 X80.635 Y132.488 E.02748
G1 X107.264 Y132.488 E.79321
G1 X108.018 Y132.631 E.02284
G1 X108.942 Y133.094 E.0308
G1 X109.69 Y133.793 E.03049
G1 X110.145 Y134.474 E.02441
G1 X110.422 Y135.253 E.02464
G1 X110.482 Y140.731 E.16316
G1 X110.34 Y141.491 E.02304
G1 X109.877 Y142.415 E.0308
G1 X109.175 Y143.166 E.0306
G1 X108.36 Y143.681 E.02873
G1 X107.437 Y143.942 E.02857
G1 X80.635 Y143.955 E.79834
G1 X80.135 Y144.862 E.03084
G1 X79.236 Y145.727 E.03716
G1 X78.553 Y146.091 E.02306
G1 X77.811 Y146.288 E.02285
G1 X75.73 Y146.31 E.06201
G1 X74.249 Y145.957 E.04535
G1 X69.876 Y144.348 E.13878
G1 X67.159 Y142.984 E.09056
G1 X65.539 Y141.712 E.06136
G1 X64.99 Y141.092 E.02466
G1 X64.1 Y139.082 E.0655
G1 X64.004 Y138.243 E.02513
G1 X64.166 Y137.113 E.03401
G1 X64.71 Y135.827 E.04159
G1 X65.206 Y135.074 E.02686
G1 X67.134 Y133.477 E.07457
G1 X70.067 Y132.014 E.09765
G1 X74.27 Y130.48 E.13325
G1 X75.4 Y130.196 E.0347
G1 X75.491 Y130.562 F9000
G1 F1200
G1 X75.634 Y130.526 E.00438
G1 X77.731 Y130.526 E.06247
G1 X78.396 Y130.697 E.02047
G1 X79.052 Y131.049 E.02216
G1 X79.912 Y131.918 E.03643
G1 X80.268 Y132.603 E.023
G1 X80.347 Y132.865 E.00815
G1 X107.248 Y132.865 E.80127
G1 X107.876 Y132.981 E.01902
G1 X108.706 Y133.389 E.02754
G1 X109.415 Y134.053 E.02895
G1 X109.817 Y134.661 E.02171
G1 X110.056 Y135.347 E.02165
G1 X110.105 Y140.716 E.15993
G1 X109.99 Y141.349 E.01915
G1 X109.582 Y142.179 E.02754
G1 X108.917 Y142.89 E.029
G1 X108.185 Y143.346 E.0257
G1 X107.362 Y143.572 E.02541
G1 X80.342 Y143.578 E.80483
G1 X80.268 Y143.838 E.00805
G1 X79.852 Y144.611 E.02615
G1 X78.995 Y145.436 E.03543
G1 X78.397 Y145.747 E.02005
G1 X77.783 Y145.911 E.01893
G1 X75.749 Y145.932 E.06059
G1 X74.369 Y145.6 E.0423
G1 X70.036 Y144.006 E.13752
G1 X67.345 Y142.656 E.08968
G1 X65.807 Y141.447 E.05828
G1 X65.322 Y140.911 E.02151
G1 X64.457 Y138.957 E.06366
G1 X64.382 Y138.228 E.02182
G1 X64.523 Y137.238 E.02981
G1 X65.051 Y135.989 E.04039
G1 X65.469 Y135.345 E.02287
G1 X67.322 Y133.804 E.07176
G1 X70.207 Y132.364 E.09605
G1 X74.39 Y130.838 E.13263
G1 X75.433 Y130.576 E.03204
G1 X75.524 Y130.942 F9000
G1 F1200
G1 X75.702 Y130.897 E.00546
G1 X77.706 Y130.903 E.05969
G1 X78.242 Y131.042 E.0165
G1 X78.805 Y131.335 E.01892
G1 X79.623 Y132.162 E.03462
G1 X79.922 Y132.754 E.01975
G1 X80.056 Y133.242 E.01511
G1 X107.232 Y133.242 E.80947
G1 X107.734 Y133.331 E.01519
G1 X108.513 Y133.714 E.02585
G1 X109.14 Y134.311 E.02578
G1 X109.469 Y134.807 E.01775
G1 X109.69 Y135.442 E.02002
G1 X109.728 Y140.703 E.1567
G1 X109.639 Y141.207 E.01526
G1 X109.257 Y141.986 E.02585
G1 X108.661 Y142.612 E.02576
G1 X108.058 Y142.99 E.02117
G1 X107.287 Y143.201 E.02383
G1 X80.04 Y143.201 E.81158
G1 X79.922 Y143.688 E.01491
G1 X79.568 Y144.361 E.02267
G1 X78.754 Y145.144 E.03363
G1 X78.245 Y145.402 E.01699
G1 X77.755 Y145.534 E.01512
G1 X75.769 Y145.555 E.05916
G1 X74.489 Y145.242 E.03925
G1 X70.195 Y143.664 E.13627
G1 X67.563 Y142.347 E.08766
G1 X66.053 Y141.161 E.05721
G1 X65.623 Y140.682 E.01915
G1 X64.815 Y138.834 E.06009
G1 X64.758 Y138.257 E.01726
G1 X64.88 Y137.361 E.02695
G1 X65.393 Y136.15 E.03918
G1 X65.734 Y135.615 E.01889
G1 X67.51 Y134.132 E.06893
G1 X70.346 Y132.715 E.09443
G1 X74.509 Y131.195 E.13201
G1 X75.466 Y130.956 E.02937
G1 X75.558 Y131.317 F9000
G1 F1200
G1 X75.725 Y131.275 E.00515
G1 X77.681 Y131.28 E.05825
G1 X78.091 Y131.388 E.01264
G1 X78.562 Y131.625 E.01572
G1 X79.3 Y132.359 E.03101
G1 X79.576 Y132.905 E.01821
G1 X79.658 Y133.216 E.00957
G1 X79.673 Y133.62 E.01204
G1 X107.217 Y133.62 E.82043
G1 X107.597 Y133.683 E.01147
G1 X108.275 Y134.008 E.02241
G1 X108.863 Y134.568 E.02419
G1 X109.139 Y134.992 E.01506
G1 X109.323 Y135.533 E.01703
G1 X109.351 Y140.689 E.15357
G1 X109.287 Y141.07 E.0115
G1 X108.962 Y141.748 E.02241
G1 X108.403 Y142.336 E.02415
G1 X107.929 Y142.635 E.01672
G1 X107.26 Y142.824 E.0207
G1 X79.681 Y142.824 E.82147
G1 X79.671 Y143.113 E.00861
G1 X79.576 Y143.536 E.0129
G1 X79.248 Y144.159 E.02097
G1 X78.559 Y144.82 E.02845
G1 X78.093 Y145.056 E.01555
G1 X77.683 Y145.163 E.01262
G1 X75.791 Y145.178 E.05638
G1 X74.61 Y144.885 E.03624
G1 X70.354 Y143.322 E.13505
G1 X67.781 Y142.039 E.08564
G1 X66.299 Y140.875 E.05613
G1 X65.925 Y140.454 E.01677
G1 X65.186 Y138.765 E.05492
G1 X65.135 Y138.282 E.01446
G1 X65.238 Y137.483 E.02398
G1 X65.733 Y136.312 E.03789
G1 X66.035 Y135.844 E.01657
G1 X67.733 Y134.436 E.06572
G1 X70.485 Y133.066 E.09157
G1 X74.63 Y131.553 E.13143
G1 X75.499 Y131.332 E.02672
G1 X75.593 Y131.692 F9000
G1 F1200
G1 X75.749 Y131.652 E.0048
G1 X77.655 Y131.657 E.05677
G1 X77.938 Y131.733 E.00874
G1 X78.364 Y131.948 E.01422
G1 X79.009 Y132.601 E.02736
G1 X79.216 Y133.019 E.01386
G1 X79.287 Y133.288 E.00829
G1 X79.298 Y133.997 E.02112
G1 X107.204 Y133.997 E.83121
G1 X107.46 Y134.036 E.00772
G1 X108.083 Y134.335 E.02059
G1 X108.584 Y134.821 E.02079
G1 X108.808 Y135.173 E.01242
G1 X108.955 Y135.622 E.01407
G1 X108.974 Y140.677 E.15058
G1 X108.935 Y140.933 E.00772
G1 X108.636 Y141.557 E.02059
G1 X108.149 Y142.057 E.02079
G1 X107.796 Y142.281 E.01248
G1 X107.232 Y142.447 E.0175
G1 X79.301 Y142.447 E.83197
G1 X79.297 Y143.059 E.01821
G1 X79.229 Y143.385 E.00992
G1 X78.929 Y143.956 E.01923
G1 X78.364 Y144.496 E.02327
G1 X77.943 Y144.709 E.01407
G1 X77.615 Y144.792 E.01007
G1 X75.813 Y144.801 E.05366
G1 X74.731 Y144.527 E.03325
G1 X70.512 Y142.98 E.13385
G1 X67.998 Y141.73 E.08361
G1 X66.546 Y140.589 E.05502
G1 X66.227 Y140.227 E.01436
G1 X65.557 Y138.692 E.04988
G1 X65.512 Y138.303 E.01168
G1 X65.596 Y137.605 E.02094
G1 X66.074 Y136.475 E.03657
G1 X66.334 Y136.075 E.01421
G1 X67.956 Y134.741 E.06254
G1 X70.624 Y133.416 E.08874
G1 X74.751 Y131.91 E.13086
G1 X75.535 Y131.707 E.0241
G1 X75.63 Y132.067 F9000
G1 F1200
G1 X75.774 Y132.029 E.00445
G1 X77.586 Y132.028 E.05397
G1 X77.788 Y132.079 E.0062
G1 X78.165 Y132.269 E.01259
G1 X78.715 Y132.839 E.02357
G1 X78.866 Y133.16 E.01057
G1 X78.915 Y133.356 E.00602
G1 X78.922 Y134.374 E.03032
G1 X107.188 Y134.374 E.84195
G1 X107.37 Y134.403 E.0055
G1 X107.887 Y134.658 E.01716
G1 X108.302 Y135.073 E.01749
G1 X108.457 Y135.314 E.00853
G1 X108.587 Y135.711 E.01245
G1 X108.597 Y140.661 E.14746
G1 X108.567 Y140.843 E.0055
G1 X108.313 Y141.36 E.01716
G1 X107.898 Y141.775 E.01749
G1 X107.658 Y141.929 E.00848
G1 X107.202 Y142.07 E.01421
G1 X78.921 Y142.07 E.84239
G1 X78.923 Y143.009 E.02796
G1 X78.88 Y143.241 E.00704
G1 X78.642 Y143.71 E.01566
G1 X78.167 Y144.173 E.01976
G1 X77.793 Y144.362 E.01248
G1 X77.55 Y144.42 E.00743
G1 X75.837 Y144.424 E.05103
G1 X74.852 Y144.17 E.03029
G1 X70.67 Y142.637 E.13267
G1 X68.216 Y141.422 E.08158
G1 X66.793 Y140.304 E.05389
G1 X66.531 Y140.002 E.01191
G1 X65.928 Y138.617 E.04501
G1 X65.889 Y138.32 E.00893
G1 X65.954 Y137.726 E.01779
G1 X66.414 Y136.638 E.03518
G1 X66.633 Y136.307 E.01181
G1 X68.177 Y135.047 E.05938
G1 X70.763 Y133.767 E.08594
G1 X74.873 Y132.267 E.13032
G1 X75.572 Y132.082 E.02153
G1 X75.669 Y132.441 F9000
G1 F1200
G1 X75.801 Y132.406 E.00407
G1 X77.524 Y132.4 E.05134
G1 X77.64 Y132.427 E.00354
G1 X77.967 Y132.592 E.01091
G1 X78.387 Y133.027 E.01801
G1 X78.516 Y133.301 E.00901
G1 X78.543 Y133.418 E.00359
G1 X78.544 Y134.751 E.03969
G1 X107.171 Y134.751 E.85269
G1 X107.279 Y134.77 E.00327
G1 X107.643 Y134.947 E.01206
G1 X108.022 Y135.326 E.01598
G1 X108.107 Y135.456 E.0046
G1 X108.22 Y135.8 E.01079
G1 X108.22 Y140.644 E.14428
G1 X108.201 Y140.752 E.00327
G1 X108.024 Y141.116 E.01206
G1 X107.644 Y141.495 E.01598
G1 X107.515 Y141.58 E.0046
G1 X107.171 Y141.693 E.01079
G1 X78.543 Y141.693 E.85271
G1 X78.546 Y142.995 E.03878
G1 X78.528 Y143.103 E.00328
G1 X78.351 Y143.468 E.01208
G1 X77.969 Y143.851 E.01611
G1 X77.643 Y144.016 E.01088
G1 X77.528 Y144.043 E.00351
G1 X75.861 Y144.046 E.04965
G1 X74.974 Y143.813 E.02733
G1 X70.828 Y142.294 E.13152
G1 X68.433 Y141.113 E.07953
G1 X67.041 Y140.019 E.05273
G1 X66.836 Y139.779 E.00942
G1 X66.297 Y138.537 E.04034
G1 X66.267 Y138.33 E.00622
G1 X66.313 Y137.845 E.01452
